src/main/resources/org/dpsoftware/lut/1200nits_HDR-to-SDR.cube
#DPsofrware (Davide Perini) 3D LUT. Generated by Resolve.
TITLE "1200nits_HDR-to-SDR"
LUT_3D_SIZE 33
0 0 0
0.0289921 0 0
0.0550851 0 0
0.0836347 0 0
0.115709 0 0
0.151446 0 0
0.191257 0 0
0.235554 0 0
0.284764 0 0
0.33933 0 0
0.39968 0 0
0.466285 0 0
0.539559 0 0
0.619883 0 0
0.707576 0 0
0.802792 0 0
0.905547 0 0
1 0 0
1 0 0
1 0 0
1 0 0
1 0 0
1 0 0
1 0 0
1 0 0
1 0 0
1 0 0.0820935
1 0 0.167498
1 0 0.237675
1 0 0.302251
1 0 0.35433
1 0 0.35433
1 0 0.35433
0 0.0197604 0
0.0186923 0.0175631 0
0.0447395 0.0155947 0
0.0730144 0.0134585 0
0.107027 0.0107424 0
0.144244 0.00706493 0
0.185199 0.00215152 0
0.230411 0 0
0.280354 0 0
0.335485 0 0
0.396307 0 0
0.463294 0 0
0.536858 0 0
0.617426 0 0
0.705318 0 0
0.800687 0 0
0.903563 0 0
1 0 0
1 0 0
1 0 0
1 0 0
1 0 0
1 0 0
1 0 0
1 0 0
1 0 0
1 0 0.0823072
1 0 0.167636
1 0 0.237781
1 0 0.302342
1 0 0.354284
1 0 0.354284
1 0 0.354299
0 0.0374914 0
0.00944533 0.0352941 0
0.0354467 0.0333104 0
0.0636759 0.0311742 0
0.0988479 0.0284428 0
0.13756 0.0247501 0
0.179644 0.0198062 0
0.225711 0.0132296 0
0.276326 0.00457771 0
0.332006 0 0
0.393256 0 0
0.460578 0 0
0.534432 0 0
0.615213 0 0
0.703273 0 0
0.798779 0 0
0.901778 0 0
1 0 0
1 0 0
1 0 0
1 0 0
1 0 0
1 0 0
1 0 0
1 0 0
1 0 0
1 0 0.0824903
1 0 0.167758
1 0 0.237873
1 0 0.302419
1 0 0.354238
1 0 0.354253
1 0 0.354269
0 0.0566873 0
0 0.05449 0
0.025391 0.0525063 0
0.0535592 0.0503395 0
0.0894789 0.0475929 0
0.130037 0.0438849 0
0.173465 0.0389105 0
0.220523 0.0323186 0
0.271916 0.023621 0
0.328206 0.012253 0
0.389929 0 0
0.457633 0 0
0.531792 0 0
0.612818 0 0
0.70106 0 0
0.796719 0 0
0.89984 0 0
1 0 0
1 0 0
1 0 0
1 0 0
1 0 0
1 0 0
1 0 0
1 0 0
1 0 0
1 0 0.0827039
1 0 0.167895
1 0 0.23798
1 0 0.302495
1 0 0.354192
1 0 0.354223
1 0 0.354253
0 0.0813306 0
0 0.0788739 0
0.0126192 0.0768597 0
0.0407263 0.0746929 0
0.0765393 0.071931 0
0.120043 0.0681926 0
0.165347 0.0631876 0
0.213794 0.0565499 0
0.266209 0.0478065 0
0.323308 0.0363622 0
0.385657 0.0215 0
0.453864 0.00236515 0
0.528405 0 0
0.609735 0 0
0.698238 0 0
0.794095 0 0
0.897368 0 0
1 0 0
1 0 0
1 0 0
1 0 0
1 0 0
1 0 0
1 0 0
1 0 0
1 0 0
1 0 0.0829786
1 0 0.168063
1 0 0.238102
1 0 0.302602
1 0 0.354131
1 0 0.354177
1 0 0.354208
0 0.111147 0
0 0.10927 0
0 0.107576 0
0.0234379 0.105699 0
0.059144 0.103304 0
0.105623 0.0999924 0
0.153918 0.0954452 0
0.20444 0.0892195 0
0.258366 0.080354 0
0.316594 0.0688029 0
0.379843 0.0538338 0
0.448722 0.0345159 0
0.523812 0.00981155 0
0.605585 0 0
0.694408 0 0
0.790539 0 0
0.894026 0 0
1 0 0
1 0 0
1 0 0
1 0 0
1 0 0
1 0 0
1 0 0
1 0 0
1 0 0
1 0 0.0833295
1 0 0.168307
1 0 0.238285
1 0 0.302754
1 0 0.354055
1 0 0.354116
1 0 0.354162
0 0.144228 0
0 0.142657 0
0 0.141222 0
0.000411994 0.139651 0
0.0359655 0.137636 0
0.0842298 0.13489 0
0.137652 0.131136 0
0.191394 0.12604 0
0.247578 0.119097 0
0.307454 0.10959 0
0.371939 0.0963912 0
0.441794 0.0773632 0
0.517632 0.0523842 0
0.599985 0.0206455 0
0.689281 0 0
0.785779 0 0
0.88954 0 0
1 0 0
1 0 0
1 0 0
1 0 0
1 0 0
1 0 0
1 0 0
1 0 0
1 0 0
1 0 0.0838178
1 0 0.168612
1 0 0.238529
1 0 0.302937
1 0 0.353948
1 0 0.35404
1 0 0.354116
0 0.180865 0
0 0.179522 0
0 0.178302 0
0 0.176974 0
0.00540169 0.175265 0
0.0531777 0.17293 0
0.113817 0.169787 0
0.173007 0.165515 0
0.23267 0.159777 0
0.294987 0.15201 0
0.361273 0.141482 0
0.432471 0.127001 0
0.509361 0.10663 0
0.592523 0.0763409 0
0.682445 0.0357824 0
0.779431 0 0
0.883589 0 0
0.994766 0 0
1 0 0
1 0 0
1 0 0
1 0 0
1 0 0
1 0 0
1 0 0
1 0 0
1 0 0.0844739
1 0 0.169039
1 0 0.238849
1 0 0.303197
1 0 0.353826
1 0 0.353933
1 0 0.354025
0 0.221317 0
0 0.220157 0
0 0.219104 0
0 0.21796 0
0 0.216495 0
0.0129397 0.214496 0
0.076463 0.21181 0
0.146426 0.208179 0
0.211872 0.203326 0
0.277943 0.196826 0
0.346853 0.188113 0
0.419989 0.176394 0
0.498344 0.160433 0
0.58262 0.138231 0
0.673411 0.105989 0
0.771054 0.0562142 0
0.875746 0 0
0.987335 0 0
1 0 0
1 0 0
1 0 0
1 0 0
1 0 0
1 0 0
1 0 0
1 0 0
1 0 0.0853285
1 0 0.169589
1 0 0.239277
1 0 0.303532
1 0 0.353643
1 0 0.353796
1 0 0.353918
0 0.265782 0
0 0.264775 0
0 0.263859 0
0 0.262867 0
0 0.261585 0
0 0.259861 0
0.0238499 0.257527 0
0.105684 0.254398 0
0.182177 0.250233 0
0.254398 0.244678 0
0.327321 0.237308 0
0.403296 0.227481 0
0.483711 0.214374 0
0.569543 0.196674 0
0.661509 0.172335 0
0.760067 0.13756 0
0.865461 0.0831617 0
0.977615 0.00318914 0
1 0 0
1 0 0
1 0 0
1 0 0
1 0 0
1 0 0
1 0 0
1 0 0
1 0 0.0864729
1 0 0.170321
1 0 0.239841
1 0 0.30399
1 0 0.353399
1 0 0.353613
1 0 0.35378
0 0.314443 0
0 0.313558 0
0 0.312749 0
0 0.311879 0
0 0.31075 0
0 0.309239 0
0 0.307195 0
0.0391546 0.304463 0
0.137407 0.300816 0
0.221164 0.295995 0
0.300633 0.289631 0
0.38088 0.281224 0
0.464286 0.270115 0
0.552331 0.255375 0
0.645945 0.23566 0
0.745739 0.20882 0
0.852079 0.171038 0
0.964981 0.113512 0
1 0.0178225 0
1 0 0
1 0 0
1 0 0
1 0 0
1 0 0
1 0 0
1 0 0
1 0 0.087953
1 0 0.171283
1 0 0.240574
1 0 0.304585
1 0 0.353094
1 0 0.353384
1 0 0.353597
0 0.367407 0
0 0.366613 0
0 0.365896 0
0 0.365118 0
0 0.364126 0
0 0.362768 0
0 0.360967 0
0 0.358541 0
0.059968 0.355337 0
0.171832 0.35108 0
0.263355 0.345495 0
0.35053 0.338155 0
0.438483 0.328527 0
0.529686 0.315892 0
0.62562 0.299245 0
0.727138 0.277165 0
0.834775 0.247425 0
0.948669 0.206149 0
1 0.144762 0
1 0.0366369 0
1 0 0
1 0 0
1 0 0
1 0 0
1 0 0
1 0 0
1 0 0.0899062
1 0 0.172549
1 0 0.24155
1 0 0.305348
1 0 0.352682
1 0 0.353063
1 0 0.353368
0 0.424643 0
0 0.423926 0
0 0.423285 0
0 0.422583 0
0 0.421698 0
0 0.420493 0
0 0.41886 0
0 0.416693 0
0 0.413825 0
0.0876478 0.41004 0
0.208865 0.405066 0
0.308644 0.39855 0
0.403906 0.390066 0
0.499901 0.378988 0
0.599145 0.364553 0
0.703075 0.345693 0
0.812512 0.320867 0
0.927764 0.28777 0
1 0.242496 0
1 0.176562 0
1 0.0595865 0
1 0 0
1 0 0
1 0 0
1 0 0
1 0 0
1 0 0.0924239
1 0 0.174197
1 0 0.242802
1 0 0.306355
1 0 0.352178
1 0 0.352667
1 0 0.353063
0 0.486015 0
0 0.485374 0
0 0.484794 0
0 0.484154 0
0 0.48336 0
0 0.482261 0
0 0.480797 0
0 0.478828 0
0 0.476234 0
0 0.472816 0
0.118532 0.468345 0
0.248356 0.462486 0
0.356771 0.454887 0
0.46041 0.445029 0
0.564675 0.432242 0
0.672068 0.415686 0
0.783993 0.394217 0
0.901106 0.366217 0
1 0.329305 0
1 0.279469 0
1 0.208347 0
1 0.0863508 0
1 0 0
1 0 0
1 0 0
1 0 0.000869764
1 0 0.0957046
1 0 0.176349
1 0 0.24445
1 0 0.307668
1 0 0.351507
1 0 0.352148
1 0 0.352667
0 0.551217 0
0 0.550622 0
0 0.550088 0
0 0.549508 0
0 0.548775 0
0 0.547768 0
0 0.546441 0
0 0.54464 0
0 0.54229 0
0 0.539178 0
0 0.535103 0
0.150988 0.529793 0
0.289937 0.522896 0
0.407279 0.514 0
0.519524 0.502495 0
0.632105 0.487709 0
0.747616 0.468681 0
0.867323 0.44419 0
0.991684 0.412558 0
1 0.371328 0
1 0.316426 0
1 0.239475 0
1 0.11252 0
1 0 0
1 0 0
1 0 0.00582895
1 0 0.0999466
1 0 0.179156
1 0 0.246571
1 0 0.309361
1 0 0.350652
1 0 0.351492
1 0 0.352148
0 0.619654 0
0 0.619104 0
0 0.618616 0
0 0.618097 0
0 0.617411 0
0 0.616495 0
0 0.615274 0
0 0.613626 0
0 0.61146 0
0 0.608606 0
0 0.604868 0
0 0.600015 0
0.184665 0.593729 0
0.33315 0.585611 0
0.459586 0.575158 0
0.580453 0.561761 0
0.70132 0.544625 0
0.82472 0.522744 0
0.951766 0.494804 0
1 0.459068 0
1 0.413016 0
1 0.352529 0
1 0.269306 0
1 0.182849 0
1 0.0533761 0
1 0 0.0123293
1 0 0.105394
1 0 0.182788
1 0 0.249332
1 0 0.311543
1 0 0.349584
1 0 0.350652
1 0 0.351507
0 0.690578 0
0 0.690074 0
0 0.689616 0
0 0.689128 0
0 0.688502 0
0 0.687663 0
0 0.686534 0
0 0.685023 0
0 0.683024 0
0 0.6804 0
0 0.676966 0
0 0.672496 0
0 0.666728 0
0.21912 0.659281 0
0.377356 0.649714 0
0.512871 0.637476 0
0.642267 0.621866 0
0.77116 0.602045 0
0.902022 0.576913 0
1 0.545113 0
1 0.504829 0
1 0.453498 0
1 0.387045 0
1 0.331243 0
1 0.253315 0
1 0.149111 0.0209354
1 0 0.112367
1 0 0.187488
1 0 0.252903
1 0 0.314366
1 0 0.348226
1 0 0.349599
1 0 0.350683
0 0.762936 0
0 0.762463 0
0 0.762051 0
0 0.761608 0
0 0.761028 0
0 0.76025 0
0 0.759213 0
0 0.757809 0
0 0.755978 0
0 0.753567 0
0 0.750408 0
0 0.746288 0
0 0.740978 0
0 0.734127 0
0.253773 0.725353 0
0.421744 0.714122 0
0.566201 0.69984 0
0.703838 0.681743 0
0.840345 0.6589 0
0.978103 0.630152 0
1 0.594095 0
1 0.548867 0
1 0.502312 0
1 0.447715 0
1 0.383078 0
1 0.307668 0.0323949
1 0.218952 0.121248
1 0.108019 0.193561
1 0 0.257527
1 0 0.318013
1 0 0.346548
1 0 0.348272
1 0 0.349645
0 0.835492 0
0 0.835065 0
0 0.834684 0
0 0.834272 0
0 0.833738 0
0 0.833021 0
0 0.832059 0
0 0.830793 0
0 0.829099 0
0 0.826886 0
0 0.823987 0
0 0.820218 0
0 0.815335 0
0 0.809064 0
0 0.801007 0
0.287922 0.790707 0
0.465461 0.77763 0
0.618524 0.761074 0
0.763958 0.740215 0
0.907515 0.714046 0
1 0.681376 0
1 0.644678 0
1 0.601648 0
1 0.551415 0
1 0.493767 0
1 0.428748 0.0477302
1 0.356878 0.132479
1 0.279576 0.201373
1 0.200153 0.263462
1 0.127733 0.322698
1 0 0.344457
1 0 0.346593
1 0 0.348333
0 0.906859 0
0 0.906477 0
0 0.906126 0
0 0.905745 0
0 0.905272 0
0 0.904616 0
0 0.903746 0
0 0.902586 0
0 0.901045 0
0 0.899016 0
0 0.896376 0
0 0.892927 0
0 0.888487 0
0 0.88275 0
0 0.87541 0
0 0.866011 0
0.320867 0.854078 0
0.507607 0.838972 0
0.668772 0.819944 0
0.82031 0.795514 0
0.965209 0.767056 0
1 0.733379 0
1 0.693736 0
1 0.647608 0
1 0.594842 0
1 0.535729 0.0683299
1 0.471199 0.146532
1 0.403281 0.211337
1 0.335821 0.271077
1 0.275898 0.328695
1 0.161013 0.341878
1 0 0.344533
1 0 0.346685
0 0.975647 0
0 0.975296 0
0 0.97499 0
0 0.97464 0
0 0.974212 0
0 0.973617 0
0 0.972839 0
0 0.971786 0
0 0.970397 0
0 0.968566 0
0 0.965377 0
0 0.961227 0
0 0.956466 0
0 0.950668 0
0 0.943465 0
0 0.934524 0
0.096376 0.9234 0
0.378531 0.909636 0
0.561074 0.892683 0
0.720989 0.871916 0
0.871946 0.846662 0
1 0.816297 0
1 0.780194 0
1 0.737926 0
1 0.689281 0.0195926
1 0.634546 0.0955673
1 0.574624 0.163897
1 0.51133 0.223972
1 0.447959 0.280797
1 0.388571 0.33492
1 0.284108 0.338781
1 0.154849 0.342
1 0 0.344656
0 1 0
0 1 0
0 1 0
0 1 0
0 1 0
0 1 0
0 1 0
0 1 0
0 1 0
0 1 0
0 1 0
0 1 0
0 1 0
0 1 0
0 1 0
0 0.997314 0
0 0.987915 0
0.18613 0.97612 0
0.428977 0.961395 0
0.607416 0.94316 0
0.767346 0.92079 0
0.919448 0.893614 0
1 0.861021 0
1 0.822507 0
1 0.777813 0.0585184
1 0.727047 0.126329
1 0.670924 0.185016
1 0.610925 0.23978
1 0.549767 0.29308
1 0.480507 0.33051
1 0.385306 0.335058
1 0.279194 0.338933
1 0.146105 0.342168
0 1 0
0 1 0
0 1 0
0 1 0
0 1 0
0 1 0
0 1 0
0 1 0
0 1 0
0 1 0
0 1 0
0 1 0
0 1 0
0 1 0
0 1 0
0 1 0
0 1 0
0 1 0
0.249607 1 0
0.473793 1 0
0.649485 0.988678 0
0.809277 0.96463 0
0.961761 0.935546 0.00268559
1 0.900847 0.0509804
1 0.860151 0.107988
1 0.813413 0.160525
1 0.761059 0.210285
1 0.704234 0.259266
1 0.64509 0.308476
1 0.566873 0.32546
1 0.477272 0.330694
1 0.380758 0.335241
1 0.272572 0.339132
0 1 0
0 1 0
0 1 0
0 1 0
0 1 0
0 1 0
0 1 0
0 1 0
0 1 0
0 1 0
0 1 0
0 1 0
0 1 0
0 1 0
0 1 0
0 1 0
0 1 0
0 1 0
0 1 0
0.305119 1 0
0.515328 1 0.00994888
0.687831 1 0.0393988
0.846555 1 0.076112
0.998581 0.972168 0.117449
1 0.935653 0.157717
1 0.893187 0.198337
1 0.844938 0.239933
1 0.791653 0.282918
1 0.728298 0.313344
1 0.648829 0.319753
1 0.56379 0.325658
1 0.473014 0.330907
1 0.374929 0.335485
0 1 0.0104372
0 1 0.0106966
0 1 0.0109255
0 1 0.0111849
0 1 0.0115053
0 1 0.0119478
0 1 0.0125277
0 1 0.0133211
0 1 0.0143587
0 1 0.0157168
0 1 0.0175021
0 1 0.0198367
0 1 0.022858
0 1 0.0267491
0 1 0.0317845
0 1 0.0382391
0 1 0.0465095
0 1 0.0570535
0 1 0.0704814
0 1 0.0876326
0.35668 1 0.107042
0.554376 1 0.128679
0.722683 1 0.152667
0.879362 1 0.179126
1 1 0.208133
1 0.965576 0.23978
1 0.921828 0.274067
1 0.868223 0.299702
1 0.800595 0.306691
1 0.72636 0.313512
1 0.645975 0.319966
1 0.559853 0.325902
1 0.467689 0.331182
0 1 0.134524
0 1 0.134691
0 1 0.134844
0 1 0.134997
0 1 0.13521
0 1 0.1355
0 1 0.135882
0 1 0.136385
0 1 0.137041
0 1 0.137926
0 1 0.139055
0 1 0.140536
0 1 0.142428
0 1 0.144854
0 1 0.147936
0 1 0.151827
0 1 0.15671
0 1 0.162799
0 1 0.170321
0 1 0.179522
0.131823 1 0.190677
0.405966 1 0.204044
0.591363 1 0.219913
0.754452 1 0.238529
0.907912 1 0.260075
1 1 0.27985
1 0.981872 0.286107
1 0.928267 0.292821
1 0.867231 0.299809
1 0.798962 0.306844
1 0.723842 0.313726
1 0.64242 0.320241
1 0.554986 0.326207
0 1 0.228321
0 1 0.228428
0 1 0.228519
0 1 0.228611
0 1 0.228733
0 1 0.228901
0 1 0.229114
0 1 0.229404
0 1 0.229801
0 1 0.23032
0 1 0.230976
0 1 0.231846
0 1 0.232975
0 1 0.234424
0 1 0.236286
0 1 0.238651
0 1 0.241672
0 1 0.245487
0 1 0.250278
0 1 0.253407
0 1 0.255467
0.212879 1 0.258
0.439139 1 0.261082
0.611002 1 0.264775
0.765652 1 0.269123
0.912367 1 0.274159
1 1 0.27985
1 0.981613 0.286152
1 0.927581 0.292897
1 0.865965 0.299947
1 0.796887 0.307042
1 0.720775 0.313985
1 0.638102 0.320562
0 1 0.245609
0 1 0.24564
0 1 0.245655
0 1 0.24567
0 1 0.245701
0 1 0.245731
0 1 0.245777
0 1 0.245853
0 1 0.24593
