src/main/resources/org/dpsoftware/lut/1200nits_HDR-to-SDR.cube
#DPsofrware (Davide Perini) 3D LUT. Generated by Resolve.
TITLE "1200nits_HDR-to-SDR"
LUT_3D_SIZE 5
0 0 0
0.284764 0 0
0.905547 0 0
1 0 0
1 0 0.35433
0 0.221317 0
0.211872 0.203326 0
0.875746 0 0
1 0 0
1 0 0.353918
0 0.690578 0
0 0.683024 0
0.642267 0.621866 0
1 0.253315 0
1 0 0.350683
0 1 0.0104372
0 1 0.0143587
0 1 0.0465095
1 1 0.208133
1 0.467689 0.331182
0 1 0.245609
0 1 0.245701
0 1 0.246403
0 1 0.251469
1 1 0.27985
0 0 0.223667
0.276631 0 0.219532
0.902296 0 0.186145
1 0 0.0337377
1 0 0.362646
0 0.219867 0.205921
0.201831 0.201831 0.201831
0.872541 0 0.168704
1 0 0.0412146
1 0 0.362219
0 0.689525 0.0360418
0 0.681987 0.0320592
0.639185 0.620935 0.00141909
1 0.253239 0.0659342
1 0 0.35877
0 1 0.0882887
0 1 0.0916609
0 1 0.117098
1 1 0.237079
1 0.467643 0.337942
0 1 0.250156
0 1 0.250233
0 1 0.250904
0 1 0.255711
1 1 0.28278
0 0 0.774502
0.200046 0 0.7691
0.875212 0 0.727123
1 0 0.527291
1 0 0.425864
0 0.207691 0.758724
0.0962081 0.189303 0.753552
0.845808 0 0.713268
1 0 0.522362
1 0 0.425254
0 0.680888 0.646769
0 0.673457 0.643
0.61326 0.61326 0.61326
1 0.252537 0.486046
1 0 0.420264
0 1 0.38645
0 1 0.386694
0 1 0.38883
1 1 0.409094
1 0.467247 0.389914
0 1 0.285573
0 1 0.285618
0 1 0.28603
0 1 0.289006
1 1 0.306188
0 0 1
0 0 1
0.671214 0 1
1 0 1
1 0 0.741497
0 0.109071 1
0 0.084184 1
0.642863 0 1
1 0 1
1 0 0.740124
0 0.620508 1
0 0.613809 1
0.396658 0.558999 1
1 0.248875 1
1 0 0.729015
0 1 1
0 1 1
0 1 1
0.981811 0.981796 0.981796
1 0.464302 0.65977
0 1 0.477806
0 1 0.477745
0 1 0.477165
0 1 0.472938
1 1 0.446983
0 0 1
0 0 1
0 0 1
1 0 1
1 0 1
0 0.00944533 1
0 0.00386053 1
0 0 1
1 0 1
1 0 1
0 0.424094 1
0 0.421729 1
0 0.402502 1
1 0.284703 1
1 0 1
0 0.963714 1
0 0.962249 1
0 0.950225 1
0.681025 0.853101 1
1 0.443061 1
0 1 1
0 1 1
0 1 1
0 1 1
0.999985 0.999969 0.999985
