src/main/resources/org/dpsoftware/lut/1200nits_HDR-to-SDR.cube
#DPsofrware (Davide Perini) 3D LUT. Generated by Resolve.
TITLE "1200nits_HDR-to-SDR"
LUT_3D_SIZE 9
0 0 0
0.115709 0 0
0.284764 0 0
0.539559 0 0
0.905547 0 0
1 0 0
1 0 0
1 0 0.237675
1 0 0.35433
0 0.0813306 0
0.0765393 0.071931 0
0.266209 0.0478065 0
0.528405 0 0
0.897368 0 0
1 0 0
1 0 0
1 0 0.238102
1 0 0.354208
0 0.221317 0
0 0.216495 0
0.211872 0.203326 0
0.498344 0.160433 0
0.875746 0 0
1 0 0
1 0 0
1 0 0.239277
1 0 0.353918
0 0.424643 0
0 0.421698 0
0 0.413825 0
0.403906 0.390066 0
0.812512 0.320867 0
1 0.0595865 0
1 0 0
1 0 0.242802
1 0 0.353063
0 0.690578 0
0 0.688502 0
0 0.683024 0
0 0.666728 0
0.642267 0.621866 0
1 0.504829 0
1 0.253315 0
1 0 0.252903
1 0 0.350683
0 0.975647 0
0 0.974212 0
0 0.970397 0
0 0.956466 0
0.096376 0.9234 0
0.871946 0.846662 0
1 0.689281 0.0195926
1 0.447959 0.280797
1 0 0.344656
0 1 0.0104372
0 1 0.0115053
0 1 0.0143587
0 1 0.022858
0 1 0.0465095
0.35668 1 0.107042
1 1 0.208133
1 0.800595 0.306691
1 0.467689 0.331182
0 1 0.245609
0 1 0.245686
0 1 0.245853
0 1 0.246387
0 1 0.247868
0 1 0.251713
0.433448 1 0.26099
1 1 0.27985
1 0.791485 0.307576
0 1 0.245609
0 1 0.24564
0 1 0.245701
0 1 0.245884
0 1 0.246403
0 1 0.247791
0 1 0.251469
0.408423 1 0.260548
1 1 0.27985
0 0 0.0807202
0.111345 0 0.0791333
0.282567 0 0.0749828
0.538262 0 0.0629282
0.904662 0 0.0320287
1 0 0
1 0 0
1 0 0.246723
1 0 0.356619
0 0.0804303 0.0728161
0.0712749 0.0712749 0.0712749
0.263905 0.0471809 0.0672313
0.527108 0 0.0554818
0.896483 0 0.02533
1 0 0
1 0 0
1 0 0.24712
1 0 0.356497
0 0.22092 0.0524147
0 0.216098 0.0509804
0.209171 0.202914 0.0471962
0.497002 0.159976 0.0362097
0.874876 0 0.00796521
1 0 0
1 0 0
1 0 0.248188
1 0 0.356207
0 0.424323 0
0 0.421378 0
0 0.41352 0
0.402426 0.389761 0
0.811658 0.320562 0
1 0.059144 0
1 0 0
1 0 0.251423
1 0 0.355322
0 0.690288 0
0 0.688228 0
0 0.682734 0
0 0.666453 0
0.641428 0.621622 0
1 0.504616 0
1 0.2533 0
1 0 0.260746
1 0 0.352911
0 0.975418 0
0 0.973968 0
0 0.970153 0
0 0.956191 0
0.094377 0.923186 0
0.871519 0.846494 0
1 0.689189 0.0461891
1 0.447959 0.286931
1 0 0.346777
0 1 0.0316625
0 1 0.0327001
0 1 0.0354772
0 1 0.0437781
0 1 0.0668956
0.356329 1 0.122499
1 1 0.216358
1 0.800534 0.310643
1 0.467674 0.333043
0 1 0.24921
0 1 0.249271
0 1 0.249454
0 1 0.249958
0 1 0.251362
0 1 0.25507
0.433326 1 0.263981
1 1 0.28217
1 0.79147 0.308965
0 1 0.24686
0 1 0.246876
0 1 0.246937
0 1 0.24712
0 1 0.247639
0 1 0.249012
0 1 0.252628
0.408377 1 0.261601
1 1 0.280659
0 0 0.223667
0.0991531 0 0.222538
0.276631 0 0.219532
0.534813 0 0.210605
0.902296 0 0.186145
1 0 0.12192
1 0 0.0337377
1 0 0.269566
1 0 0.362646
0 0.0786755 0.21883
0.0573129 0.0695506 0.217716
0.257679 0.0455177 0.21471
0.523629 0 0.205829
0.894118 0 0.18143
1 0 0.116976
1 0 0.0361639
1 0 0.269871
1 0 0.362524
0 0.219867 0.205921
0 0.21503 0.204791
0.201831 0.201831 0.201831
0.493446 0.158801 0.193011
0.872541 0 0.168704
1 0 0.10338
1 0 0.0412146
1 0 0.27068
1 0 0.362219
0 0.423499 0.166369
0 0.420554 0.16527
0 0.412695 0.162325
0.398489 0.388952 0.153521
0.809369 0.319783 0.128786
1 0.0579385 0.0590677
1 0 0.0504768
1 0 0.273198
1 0 0.361303
0 0.689525 0.0360418
0 0.687465 0.0349584
0 0.681987 0.0320592
0 0.665721 0.0235904
0.639185 0.620935 0.00141909
1 0.504051 0
1 0.253239 0.0659342
1 0 0.280659
1 0 0.35877
0 0.974777 0
0 0.973342 0
0 0.969528 0
0 0.955459 0
0.0889296 0.922576 0
0.870359 0.846036 0
1 0.688945 0.113725
1 0.447944 0.302724
1 0 0.352346
0 1 0.0882887
0 1 0.0892195
0 1 0.0916609
0 1 0.0987716
0 1 0.117098
0.355413 1 0.158373
1 1 0.237079
1 0.800397 0.320974
1 0.467643 0.337942
0 1 0.258595
0 1 0.258656
0 1 0.258808
0 1 0.259251
0 1 0.260517
0 1 0.263828
0.433005 1 0.271839
1 1 0.288258
1 0.791409 0.312627
0 1 0.250156
0 1 0.250172
0 1 0.250233
0 1 0.250416
0 1 0.250904
0 1 0.252232
0 1 0.255711
0.408255 1 0.264363
1 1 0.28278
0 0 0.442847
0.0577554 0 0.441703
0.258228 0 0.438636
0.524392 0 0.429633
0.895201 0 0.405615
1 0 0.348287
1 0 0.256458
1 0 0.329351
1 0 0.380194
0 0.0734569 0.43888
0.0157168 0.0644083 0.437736
0.2383 0.0405585 0.434699
0.513115 0 0.425788
0.887053 0 0.402029
1 0 0.345174
1 0 0.256474
1 0 0.329442
1 0 0.380056
0 0.216678 0.428412
0 0.211826 0.427298
0.178531 0.198566 0.424353
0.482704 0.155215 0.415702
0.865538 0 0.392554
1 0 0.336965
1 0 0.256092
1 0 0.329717
1 0 0.379705
0 0.421012 0.39826
0 0.418067 0.397238
0 0.410224 0.394522
0.386526 0.386526 0.386526
0.802533 0.317418 0.365057
1 0.0543374 0.31284
1 0 0.253468
1 0 0.330632
1 0 0.378668
0 0.687251 0.320653
0 0.685191 0.319814
0 0.679744 0.317571
0 0.663539 0.310918
0.632441 0.618921 0.292866
1 0.502358 0.247517
1 0.253056 0.245136
1 0 0.333822
1 0 0.375814
0 0.972885 0.123735
0 0.97145 0.123003
0 0.967178 0.125963
0 0.953307 0.148699
0.0714427 0.920806 0.16669
0.866896 0.844678 0.190845
1 0.688197 0.239704
1 0.447929 0.346044
1 0 0.368551
0 1 0.204303
0 1 0.204715
0 1 0.205798
0 1 0.209049
0 1 0.217929
0.352667 1 0.240391
1 1 0.291417
1 0.799954 0.35021
1 0.467536 0.352255
0 1 0.285069
0 1 0.2851
0 1 0.285206
0 1 0.285527
0 1 0.286397
0 1 0.288685
0.432029 1 0.29427
1 1 0.305852
1 0.791257 0.323415
0 1 0.259831
0 1 0.259846
0 1 0.259907
0 1 0.26006
0 1 0.260487
0 1 0.261677
0 1 0.26479
0.407904 1 0.272511
1 1 0.289067
0 0 0.774502
0 0 0.773022
0.200046 0 0.7691
0.494377 0 0.757595
0.875212 0 0.727123
1 0 0.655818
1 0 0.527291
1 0 0.458625
1 0 0.425864
0 0.0590372 0.770138
0 0.0501869 0.768673
0.175891 0.0268406 0.764797
0.482841 0 0.753429
0.86714 0 0.723293
1 0 0.652705
1 0 0.525948
1 0 0.458381
1 0 0.425696
0 0.207691 0.758724
0 0.202762 0.757305
0.0962081 0.189303 0.753552
0.451606 0.144976 0.742535
0.845808 0 0.713268
1 0 0.644495
1 0 0.522362
1 0 0.45774
1 0 0.425254
0 0.414023 0.726299
0 0.411109 0.725002
0 0.403311 0.721584
0.351324 0.379736 0.711498
0.78323 0.310796 0.684611
1 0.0443122 0.620844
1 0 0.511894
1 0 0.45597
1 0 0.423926
0 0.680888 0.646769
0 0.678859 0.645747
0 0.673457 0.643
0 0.657435 0.634943
0.61326 0.61326 0.61326
1 0.497597 0.560632
1 0.252537 0.486046
1 0 0.451896
1 0 0.420264
0 0.96611 0.487907
0 0.964309 0.48806
0 0.959838 0.487968
0 0.947478 0.486397
0.0227512 0.915846 0.480064
0.85716 0.840879 0.463828
1 0.686107 0.439658
1 0.447898 0.446494
1 0 0.410956
0 1 0.38645
0 1 0.386511
0 1 0.386694
0 1 0.387228
0 1 0.38883
0.344869 1 0.393668
1 1 0.409094
1 0.798718 0.422095
1 0.467247 0.389914
0 1 0.349783
0 1 0.349783
0 1 0.349798
0 1 0.349813
0 1 0.349859
0 1 0.349996
0.429282 1 0.350332
1 1 0.351049
1 0.790829 0.352193
0 1 0.285573
0 1 0.285573
0 1 0.285618
0 1 0.285725
0 1 0.28603
0 1 0.286854
0 1 0.289006
0.406912 1 0.294423
1 1 0.306188
0 0 1
0 0 1
0 0 1
0.406195 0 1
0.820615 0 1
1 0 1
1 0 0.90959
1 0 0.695552
1 0 0.530999
0 0.0216831 1
0 0.0133364 1
0 0 1
0.393484 0 1
0.812726 0 1
1 0 1
1 0 0.907118
1 0 0.69485
1 0 0.530755
0 0.182696 1
0 0.177539 1
0 0.163363 1
0.358495 0.115541 1
0.791806 0 1
1 0 1
1 0 0.900664
1 0 0.693019
1 0 0.530098
0 0.3953 1
0 0.392432 1
0 0.384741 1
0.237995 0.36144 1
0.730098 0.292821 1
1 0.0179141 1
1 0 0.882353
1 0 0.687648
1 0 0.528176
0 0.663874 1
0 0.661906 1
0 0.656672 1
0 0.641093 1
0.559411 0.598062 1
1 0.484764 0.985092
1 0.25127 0.837217
1 0 0.673762
1 0 0.522866
0 0.949203 0.904128
0 0.947738 0.903181
0 0.943893 0.900694
0 0.932631 0.893492
0 0.90277 0.874632
0.830716 0.830716 0.830716
1 0.680507 0.746746
1 0.447837 0.643732
1 0 0.509285
0 1 0.665965
0 1 0.665751
0 1 0.665171
0 1 0.663508
0 1 0.658961
0.322942 1 0.647807
1 0.995453 0.625437
1 0.795331 0.573785
1 0.466453 0.478294
0 1 0.48542
0 1 0.485359
0 1 0.485206
0 1 0.484749
0 1 0.483467
0 1 0.480079
0.421668 1 0.47158
1 1 0.452888
1 0.789654 0.421469
0 1 0.34725
0 1 0.34725
0 1 0.34725
0 1 0.347265
0 1 0.347295
0 1 0.347372
0 1 0.34757
0.404196 1 0.348089
1 1 0.349233
0 0 1
0 0 1
0 0 1
0 0 1
0.671214 0 1
1 0 1
1 0 1
1 0 1
1 0 0.741497
0 0 1
0 0 1
0 0 1
0 0 1
0.663478 0 1
1 0 1
1 0 1
1 0 1
1 0 0.741115
0 0.109071 1
0 0.102617 1
0 0.084184 1
0 0.025803 1
0.642863 0 1
1 0 1
1 0 1
1 0 1
1 0 0.740124
0 0.346868 1
0 0.344076 1
0 0.336568 1
0 0.31368 1
0.580911 0.244709 1
1 0 1
1 0 1
1 0 1
1 0 0.737163
0 0.620508 1
0 0.618677 1
0 0.613809 1
0 0.599298 1
0.396658 0.558999 1
1 0.45127 1
1 0.248875 1
1 0 1
1 0 0.729015
0 0.911101 1
0 0.90985 1
0 0.906523 1
0 0.896712 1
0 0.870207 1
0.760281 0.804913 1
1 0.666148 1
1 0.447852 0.982696
1 0 0.70808
0 1 1
0 1 1
0 1 1
0 1 1
0 1 1
0.258366 1 1
0.981811 0.981796 0.981796
1 0.786252 0.850904
1 0.464302 0.65977
0 1 0.73286
0 1 0.732723
0 1 0.732357
0 1 0.731258
0 1 0.728176
0 1 0.719982
0.400458 1 0.69929
1 1 0.65243
1 0.786435 0.568856
0 1 0.477806
0 1 0.477791
0 1 0.477745
0 1 0.477592
0 1 0.477165
0 1 0.476005
0 1 0.472938
0.396628 1 0.46508
1 1 0.446983
0 0 1
0 0 1
0 0 1
0 0 1
0.0882582 0 1
0.9402 0 1
1 0 1
1 0 1
1 0 1
0 0 1
0 0 1
0 0 1
0 0 1
0.0628061 0 1
0.93521 0 1
1 0 1
1 0 1
1 0 1
0 0 1
0 0 1
0 0 1
0 0 1
0 0 1
0.922225 0 1
1 0 1
1 0 1
1 0 1
0 0.224872 1
0 0.221958 1
0 0.214054 1
0 0.189273 1
0 0.105135 1
0.885191 0 1
1 0 1
1 0 1
1 0 1
0 0.522316 1
0 0.521294 1
0 0.518395 1
0 0.509056 1
0 0.482109 1
0.7906 0.412207 1
1 0.249592 1
1 0 1
1 0 1
0 0.829038 1
0 0.828092 1
0 0.825559 1
0 0.818051 1
0 0.797574 1
0.573632 0.746044 1
1 0.632929 1
1 0.449348 1
1 0 1
0 1 1
0 1 1
0 1 1
0 1 1
0 1 1
0 1 1
0.901747 0.947219 1
1 0.762478 1
1 0.458457 0.987686
0 1 1
0 1 1
0 1 1
0 1 1
0 1 1
0 1 1
0.338216 1 1
0.999985 0.999969 0.999985
1 0.777569 0.845136
0 1 0.72256
0 1 0.722515
0 1 0.722393
0 1 0.722011
0 1 0.720958
0 1 0.718105
0 1 0.710475
0.375021 1 0.690684
1 1 0.6439
0 0 1
0 0 1
0 0 1
0 0 1
0 0 1
0.293431 0 1
1 0 1
1 0 1
1 0 1
0 0 1
0 0 1
0 0 1
0 0 1
0 0 1
0.289433 0 1
1 0 1
1 0 1
1 0 1
0 0.00944533 1
0 0.00791943 1
0 0.00386053 1
0 0 1
0 0 1
0.27866 0 1
1 0 1
1 0 1
1 0 1
0 0.20061 1
0 0.199649 1
0 0.19707 1
0 0.189319 1
0 0.1673 1
0.245304 0.103914 1
1 0 1
1 0 1
1 0 1
0 0.424094 1
0 0.423453 1
0 0.421729 1
0 0.416602 1
0 0.402502 1
0.135378 0.366384 1
1 0.284703 1
1 0.118624 1
1 0 1
0 0.691859 1
0 0.691325 1
0 0.689921 1
0 0.68571 1
0 0.674144 1
0 0.644419 1
0.924849 0.576547 1
1 0.421592 1
1 0.0273899 1
0 0.963714 1
0 0.963317 1
0 0.962249 1
0 0.95906 1
0 0.950225 1
0 0.922133 1
0.681025 0.853101 1
1 0.704616 1
1 0.443061 1
0 1 1
0 1 1
0 1 1
0 1 1
0 1 1
0 1 1
0.0850233 1 1
0.905211 0.952758 1
1 0.753323 1
0 1 1
0 1 1
0 1 1
0 1 1
0 1 1
0 1 1
0 1 1
0.307805 1 1
0.999985 0.999969 0.999985
