src/main/resources/org/dpsoftware/lut/400nits_HDR-to-SDR.cube
#DPsofrware (Davide Perini) 3D LUT. Generated by Resolve.
TITLE "400nits_HDR-to-SDR"
LUT_3D_SIZE 33
0 0 0
0.0280766 0 0
0.0533761 0 0
0.0808576 0 0
0.112764 0 0
0.148074 0 0
0.187457 0 0
0.231327 0 0
0.280171 0 0
0.334447 0 0
0.394659 0 0
0.461387 0 0
0.535164 0 0
0.616571 0 0
0.706203 0 0
0.804562 0 0
0.912108 0 0
1 0 0
1 0 0
1 0 0
1 0 0
1 0 0
1 0 0
1 0 0
1 0 0
1 0 0
1 0 0.105821
1 0 0.118288
1 0 0.118288
1 0 0.118288
1 0 0.118288
1 0 0.118288
1 0 0.118288
0 0.0191501 0
0.0181277 0.0170291 0
0.0433967 0.0151369 0
0.0708324 0.0130617 0
0.104295 0.0104219 0
0.14107 0.00686656 0
0.181598 0.00209049 0
0.226398 0 0
0.275959 0 0
0.330816 0 0
0.391516 0 0
0.458625 0 0
0.532723 0 0
0.614404 0 0
0.70425 0 0
0.802777 0 0
0.910475 0 0
1 0 0
1 0 0
1 0 0
1 0 0
1 0 0
1 0 0
1 0 0
1 0 0
1 0 0
1 0 0.106081
1 0 0.117998
1 0 0.118074
1 0 0.11812
1 0 0.118151
1 0 0.118181
1 0 0.118212
0 0.0363622 0
0.00917067 0.0342565 0
0.0344091 0.0323339 0
0.0618296 0.0302739 0
0.0962844 0.0276341 0
0.134554 0.0240482 0
0.176211 0.0192569 0
0.221866 0.0128939 0
0.272114 0.00447089 0
0.327535 0 0
0.388678 0 0
0.456138 0 0
0.530541 0 0
0.612451 0 0
0.70248 0 0
0.80116 0 0
0.90898 0 0
1 0 0
1 0 0
1 0 0
1 0 0
1 0 0
1 0 0
1 0 0
1 0 0
1 0 0
1 0 0.10631
1 0 0.117754
1 0 0.117876
1 0 0.117968
1 0 0.118044
1 0 0.118105
1 0 0.118135
0 0.0550393 0
0 0.0529183 0
0.0246738 0.0510109 0
0.0520638 0.0489357 0
0.0871138 0.0462806 0
0.12723 0.0426947 0
0.170214 0.0378882 0
0.216876 0.0314946 0
0.267903 0.0230564 0
0.323934 0.0119783 0
0.385565 0 0
0.453437 0 0
0.528145 0 0
0.610315 0 0
0.700557 0 0
0.79942 0 0
0.907378 0 0
1 0 0
1 0 0
1 0 0
1 0 0
1 0 0
1 0 0
1 0 0
1 0 0
1 0 0
1 0 0.106569
1 0 0.117479
1 0 0.117662
1 0 0.117815
1 0 0.117922
1 0 0.117998
1 0 0.118074
0 0.0788281 0
0 0.0766918 0
0.0122683 0.0747692 0
0.0396277 0.0726787 0
0.0744945 0.0700236 0
0.117464 0.0664225 0
0.162325 0.0616007 0
0.210376 0.0551919 0
0.262455 0.0467079 0
0.319295 0.0355993 0
0.381567 0.0211032 0
0.449958 0.00231937 0
0.525078 0 0
0.607599 0 0
0.6981 0 0
0.797177 0 0
0.905318 0 0
1 0 0
1 0 0
1 0 0
1 0 0
1 0 0
1 0 0
1 0 0
1 0 0
1 0 0
1 0 0.106889
1 0 0.117144
1 0 0.117403
1 0 0.117601
1 0 0.117754
1 0 0.117876
1 0 0.117983
0 0.108629 0
0 0.106813 0
0 0.10515 0
0.0228428 0.103349 0
0.0576638 0.100999 0
0.103349 0.0977798 0
0.151217 0.09337 0
0.201328 0.0872816 0
0.254917 0.0786297 0
0.312932 0.0674601 0
0.37612 0.052903 0
0.445212 0.0340276 0
0.520928 0.00970474 0
0.603891 0 0
0.694789 0 0
0.794156 0 0
0.902541 0 0
1 0 0
1 0 0
1 0 0
1 0 0
1 0 0
1 0 0
1 0 0
1 0 0
1 0 0
1 0 0.107332
1 0 0.11667
1 0 0.117037
1 0 0.117327
1 0 0.11754
1 0 0.117723
1 0 0.117861
0 0.141543 0
0 0.140017 0
0 0.138628 0
0.000396735 0.137118 0
0.0351415 0.135164 0
0.0823529 0.132509 0
0.135317 0.128878 0
0.188678 0.123934 0
0.244541 0.117189 0
0.304219 0.107927 0
0.368704 0.0950332 0
0.438804 0.0764172 0
0.515297 0.0519417 0
0.598917 0.0205692 0
0.690303 0 0
0.790097 0 0
0.898787 0 0
1 0 0
1 0 0
1 0 0
1 0 0
1 0 0
1 0 0
1 0 0
1 0 0
1 0 0
1 0 0.107927
1 0 0.116045
1 0 0.116548
1 0 0.116945
1 0 0.117266
1 0 0.117494
1 0 0.117678
0 0.178103 0
0 0.176822 0
0 0.175647 0
0 0.17438 0
0.00529488 0.172732 0
0.0521248 0.170504 0
0.111986 0.167468 0
0.170779 0.163363 0
0.230167 0.157824 0
0.292332 0.150317 0
0.358633 0.140108 0
0.430152 0.126009 0
0.507759 0.106096 0
0.592248 0.0762798 0
0.684337 0.0359655 0
0.784665 0 0
0.893812 0 0
1 0 0
1 0 0
1 0 0
1 0 0
1 0 0
1 0 0
1 0 0
1 0 0
1 0 0
1 0 0.108721
1 0 0.115206
1 0 0.115908
1 0 0.116457
1 0 0.116869
1 0 0.117205
1 0 0.117464
0 0.218662 0
0 0.217563 0
0 0.216556 0
0 0.215473 0
0 0.214084 0
0.012726 0.212177 0
0.0752728 0.209613 0
0.144808 0.206149 0
0.21001 0.201511 0
0.275975 0.195285 0
0.344991 0.186923 0
0.418524 0.175616 0
0.497673 0.160143 0
0.583352 0.138476 0
0.676387 0.106783 0
0.777478 0.0571298 0
0.887221 0 0
1 0 0
1 0 0
1 0 0
1 0 0
1 0 0
1 0 0
1 0 0
1 0 0
1 0 0
1 0 0.109773
1 0 0.114092
1 0 0.115053
1 0 0.115785
1 0 0.116365
1 0 0.116823
1 0 0.117159
0 0.263523 0
0 0.262562 0
0 0.261707 0
0 0.260777 0
0 0.259571 0
0 0.257939 0
0.0235904 0.255741 0
0.104753 0.252796 0
0.181064 0.248844 0
0.253285 0.24358 0
0.326406 0.236576 0
0.402869 0.227207 0
0.484199 0.214633 0
0.571557 0.197559 0
0.665888 0.173892 0
0.767987 0.139727 0
0.878523 0.0856184 0
0.997986 0.00332647 0
1 0 0
1 0 0
1 0 0
1 0 0
1 0 0
1 0 0
1 0 0
1 0 0
1 0 0.110979
1 0 0.112627
1 0 0.113924
1 0 0.114931
1 0 0.115709
1 0 0.116304
1 0 0.116777
0 0.312978 0
0 0.312154 0
0 0.311406 0
0 0.310582 0
0 0.309545 0
0 0.308141 0
0 0.306233 0
0.0389868 0.303685 0
0.137087 0.300282 0
0.220981 0.295781 0
0.300801 0.289799 0
0.381704 0.28188 0
0.466194 0.271366 0
0.555901 0.257328 0
0.652033 0.238392 0
0.755535 0.212375 0
0.867155 0.175311 0
0.987457 0.117998 0
1 0.0189364 0
1 0 0
1 0 0
1 0 0
1 0 0
1 0 0
1 0 0
1 0 0
1 0 0.108522
1 0 0.110735
1 0 0.112444
1 0 0.113787
1 0 0.114824
1 0 0.115633
1 0 0.116258
0 0.36733 0
0 0.366613 0
0 0.365957 0
0 0.36524 0
0 0.364324 0
0 0.363088 0
0 0.361425 0
0 0.359197 0
0.0602426 0.356237 0
0.17258 0.352331 0
0.264698 0.347158 0
0.352773 0.340337 0
0.442023 0.33135 0
0.535149 0.319493 0
0.633799 0.303746 0
0.739208 0.282673 0
0.852308 0.253941 0
0.973754 0.213458 0
1 0.152148 0
1 0.0398108 0
1 0 0
1 0 0
1 0 0
1 0 0
1 0 0
1 0 0
1 0 0.105333
1 0 0.108248
1 0 0.110536
1 0 0.112306
1 0 0.113695
1 0 0.114763
1 0 0.115602
0 0.42681 0
0 0.426169 0
0 0.425589 0
0 0.424964 0
0 0.424155 0
0 0.423072 0
0 0.421592 0
0 0.419638 0
0 0.417029 0
0.0889448 0.413581 0
0.211307 0.409049 0
0.312367 0.403098 0
0.409277 0.3953 0
0.5075 0.385061 0
0.609796 0.371618 0
0.717891 0.353902 0
0.833021 0.330312 0
0.956008 0.298421 0
1 0.253986 0
1 0.1879 0
1 0.0664378 0
1 0 0
1 0 0
1 0 0
1 0 0
1 0 0
1 0 0.101198
1 0 0.105043
1 0 0.108049
1 0 0.110399
1 0 0.112215
1 0 0.113634
1 0 0.114733
0 0.4916 0
0 0.49102 0
0 0.490501 0
0 0.489937 0
0 0.489219 0
0 0.488243 0
0 0.486931 0
0 0.485191 0
0 0.482872 0
0 0.479805 0
0.121401 0.475792 0
0.25333 0.470527 0
0.363973 0.463645 0
0.470344 0.454673 0
0.578073 0.442969 0
0.690028 0.42768 0
0.80798 0.407614 0
0.933104 0.381094 0
1 0.345556 0
1 0.296559 0
1 0.224887 0
1 0.0982223 0
1 0 0
1 0 0
1 0 0
1 0 0.00112917
1 0 0.0958724
1 0 0.100908
1 0 0.104845
1 0 0.107912
1 0 0.110307
1 0 0.112169
1 0 0.113619
0 0.56173 0
0 0.561212 0
0 0.560739 0
0 0.560235 0
0 0.559579 0
0 0.558709 0
0 0.557534 0
0 0.555962 0
0 0.553872 0
0 0.551125 0
0 0.547524 0
0.156161 0.542809 0
0.298558 0.536675 0
0.419425 0.528695 0
0.53579 0.518318 0
0.653498 0.504875 0
0.775525 0.487388 0
0.903609 0.464591 0
1 0.434684 0
1 0.394903 0
1 0.340688 0
1 0.262592 0
1 0.129366 0
1 0 0
1 0 0
1 0 0.0075227
1 0 0.0890364
1 0 0.0955978
1 0 0.100725
1 0 0.104723
1 0 0.107851
1 0 0.110277
1 0 0.112169
0 0.637095 0
0 0.636622 0
0 0.636194 0
0 0.635737 0
0 0.635142 0
0 0.634348 0
0 0.63328 0
0 0.631846 0
0 0.629969 0
0 0.627466 0
0 0.624216 0
0 0.619944 0
0.193133 0.614404 0
0.346807 0.607233 0
0.478462 0.597925 0
0.605295 0.585916 0
0.733364 0.570382 0
0.865705 0.550317 0
1 0.52433 0
1 0.490455 0
1 0.445838 0
1 0.385687 0
1 0.300343 0
1 0.210086 0
1 0.0673686 0
1 0 0.0160372
1 0 0.0800031
1 0 0.088777
1 0 0.0954299
1 0 0.100633
1 0 0.104692
1 0 0.107851
1 0 0.110307
0 0.717388 0
0 0.71696 0
0 0.716564 0
0 0.716152 0
0 0.715618 0
0 0.714885 0
0 0.713909 0
0 0.712596 0
0 0.710872 0
0 0.708598 0
0 0.705623 0
0 0.701747 0
0 0.696696 0
0.232074 0.690166 0
0.397726 0.681727 0
0.540612 0.670863 0
0.678264 0.65687 0
0.816922 0.638911 0
0.959655 0.615824 0
1 0.586114 0
1 0.547692 0
1 0.497551 0
1 0.430747 0
1 0.37496 0
1 0.293721 0
1 0.181094 0.0274052
1 0 0.0692149
1 0 0.0797894
1 0 0.0886549
1 0 0.0953841
1 0 0.100633
1 0 0.104723
1 0 0.107912
0 0.80206 0
0 0.801663 0
0 0.801312 0
0 0.800916 0
0 0.800427 0
0 0.799756 0
0 0.798856 0
0 0.797665 0
0 0.796078 0
0 0.793988 0
0 0.791257 0
0 0.787686 0
0 0.783062 0
0 0.777081 0
0.272602 0.76936 0
0.450767 0.759441 0
0.605234 0.746715 0
0.753887 0.730419 0
0.903181 0.70959 0
1 0.682994 0
1 0.648997 0
1 0.605402 0
1 0.560464 0
1 0.506523 0
1 0.440818 0
1 0.361425 0.0419165
1 0.2038 0.0564889
1 0 0.0690623
1 0 0.0797284
1 0 0.0886549
1 0 0.0954452
1 0 0.100725
1 0 0.104845
0 0.890242 0
0 0.889876 0
0 0.889555 0
0 0.889189 0
0 0.888731 0
0 0.888121 0
0 0.887297 0
0 0.886183 0
0 0.884718 0
0 0.882795 0
0 0.880278 0
0 0.876997 0
0 0.87274 0
0 0.867231 0
0 0.860136 0
0.314153 0.851026 0
0.505211 0.839368 0
0.671412 0.82446 0
0.831083 0.805478 0
0.990845 0.781353 0
1 0.750729 0
1 0.716197 0
1 0.675029 0
1 0.626001 0
1 0.568399 0
1 0.485054 0.0251621
1 0.362799 0.0417487
1 0.204776 0.0564126
1 0 0.0690929
1 0 0.0798199
1 0 0.0888075
1 0 0.095613
1 0 0.100923
0 0.980789 0
0 0.980438 0
0 0.980148 0
0 0.979812 0
0 0.979385 0
0 0.978821 0
0 0.978058 0
0 0.977035 0
0 0.975677 0
0 0.973907 0
0 0.971588 0
0 0.968551 0
0 0.96463 0
0 0.959548 0
0 0.953017 0
0 0.94464 0
0.356039 0.933913 0
0.560174 0.920241 0
0.738018 0.902846 0
0.907286 0.88014 0
1 0.853651 0
1 0.821973 0
1 0.784161 0
1 0.739422 0
1 0.687022 0
1 0.591791 0.00671397
1 0.485481 0.0251011
1 0.362585 0.0417792
1 0.203174 0.0565347
1 0 0.069276
1 0 0.0800641
1 0 0.0890822
1 0 0.0959029
0 1 0
0 1 0
0 1 0
0 1 0
0 1 0
0 1 0
0 1 0
0 1 0
0 1 0
0 1 0
0 1 0
0 1 0
0 1 0
0 1 0
0 1 0
0 1 0
0.115633 1 0
0.426764 1 0
0.62977 0.99588 0
0.8094 0.976608 0
0.98114 0.953002 0
1 0.924331 0
1 0.889815 0
1 0.848783 0
1 0.773404 0
1 0.687236 0
1 0.591669 0.00674449
1 0.484749 0.0252079
1 0.360815 0.0419776
1 0.199054 0.0568093
1 0 0.0696269
1 0 0.0804608
1 0 0.0894789
0 1 0
0 1 0
0 1 0
0 1 0
0 1 0
0 1 0
0 1 0
0 1 0
0 1 0
0 1 0
0 1 0
0 1 0
0 1 0
0 1 0
0 1 0
0 1 0
0 1 0
0.219364 1 0
0.491859 1 0
0.693782 1 0
0.8766 1 0
1 1 0
1 0.979858 0
1 0.919646 0
1 0.850858 0
1 0.773342 0
1 0.686839 0
1 0.590692 0.0069276
1 0.482887 0.0254978
1 0.357549 0.042359
1 0.192248 0.0572671
1 0 0.0701305
1 0 0.0809949
0 1 0
0 1 0
0 1 0
0 1 0
0 1 0
0 1 0
0 1 0
0 1 0
0 1 0
0 1 0
0 1 0
0 1 0
0 1 0
0 1 0
0 1 0
0 1 0
0 1 0
0 1 0
0.289464 1 0
0.538491 1 0
0.730205 1 0
0.901305 1 0
1 1 0
1 0.979873 0
1 0.9196 0
1 0.850645 0
1 0.772793 0
1 0.685756 0
1 0.588815 0.00727855
1 0.479896 0.0259556
1 0.352651 0.0429236
1 0.182544 0.0578927
1 0 0.0708171
0 1 0
0 1 0
0 1 0
0 1 0
0 1 0
0 1 0
0 1 0
0 1 0
0 1 0
0 1 0
0 1 0
0 1 0
0 1 0
0 1 0
0 1 0
0 1 0
0 1 0
0 1 0
0 1 0
0.292805 1 0
0.539651 1 0
0.730632 1 0
0.901335 1 0
1 1 0
1 0.979812 0
1 0.919402 0
1 0.850141 0
1 0.771786 0
1 0.684031 0
1 0.58613 0.00779736
1 0.475746 0.0265965
1 0.346151 0.0436561
1 0.169619 0.0587015
0 1 0
0 1 0
0 1 0
0 1 0
0 1 0
0 1 0
0 1 0
0 1 0
0 1 0
0 1 0
0 1 0
0 1 0
0 1 0
0 1 0
0 1 0
0 1 0
0 1 0
0 1 0
0 1 0
0 1 0
0.29427 1 0
0.539956 1 0
0.73051 1 0
0.901183 1 0
1 1 0
1 0.97969 0
1 0.91902 0
1 0.849317 0
1 0.770321 0
1 0.681697 0
1 0.582544 0.00846876
1 0.470436 0.0273899
1 0.337911 0.0445563
0 1 0
0 1 0
0 1 0
0 1 0
0 1 0
0 1 0
0 1 0
0 1 0
0 1 0
0 1 0
0 1 0
0 1 0
0 1 0
0 1 0
0 1 0
0 1 0
0 1 0
0 1 0
0 1 0
0 1 0
0 1 0
0.294011 1 0
0.539345 1 0
0.729946 1 0
0.900816 1 0
1 1 0
1 0.979477 0
1 0.918425 0
1 0.848173 0
1 0.768383 0
1 0.67866 0
1 0.578042 0.009308
1 0.463844 0.0283818
0 1 0
0 1 0
0 1 0
0 1 0
0 1 0
0 1 0
0 1 0
0 1 0
0 1 0
0 1 0
0 1 0
0 1 0
0 1 0
0 1 0
0 1 0
0 1 0
0 1 0
0 1 0
0 1 0
0 1 0
0 1 0
0 1 0
0.291936 1 0
0.537911 1 0
0.728878 1 0
0.900206 1 0
1 1 0
1 0.979187 0
1 0.917647 0
1 0.846708 0
1 0.765942 0
1 0.674922 0
1 0.57258 0.0103151
0 1 0
0 1 0
0 1 0
0 1 0
0 1 0
0 1 0
0 1 0
0 1 0
0 1 0
