src/main/resources/org/dpsoftware/lut/400nits_HDR-to-SDR.cube
#DPsofrware (Davide Perini) 3D LUT. Generated by Resolve.
TITLE "400nits_HDR-to-SDR"
LUT_3D_SIZE 5
0 0 0
0.280171 0 0
0.912108 0 0
1 0 0
1 0 0.118288
0 0.218662 0
0.21001 0.201511 0
0.887221 0 0
1 0 0
1 0 0.117159
0 0.717388 0
0 0.710872 0
0.678264 0.65687 0
1 0.293721 0
1 0 0.107912
0 1 0
0 1 0
0 1 0
1 1 0
1 0.337911 0.0445563
0 1 0
0 1 0
0 1 0
0 1 0
1 1 0
0 0 0.219211
0.272328 0 0.215885
0.9093 0 0.188144
1 0 0.0412757
1 0 0.140291
0 0.217395 0.203555
0.200183 0.200183 0.200183
0.884398 0 0.171969
1 0 0.05066
1 0 0.139208
0 0.716594 0.0388495
0 0.710094 0.0346685
0.675273 0.656138 0.00157168
1 0.293675 0.0841688
1 0 0.130282
0 1 0
0 1 0
0 1 0
1 1 0
1 0.337835 0.0668498
0 1 0
0 1 0
0 1 0
0 1 0
1 1 0
0 0 0.766339
0.19794 0 0.762982
0.885756 0 0.736065
1 0 0.587869
1 0 0.269322
0 0.206622 0.755749
0.095964 0.188937 0.752468
0.860822 0 0.726192
1 0 0.583902
1 0 0.268238
0 0.710079 0.674678
0 0.703609 0.671962
0.650019 0.650019 0.650019
1 0.293385 0.554025
1 0 0.259449
0 1 0.363714
0 1 0.362829
0 1 0.355718
1 1 0.313481
1 0.337224 0.201785
0 1 0
0 1 0
0 1 0
0 1 0
1 1 0
0 0 1
0 0 1
0.699596 0 1
1 0 1
1 0 0.699947
0 0.114336 1
0 0.0891432 1
0.673243 0 1
1 0 1
1 0 0.698299
0 0.662684 1
0 0.656535 1
0.431571 0.605341 1
1 0.292668 1
1 0 0.684901
0 1 1
0 1 1
0 1 1
0.999985 0.999969 0.999985
1 0.332616 0.599832
0 1 0.353445
0 1 0.353338
0 1 0.352468
0 1 0.345998
1 1 0.304936
0 0 1
0 0 1
0 0 1
1 0 1
1 0 1
0 0 1
0 0 1
0 0 1
1 0 1
1 0 1
0 0.448783 1
0 0.444739 1
0 0.411521 1
1 0.152834 1
1 0 1
0 0.962112 1
0 0.960098 1
0 0.943557 1
0.626245 0.831785 1
1 0.298497 1
0 1 1
0 1 1
0 1 1
0 1 1
0.999985 0.999969 0.999985
