src/main/resources/org/dpsoftware/lut/400nits_HDR-to-SDR.cube
#DPsofrware (Davide Perini) 3D LUT. Generated by Resolve.
TITLE "400nits_HDR-to-SDR"
LUT_3D_SIZE 9
0 0 0
0.112764 0 0
0.280171 0 0
0.535164 0 0
0.912108 0 0
1 0 0
1 0 0
1 0 0.118288
1 0 0.118288
0 0.0788281 0
0.0744945 0.0700236 0
0.262455 0.0467079 0
0.525078 0 0
0.905318 0 0
1 0 0
1 0 0
1 0 0.117403
1 0 0.117983
0 0.218662 0
0 0.214084 0
0.21001 0.201511 0
0.497673 0.160143 0
0.887221 0 0
1 0 0
1 0 0
1 0 0.115053
1 0 0.117159
0 0.42681 0
0 0.424155 0
0 0.417029 0
0.409277 0.3953 0
0.833021 0.330312 0
1 0.0664378 0
1 0 0
1 0 0.108049
1 0 0.114733
0 0.717388 0
0 0.715618 0
0 0.710872 0
0 0.696696 0
0.678264 0.65687 0
1 0.547692 0
1 0.293721 0
1 0 0.0886549
1 0 0.107912
0 1 0
0 1 0
0 1 0
0 1 0
0.115633 1 0
0.98114 0.953002 0
1 0.773404 0
1 0.360815 0.0419776
1 0 0.0894789
0 1 0
0 1 0
0 1 0
0 1 0
0 1 0
0.29427 1 0
1 1 0
1 0.770321 0
1 0.337911 0.0445563
0 1 0
0 1 0
0 1 0
0 1 0
0 1 0
0 1 0
0.282353 1 0
1 1 0
1 0.759564 0
0 1 0
0 1 0
0 1 0
0 1 0
0 1 0
0 1 0
0 1 0
0.237873 1 0
1 1 0
0 0 0.0781872
0.108492 0 0.0767681
0.27805 0 0.0730144
0.533959 0 0.0619821
0.911345 0 0.032517
1 0 0
1 0 0
1 0 0.135897
1 0 0.124544
0 0.0782025 0.0708019
0.0694133 0.0694133 0.0694133
0.260212 0.0461128 0.0657206
0.523873 0 0.0548409
0.904555 0 0.0257877
1 0 0
1 0 0
1 0 0.135042
1 0 0.124254
0 0.218311 0.0514687
0 0.213733 0.0501259
0.20737 0.201144 0.0465858
0.496422 0.159731 0.0361334
0.886442 0 0.00817884
1 0 0
1 0 0
1 0 0.132753
1 0 0.123445
0 0.426566 0
0 0.423911 0
0 0.416785 0
0.407858 0.395041 0
0.832242 0.330053 0
1 0.0659495 0
1 0 0
1 0 0.125963
1 0 0.121035
0 0.717174 0
0 0.715404 0
0 0.710658 0
0 0.696483 0
0.677455 0.656672 0
1 0.547509 0
1 0.293706 0
1 0 0.107317
1 0 0.114305
0 1 0
0 1 0
0 1 0
0 1 0
0.113451 1 0
0.980697 0.952865 0
1 0.77322 0.000259403
1 0.360754 0.0594339
1 0 0.0961471
0 1 0
0 1 0
0 1 0
0 1 0
0 1 0
0.293706 1 0
1 1 0
1 0.77026 0
1 0.337896 0.0506447
0 1 0
0 1 0
0 1 0
0 1 0
0 1 0
0 1 0
0.282155 1 0
1 1 0
1 0.759548 0
0 1 0
0 1 0
0 1 0
0 1 0
0 1 0
0 1 0
0 1 0
0.237781 1 0
1 1 0
0 0 0.219211
0.0965438 0 0.218296
0.272328 0 0.215885
0.53077 0 0.208637
0.9093 0 0.188144
1 0 0.130312
1 0 0.0412757
1 0 0.176379
1 0 0.140291
0 0.0765698 0.214984
0.0558633 0.0677958 0.214069
0.2542 0.0445258 0.211643
0.520638 0 0.204364
0.90251 0 0.183795
1 0 0.125414
1 0 0.0443122
1 0 0.17554
1 0 0.140002
0 0.217395 0.203555
0 0.212787 0.202625
0.200183 0.200183 0.200183
0.49308 0.158633 0.192828
0.884398 0 0.171969
1 0 0.111879
1 0 0.05066
1 0 0.173327
1 0 0.139208
0 0.42591 0.167605
0 0.423255 0.166644
0 0.416129 0.16408
0.404044 0.394385 0.156329
0.830182 0.329381 0.134005
1 0.0646372 0.0659037
1 0 0.0626688
1 0 0.166796
1 0 0.136858
0 0.716594 0.0388495
0 0.714824 0.037705
0 0.710094 0.0346685
0 0.695933 0.0257115
0.675273 0.656138 0.00157168
1 0.547021 0
1 0.293675 0.0841688
1 0 0.149081
1 0 0.130282
0 1 0
0 1 0
0 1 0
0 1 0
0.107485 1 0
0.979538 0.952468 0
1 0.772732 0.0902876
1 0.360601 0.104402
1 0 0.112703
0 1 0
0 1 0
0 1 0
0 1 0
0 1 0
0.29221 1 0
1 1 0
1 0.770077 0.0116274
1 0.337835 0.0668498
0 1 0
0 1 0
0 1 0
0 1 0
0 1 0
0 1 0
0.281605 1 0
1 1 0
1 0.759487 0
0 1 0
0 1 0
0 1 0
0 1 0
0 1 0
0 1 0
0 1 0
0.237568 1 0
1 1 0
0 0 0.435996
0.0562295 0 0.435203
0.254551 0 0.433097
0.521111 0 0.426841
0.903166 0 0.409659
1 0 0.365606
1 0 0.290394
1 0 0.267796
1 0 0.181277
0 0.0716716 0.432975
0.0153506 0.0629435 0.432181
0.235386 0.0397803 0.430091
0.510872 0 0.423865
0.896361 0 0.40676
1 0 0.36289
1 0 0.290639
1 0 0.266941
1 0 0.180987
0 0.214588 0.424918
0 0.209964 0.42414
0.177325 0.197269 0.42208
0.482963 0.155337 0.41593
0.878248 0 0.399039
1 0 0.355627
1 0 0.290822
1 0 0.264698
1 0 0.180224
0 0.423941 0.401068
0 0.421286 0.40032
0 0.41416 0.398337
0.392416 0.392416 0.392416
0.824002 0.327337 0.376104
1 0.0607004 0.333913
1 0 0.289662
1 0 0.258076
1 0 0.177935
0 0.714885 0.335409
0 0.713115 0.334722
0 0.708385 0.332891
0 0.694255 0.327428
0.668727 0.654536 0.312306
1 0.545556 0.272419
1 0.293599 0.284779
1 0 0.24036
1 0 0.171588
0 1 0.143908
0 1 0.143175
0 1 0.146548
0 1 0.171878
0.0882582 1 0.193042
0.976043 0.951308 0.223606
1 0.771282 0.253422
1 0.360128 0.197757
1 0 0.154788
0 1 0.0927596
0 1 0.0927901
0 1 0.0928969
0 1 0.0932021
0 1 0.0940414
0.287678 1 0.0960861
1 1 0.100267
1 0.769558 0.106508
1 0.337682 0.112459
0 1 0
0 1 0
0 1 0
0 1 0
0 1 0
0 1 0
0.279942 1 0
1 1 0
1 0.759304 0.0194247
0 1 0
0 1 0
0 1 0
0 1 0
0 1 0
0 1 0
0 1 0
0.236912 1 0
1 1 0
0 0 0.766339
0 0 0.765408
0.19794 0 0.762982
0.493111 0 0.755749
0.885756 0 0.736065
1 0 0.686732
1 0 0.587869
1 0 0.436683
1 0 0.269322
0 0.0580301 0.763424
0 0.0493935 0.762509
0.174395 0.0265202 0.760098
0.482506 0 0.752911
0.87895 0 0.733349
1 0 0.684306
1 0 0.586801
1 0 0.435676
1 0 0.269032
0 0.206622 0.755749
0 0.201892 0.754849
0.095964 0.188937 0.752468
0.453498 0.145815 0.745418
0.860822 0 0.726192
1 0 0.677897
1 0 0.583902
1 0 0.433051
1 0 0.268238
0 0.418402 0.733349
0 0.415747 0.732494
0 0.408606 0.730236
0.358007 0.386847 0.723537
0.806439 0.321584 0.705226
1 0.0497139 0.659098
1 0 0.575357
1 0 0.42533
1 0 0.265919
0 0.710079 0.674678
0 0.708309 0.673945
0 0.703609 0.671962
0 0.68954 0.666102
0.650019 0.650019 0.650019
1 0.541436 0.609094
1 0.293385 0.554025
1 0 0.404852
1 0 0.259449
0 1 0.541848
0 1 0.542168
0 1 0.542473
0 1 0.541939
0.0281376 1 0.538216
0.966186 0.948043 0.528008
1 0.767224 0.486473
1 0.358816 0.356802
1 0 0.242588
0 1 0.363714
0 1 0.36347
0 1 0.362829
0 1 0.360922
0 1 0.355718
0.274632 1 0.342596
1 1 0.313481
1 0.768093 0.262715
1 0.337224 0.201785
0 1 0.105287
0 1 0.105287
0 1 0.105318
0 1 0.105364
0 1 0.105516
0 1 0.105928
0.275212 1 0.106905
1 1 0.10901
1 0.758801 0.112276
0 1 0
0 1 0
0 1 0
0 1 0
0 1 0
0 1 0
0 1 0
0.235065 1 0
1 1 0
0 0 1
0 0 1
0 0 1
0.409262 0 1
0.837446 0 1
1 0 1
1 0 1
1 0 0.714275
1 0 0.430793
0 0.0217288 1
0 0.0133822 1
0 0 1
0.397192 0 1
0.83061 0 1
1 0 1
1 0 1
1 0 0.712947
1 0 0.430442
0 0.184054 1
0 0.179034 1
0 0.165179 1
0.363684 0.117968 1
0.81236 0 1
1 0 1
1 0 1
1 0 0.709453
1 0 0.429541
0 0.403281 1
0 0.40061 1
0 0.393469 1
0.245441 0.371618 1
0.757397 0.305715 1
1 0.020325 1
1 0 0.987366
1 0 0.699214
1 0 0.426825
0 0.697032 1
0 0.695293 1
0 0.690669 1
0 0.676783 1
0.596902 0.637766 1
1 0.53019 1
1 0.292912 0.948547
1 0 0.672145
1 0 0.419348
0 1 0.999924
0 1 0.999146
0 1 0.997086
0 1 0.991119
0 1 0.975586
0.939315 0.939315 0.939315
1 0.756313 0.831144
1 0.355215 0.60914
1 0 0.399985
0 1 0.693172
0 1 0.692699
0 1 0.691447
0 1 0.687739
0 1 0.677577
0.236378 1 0.651804
1 1 0.593774
1 0.764111 0.489113
1 0.335988 0.354177
0 1 0.364935
0 1 0.364858
0 1 0.36463
0 1 0.363943
0 1 0.36202
0 1 0.356893
0.261921 1 0.343923
1 1 0.314504
1 0.757397 0.261601
0 1 0.0976272
0 1 0.0976272
0 1 0.0976425
0 1 0.097673
0 1 0.0977646
0 1 0.0979934
0 1 0.0986191
0.229908 1 0.100191
1 1 0.103639
0 0 1
0 0 1
0 0 1
0 0 1
0.699596 0 1
1 0 1
1 0 1
1 0 1
1 0 0.699947
0 0 1
0 0 1
0 0 1
0 0 1
0.692439 0 1
1 0 1
1 0 1
1 0 1
1 0 0.699504
0 0.114336 1
0 0.107805 1
0 0.0891432 1
0 0.0276188 1
0.673243 0 1
1 0 1
1 0 1
1 0 1
1 0 0.698299
0 0.362463 1
0 0.359762 1
0 0.352514 1
0 0.330236 1
0.614527 0.261707 1
1 0 1
1 0 1
1 0 1
1 0 0.694743
0 0.662684 1
0 0.661006 1
0 0.656535 1
0 0.643137 1
0.431571 0.605341 1
1 0.500175 1
1 0.292668 1
1 0 1
1 0 0.684901
0 1 1
0 1 1
0 1 1
0 1 1
0 0.978851 1
0.866835 0.917006 1
1 0.728237 1
1 0.345602 0.996246
1 0 0.65948
0 1 1
0 1 1
0 1 1
0 1 1
0 1 1
0.0957961 1 1
0.999985 0.999969 0.999985
1 0.753368 0.829206
1 0.332616 0.599832
0 1 0.68954
0 1 0.689372
0 1 0.68893
0 1 0.687602
0 1 0.683894
0 1 0.673961
0.222751 1 0.648737
1 1 0.590646
1 0.753582 0.482521
0 1 0.353445
0 1 0.353414
0 1 0.353338
0 1 0.353109
0 1 0.352468
0 1 0.350713
0 1 0.345998
0.215274 1 0.333822
1 1 0.304936
0 0 1
0 0 1
0 0 1
0 0 1
0.102693 0 1
1 0 1
1 0 1
1 0 1
1 0 1
0 0 1
0 0 1
0 0 1
0 0 1
0.0741894 0 1
1 0 1
1 0 1
1 0 1
1 0 1
0 0 1
0 0 1
0 0 1
0 0 1
0 0 1
1 0 1
1 0 1
1 0 1
1 0 1
0 0.249409 1
0 0.246357 1
0 0.238117 1
0 0.212131 1
0 0.122652 1
0.98526 0 1
1 0 1
1 0 1
1 0 1
0 0.579644 1
0 0.578698 1
0 0.575952 1
0 0.566979 1
0 0.540658 1
0.892271 0.470634 1
1 0.262135 1
1 0 1
1 0 1
0 0.946181 1
0 0.945281 1
0 0.94284 1
0 0.935637 1
0 0.915816 1
0.642924 0.838132 1
1 0.661524 1
1 0.32079 1
1 0 1
0 1 1
0 1 1
0 1 1
0 1 1
0 1 1
0 1 1
0.897169 0.948882 1
1 0.725093 1
1 0.323415 0.986068
0 1 1
0 1 1
0 1 1
0 1 1
0 1 1
0 1 1
0.0677195 1 1
0.999985 0.999969 0.999985
1 0.743084 0.822507
0 1 0.677089
0 1 0.677028
0 1 0.676875
0 1 0.676417
0 1 0.675151
0 1 0.671687
0 1 0.662394
0.169787 1 0.638178
1 1 0.579904
0 0 1
0 0 1
0 0 1
0 0 1
0 0 1
0.287205 0 1
1 0 1
1 0 1
1 0 1
0 0 1
0 0 1
0 0 1
0 0 1
0 0 1
0.28098 0 1
1 0 1
1 0 1
1 0 1
0 0 1
0 0 1
0 0 1
0 0 1
0 0 1
0.264042 0 1
1 0 1
1 0 1
1 0 1
0 0.203494 1
0 0.201663 1
0 0.19678 1
0 0.181765 1
0 0.135805 1
0.209018 0 1
1 0 1
1 0 1
1 0 1
0 0.448783 1
0 0.447684 1
0 0.444739 1
0 0.435981 1
0 0.411521 1
0 0.345663 1
1 0.152834 1
1 0 1
1 0 1
0 0.716747 1
0 0.715923 1
0 0.713741 1
0 0.70724 1
0 0.68925 1
0 0.64239 1
0.937316 0.528756 1
1 0.26183 1
1 0 1
0 0.962112 1
0 0.961563 1
0 0.960098 1
0 0.955734 1
0 0.943557 1
0 0.911406 1
0.626245 0.831785 1
1 0.655268 1
1 0.298497 1
0 1 1
0 1 1
0 1 1
0 1 1
0 1 1
0 1 1
0 1 1
0.891981 0.946395 1
1 0.714168 1
0 1 1
0 1 1
0 1 1
0 1 1
0 1 1
0 1 1
0 1 1
0 1 1
0.999985 0.999969 0.999985
