src/main/resources/org/dpsoftware/lut/600nits_HDR-to-SDR.cube
#DPsofrware (Davide Perini) 3D LUT. Generated by Resolve.
TITLE "600nits_HDR-to-SDR"
LUT_3D_SIZE 5
0 0 0
0.282399 0 0
0.908873 0 0
1 0 0
1 0 0.224247
0 0.219959 0
0.210925 0.202396 0
0.881529 0 0
1 0 0
1 0 0.22359
0 0.703868 0
0 0.696818 0
0.659922 0.639033 0
1 0.272145 0
1 0 0.218235
0 1 0
0 1 0
0 1 0
1 1 0.0720531
1 0.38732 0.184497
0 1 0
0 1 0
0 1 0
0 1 0
1 1 0.0720531
0 0 0.221378
0.274418 0 0.217655
0.905852 0 0.187167
1 0 0.0372015
1 0 0.23772
0 0.218601 0.2047
0.200992 0.200992 0.200992
0.878523 0 0.170352
1 0 0.0455482
1 0 0.237049
0 0.702953 0.0374304
0 0.695903 0.033341
0.65687 0.638193 0.00149538
1 0.272068 0.0740215
1 0 0.231479
0 1 0.0741741
0 1 0.0753338
0 1 0.0848554
1 1 0.128756
1 0.387259 0.196506
0 1 0
0 1 0
0 1 0
0 1 0.00967422
1 1 0.0799573
0 0 0.770306
0.198962 0 0.765957
0.880537 0 0.73164
1 0 0.555901
1 0 0.33109
0 0.207141 0.757198
0.0960861 0.18912 0.753002
0.853361 0 0.719768
1 0 0.551369
1 0 0.330236
0 0.695323 0.660578
0 0.68835 0.657313
0.631235 0.631235 0.631235
1 0.271534 0.517678
1 0 0.323293
0 1 0.409247
0 1 0.408484
0 1 0.402426
1 1 0.366918
1 0.38674 0.279637
0 1 0.0876631
0 1 0.0877852
0 1 0.0888685
0 1 0.0965133
1 1 0.135866
0 0 1
0 0 1
0.685252 0 1
1 0 1
1 0 0.714519
0 0.111696 1
0 0.086656 1
0.657847 0 1
1 0 1
1 0 0.712978
0 0.641016 1
0 0.634577 1
0.413489 0.581338 1
1 0.269093 1
1 0 0.700389
0 1 1
0 1 1
0 1 1
0.999985 0.999969 0.999985
1 0.382864 0.621118
0 1 0.400488
0 1 0.400397
0 1 0.399649
0 1 0.394171
1 1 0.359869
0 0 1
0 0 1
0 0 1
1 0 1
1 0 1
0 0.0108339 1
0 0.00444038 1
0 0 1
1 0 1
1 0 1
0 0.459602 1
0 0.45716 1
0 0.437339 1
1 0.245777 1
1 0 1
0 0.963653 1
0 0.961715 1
0 0.945861 1
0.645624 0.83917 1
1 0.354604 1
0 1 1
0 1 1
0 1 1
0 1 1
0.999985 0.999969 0.999985
