src/main/resources/org/dpsoftware/lut/600nits_HDR-to-SDR.cube
#DPsofrware (Davide Perini) 3D LUT. Generated by Resolve.
TITLE "600nits_HDR-to-SDR"
LUT_3D_SIZE 33
0 0 0
0.0285191 0 0
0.0542 0 0
0.0823224 0 0
0.114199 0 0
0.149706 0 0
0.189303 0 0
0.233387 0 0
0.282399 0 0
0.336812 0 0
0.397101 0 0
0.463767 0 0
0.537301 0 0
0.618189 0 0
0.706874 0 0
0.803693 0 0
0.908873 0 0
1 0 0
1 0 0
1 0 0
1 0 0
1 0 0
1 0 0
1 0 0
1 0 0
1 0 0
1 0 0.0930037
1 0 0.18558
1 0 0.224247
1 0 0.224247
1 0 0.224247
1 0 0.224247
1 0 0.224247
0 0.01944 0
0.0184024 0.0172885 0
0.0440375 0.0153506 0
0.0718853 0.0132601 0
0.105623 0.0105745 0
0.142611 0.00695811 0
0.183352 0.002121 0
0.228351 0 0
0.278096 0 0
0.333089 0 0
0.393851 0 0
0.460899 0 0
0.534752 0 0
0.615885 0 0
0.704768 0 0
0.80174 0 0
0.907057 0 0
1 0 0
1 0 0
1 0 0
1 0 0
1 0 0
1 0 0
1 0 0
1 0 0
1 0 0
1 0 0.0932326
1 0 0.185733
1 0 0.224125
1 0 0.224155
1 0 0.22417
1 0 0.224201
1 0 0.224201
0 0.0369116 0
0.00929274 0.0347601 0
0.0349126 0.0328069 0
0.0627146 0.0307012 0
0.0975204 0.0280156 0
0.136019 0.0243839 0
0.177874 0.0195163 0
0.223743 0.0130617 0
0.274159 0.00453193 0
0.329717 0 0
0.390906 0 0
0.458305 0 0
0.532433 0 0
0.613809 0 0
0.702861 0 0
0.8 0 0
0.905425 0 0
1 0 0
1 0 0
1 0 0
1 0 0
1 0 0
1 0 0
1 0 0
1 0 0
1 0 0
1 0 0.0934462
1 0 0.18587
1 0 0.224018
1 0 0.224063
1 0 0.224109
1 0 0.22414
1 0 0.22417
0 0.055848 0
0 0.0536812 0
0.0250095 0.0517281 0
0.052781 0.0496071 0
0.0882734 0.0469215 0
0.128588 0.0432746 0
0.171786 0.0383917 0
0.218647 0.0318914 0
0.269856 0.023331 0
0.326009 0.0121157 0
0.387686 0 0
0.455482 0 0
0.529915 0 0
0.611536 0 0
0.700801 0 0
0.798093 0 0
0.903655 0 0
1 0 0
1 0 0
1 0 0
1 0 0
1 0 0
1 0 0
1 0 0
1 0 0
1 0 0
1 0 0.0936751
1 0 0.186023
1 0 0.22388
1 0 0.223972
1 0 0.224033
1 0 0.224094
1 0 0.224125
0 0.0799115 0
0 0.0777447 0
0.0124361 0.0757763 0
0.0401465 0.0736553 0
0.0754864 0.0709392 0
0.118715 0.067277 0
0.16379 0.0623789 0
0.212039 0.055848 0
0.264286 0.0472419 0
0.321248 0.0359655 0
0.383566 0.0213016 0
0.451865 0.00233463 0
0.526696 0 0
0.608637 0 0
0.698177 0 0
0.795666 0 0
0.901396 0 0
1 0 0
1 0 0
1 0 0
1 0 0
1 0 0
1 0 0
1 0 0
1 0 0
1 0 0
1 0 0.0939651
1 0 0.186221
1 0 0.223728
1 0 0.22385
1 0 0.223941
1 0 0.224018
1 0 0.224079
0 0.10985 0
0 0.108003 0
0 0.106325 0
0.0231327 0.104494 0
0.058381 0.102113 0
0.104448 0.0988632 0
0.152529 0.094377 0
0.202838 0.0882277 0
0.256596 0.079469 0
0.314717 0.0681163 0
0.377935 0.0533455 0
0.446937 0.0342718 0
0.522332 0.00975052 0
0.604715 0 0
0.694606 0 0
0.79237 0 0
0.898329 0 0
1 0 0
1 0 0
1 0 0
1 0 0
1 0 0
1 0 0
1 0 0
1 0 0
1 0 0
1 0 0.094377
1 0 0.186481
1 0 0.223514
1 0 0.223682
1 0 0.223819
1 0 0.223926
1 0 0.224002
0 0.14284 0
0 0.141299 0
0 0.139895 0
0.000411994 0.138354 0
0.0355383 0.13637 0
0.0832685 0.133669 0
0.136446 0.129976 0
0.18999 0.124956 0
0.246021 0.11812 0
0.305791 0.108736 0
0.370275 0.0956893 0
0.440269 0.0768902 0
0.516442 0.0521553 0
0.599435 0.0205997 0
0.689799 0 0
0.787961 0 0
0.894224 0 0
1 0 0
1 0 0
1 0 0
1 0 0
1 0 0
1 0 0
1 0 0
1 0 0
1 0 0
1 0 0.0949111
1 0 0.186831
1 0 0.223224
1 0 0.223468
1 0 0.223651
1 0 0.223789
1 0 0.223896
0 0.179461 0
0 0.178134 0
0 0.176944 0
0 0.175631 0
0.00535592 0.173968 0
0.0526436 0.171679 0
0.112871 0.168597 0
0.171862 0.164416 0
0.231388 0.15877 0
0.293629 0.151141 0
0.359915 0.14078 0
0.431296 0.126497 0
0.508537 0.106355 0
0.592386 0.0763104 0
0.683406 0.035874 0
0.782086 0 0
0.888762 0 0
1 0 0
1 0 0
1 0 0
1 0 0
1 0 0
1 0 0
1 0 0
1 0 0
1 0 0
1 0 0.095613
1 0 0.187304
1 0 0.222858
1 0 0.223178
1 0 0.223423
1 0 0.223621
1 0 0.223774
0 0.219959 0
0 0.21883 0
0 0.217807 0
0 0.216678 0
0 0.215259 0
0.0128328 0.213306 0
0.0758526 0.210681 0
0.145586 0.207141 0
0.210925 0.202396 0
0.276936 0.196033 0
0.345907 0.187503 0
0.419242 0.175998 0
0.497993 0.160281 0
0.582986 0.138354 0
0.674922 0.106401 0
0.774304 0.056672 0
0.881529 0 0
0.996735 0 0
1 0 0
1 0 0
1 0 0
1 0 0
1 0 0
1 0 0
1 0 0
1 0 0
1 0 0.0965591
1 0 0.18793
1 0 0.222354
1 0 0.222782
1 0 0.223117
1 0 0.223392
1 0 0.22359
0 0.264622 0
0 0.263645 0
0 0.26276 0
0 0.261784 0
0 0.260548 0
0 0.258885 0
0.0237125 0.256611 0
0.105196 0.253574 0
0.181613 0.249516 0
0.253834 0.244114 0
0.326863 0.236927 0
0.403082 0.227344 0
0.483955 0.214511 0
0.570565 0.197131 0
0.663737 0.173114 0
0.76408 0.138659 0
0.872053 0.0843977 0
0.987839 0.00326543 0
1 0 0
1 0 0
1 0 0
1 0 0
1 0 0
1 0 0
1 0 0
1 0 0
1 0 0.0978103
1 0 0.188754
1 0 0.221698
1 0 0.222278
1 0 0.222736
1 0 0.223087
1 0 0.223362
0 0.313695 0
0 0.31284 0
0 0.312062 0
0 0.311223 0
0 0.31014 0
0 0.308675 0
0 0.306706 0
0.0390784 0.304067 0
0.13724 0.300542 0
0.221073 0.295888 0
0.30071 0.289723 0
0.381292 0.281559 0
0.465263 0.270756 0
0.554147 0.256367 0
0.649027 0.237034 0
0.750683 0.21062 0
0.859663 0.17319 0
0.976242 0.115755 0
1 0.0183719 0
1 0 0
1 0 0
1 0 0
1 0 0
1 0 0
1 0 0
1 0 0
1 0 0.0994278
1 0 0.189837
1 0 0.220844
1 0 0.221622
1 0 0.222217
1 0 0.22269
1 0 0.223056
0 0.367361 0
0 0.366613 0
0 0.365927 0
0 0.365179 0
0 0.364233 0
0 0.362936 0
0 0.361196 0
0 0.358877 0
0.0601053 0.355795 0
0.172198 0.35172 0
0.264042 0.346334 0
0.351659 0.339254 0
0.440284 0.329961 0
0.532448 0.317708 0
0.629755 0.301518 0
0.733211 0.279942 0
0.84358 0.25069 0
0.961212 0.209812 0
1 0.14844 0
1 0.0381933 0
1 0 0
1 0 0
1 0 0
1 0 0
1 0 0
1 0 0
1 0 0.101564
1 0 0.191272
1 0 0.21973
1 0 0.220752
1 0 0.221561
1 0 0.222187
1 0 0.222675
0 0.425742 0
0 0.425071 0
0 0.42446 0
0 0.423789 0
0 0.42295 0
0 0.42179 0
0 0.420249 0
0 0.418189 0
0 0.415442 0
0.088304 0.411841 0
0.210101 0.40708 0
0.310521 0.400854 0
0.406622 0.392706 0
0.503731 0.382055 0
0.604517 0.368109 0
0.710521 0.349813 0
0.822766 0.325582 0
0.941848 0.29308 0
1 0.248188 0
1 0.182147 0
1 0.0628977 0
1 0 0
1 0 0
1 0 0
1 0 0
1 0 0
1 0 0.104341
1 0 0.193118
1 0 0.218311
1 0 0.219654
1 0 0.220706
1 0 0.22153
1 0 0.222171
0 0.488838 0
0 0.488228 0
0 0.487678 0
0 0.487083 0
0 0.48632 0
0 0.485283 0
0 0.483894 0
0 0.482048 0
0 0.479591 0
0 0.476341 0
0.119982 0.472099 0
0.250858 0.466545 0
0.360388 0.459297 0
0.4654 0.449866 0
0.571389 0.437613 0
0.681056 0.421683 0
0.795956 0.4009 0
0.917006 0.373602 0
1 0.337331 0
1 0.287877 0
1 0.216419 0
1 0.0921035 0
1 0 0
1 0 0
1 0 0
1 0 0.000991836
1 0 0.107927
1 0 0.195544
1 0 0.216495
1 0 0.218235
1 0 0.219608
1 0 0.220676
1 0 0.221515
0 0.556497 0
0 0.555947 0
0 0.555444 0
0 0.554894 0
0 0.554208 0
0 0.553277 0
0 0.55201 0
0 0.550332 0
0 0.548104 0
0 0.545174 0
0 0.541329 0
0.153582 0.536309 0
0.294255 0.529793 0
0.413352 0.52134 0
0.527642 0.510399 0
0.642756 0.496254 0
0.761471 0.477974 0
0.885267 0.454276 0
1 0.423453 0
1 0.382879 0
1 0.328237 0
1 0.250629 0
1 0.120577 0
1 0 0
1 0 0
1 0 0.00657664
1 0 0.112581
1 0 0.198688
1 0 0.214191
1 0 0.216434
1 0 0.218204
1 0 0.219593
1 0 0.220676
0 0.628367 0
0 0.627863 0
0 0.627405 0
0 0.626902 0
0 0.626276 0
0 0.625406 0
0 0.624262 0
0 0.622721 0
0 0.620691 0
0 0.618021 0
0 0.614511 0
0 0.609949 0
0.188876 0.604013 0
0.33994 0.596353 0
0.468956 0.58645 0
0.592737 0.573709 0
0.717144 0.557336 0
0.844877 0.536309 0
0.977371 0.50927 0
1 0.474372 0
1 0.428916 0
1 0.368475 0
1 0.284108 0
1 0.195712 0
1 0.0596933 0
1 0 0.0139773
1 0 0.118563
1 0 0.202777
1 0 0.211292
1 0 0.214145
1 0 0.216403
1 0 0.218204
1 0 0.219608
0 0.703868 0
0 0.70341 0
0 0.702983 0
0 0.702525 0
0 0.701946 0
0 0.701152 0
0 0.700099 0
0 0.69868 0
0 0.696818 0
0 0.694362 0
0 0.691142 0
0 0.686961 0
0 0.681529 0
0.225513 0.67451 0
0.387396 0.665476 0
0.526513 0.65388 0
0.659922 0.639033 0
0.79353 0.620066 0
0.930083 0.59585 0
1 0.564981 0
1 0.525475 0
1 0.474571 0
1 0.407782 0
1 0.351812 0
1 0.272145 0
1 0.163851 0.0238041
1 0 0.126223
1 0 0.203204
1 0 0.20766
1 0 0.211261
1 0 0.214145
1 0 0.216434
1 0 0.218235
0 0.782162 0
0 0.781735 0
0 0.781338 0
0 0.780926 0
0 0.780392 0
0 0.77966 0
0 0.778683 0
0 0.777386 0
0 0.775662 0
0 0.773404 0
0 0.770428 0
0 0.766583 0
0 0.761593 0
0 0.755138 0
0.262974 0.746853 0
0.435889 0.736217 0
0.585184 0.722637 0
0.728115 0.705348 0
0.87071 0.683406 0
1 0.655573 0
1 0.620371 0
1 0.575753 0
1 0.529778 0
1 0.475242 0
1 0.409873 0
1 0.33254 0.0369573
1 0.240253 0.136004
1 0.0974136 0.197665
1 0 0.203174
1 0 0.207675
1 0 0.211292
1 0 0.214191
1 0 0.216495
0 0.862119 0
0 0.861723 0
0 0.861372 0
0 0.860975 0
0 0.860487 0
0 0.859815 0
0 0.858915 0
0 0.85771 0
0 0.856123 0
0 0.854047 0
0 0.851316 0
0 0.847761 0
0 0.843168 0
0 0.837232 0
0 0.829602 0
0.300587 0.819837 0
0.484627 0.807385 0
0.643946 0.791547 0
0.796124 0.771496 0
0.947295 0.746166 0
1 0.714321 0
1 0.678462 0
1 0.636088 0
1 0.58616 0
1 0.528222 0
1 0.462119 0.0547036
1 0.388174 0.148363
1 0.281788 0.190967
1 0.0969558 0.197681
1 0 0.20322
1 0 0.207752
1 0 0.211398
1 0 0.214298
0 0.942412 0
0 0.942046 0
0 0.941711 0
0 0.94136 0
0 0.940902 0
0 0.940291 0
0 0.939452 0
0 0.938354 0
0 0.936904 0
0 0.934981 0
0 0.932479 0
0 0.929213 0
0 0.925002 0
0 0.919554 0
0 0.912551 0
0 0.903593 0
0.337636 0.892164 0
0.532631 0.877653 0
0.70164 0.859281 0
0.861448 0.835538 0
1 0.807843 0
1 0.774899 0
1 0.735866 0
1 0.690105 0
1 0.637263 0
1 0.577432 0.078706
1 0.511467 0.163867
1 0.408286 0.182956
1 0.280613 0.191028
1 0.0925765 0.197772
1 0 0.203357
1 0 0.207889
1 0 0.211551
0 1 0
0 1 0
0 1 0
0 1 0
0 1 0
0 1 0
0 1 0
0 1 0
0 1 0
0 1 0
0 1 0
0 1 0
0 1 0
0 0.997299 0
0 0.990326 0
0 0.981674 0
0.105455 0.970932 0
0.401221 0.957595 0
0.593332 0.941146 0
0.762387 0.920928 0
0.922896 0.896284 0
1 0.866484 0
1 0.830854 0
1 0.788846 0
1 0.740139 0.0225071
1 0.68484 0.108919
1 0.61355 0.162554
1 0.515862 0.173541
1 0.40676 0.183062
1 0.277638 0.191165
1 0.0838331 0.197955
1 0 0.203555
1 0 0.208103
0 1 0
0 1 0
0 1 0
0 1 0
0 1 0
0 1 0
0 1 0
0 1 0
0 1 0
0 1 0
0 1 0
0 1 0
0 1 0
0 1 0
0 1 0
0 1 0
0 1 0
0.201587 1 0
0.458152 1 0
0.64741 1 0
0.817792 0.980163 0
0.980728 0.953338 0
1 0.921019 0
1 0.882597 0
1 0.837705 0.0677653
1 0.783719 0.1364
1 0.702205 0.150195
1 0.61265 0.162676
1 0.514183 0.173709
1 0.403983 0.183276
1 0.27277 0.191424
1 0.0703136 0.19823
1 0 0.20383
0 1 0
0 1 0
0 1 0
0 1 0
0 1 0
0 1 0
0 1 0
0 1 0
0 1 0
0 1 0
0 1 0
0 1 0
0 1 0
0 1 0
0 1 0
0 1 0
0 1 0
0 1 0
0.271183 1 0
0.509834 1 0
0.697551 1 0
0.869001 1 0
1 1 0.00311284
1 0.970672 0.0592355
1 0.922942 0.105562
1 0.85713 0.121477
1 0.7832 0.136492
1 0.701183 0.150347
1 0.61091 0.16289
1 0.511498 0.173968
1 0.399802 0.183581
1 0.265904 0.19176
1 0.0527504 0.198581
0 1 0
0 1 0
0 1 0
0 1 0
0 1 0
0 1 0
0 1 0
0 1 0
0 1 0
0 1 0
0 1 0
0 1 0
0 1 0
0 1 0
0 1 0
0 1 0
0 1 0
0 1 0
0 1 0
0.33312 1 0
0.558495 1 0.0115816
0.743389 1 0.0438392
0.905486 1 0.0569772
1 1 0.0720531
1 0.980621 0.0889906
1 0.922744 0.105608
1 0.856657 0.121584
1 0.782254 0.13666
1 0.69958 0.150607
1 0.608438 0.163195
1 0.507774 0.174334
1 0.394278 0.183993
1 0.256992 0.192187
0 1 0
0 1 0
0 1 0
0 1 0
0 1 0
0 1 0
0 1 0
0 1 0
0 1 0
0 1 0
0 1 0
0 1 0
0 1 0
0 1 0
0 1 0
0 1 0
0 1 0
0 1 0.00387579
0 1 0.00901808
0 1 0.0153964
0.351156 1 0.0231785
0.566003 1 0.0326085
0.743267 1 0.0438239
0.905333 1 0.0569619
1 1 0.0720531
1 0.980499 0.0890364
1 0.922377 0.105699
1 0.855863 0.121767
1 0.780865 0.136919
1 0.697383 0.150942
1 0.605127 0.163607
1 0.502998 0.174807
1 0.38732 0.184497
0 1 0
0 1 0
0 1 0
0 1 0
0 1 0
0 1 0
0 1 0
0 1 0
0 1 0
0 1 0
0 1 0
0 1 0
0 1 0
0 1 0
0 1 0
0 1 0
0 1 0
0 1 0
0 1 0.00393683
0 1 0.00906386
0 1 0.0154116
0.350958 1 0.0231785
0.565438 1 0.032578
0.742733 1 0.0437781
0.904982 1 0.0569314
1 1 0.0720531
1 0.980301 0.0890974
1 0.921828 0.105852
1 0.854765 0.121996
1 0.779034 0.137255
1 0.694545 0.151369
1 0.600977 0.164111
1 0.497093 0.175372
0 1 0
0 1 0
0 1 0
0 1 0
0 1 0
0 1 0
0 1 0
0 1 0
0 1 0
0 1 0
0 1 0
0 1 0
0 1 0
0 1 0
0 1 0
0 1 0
0 1 0
0 1 0
0 1 0
0 1 0.00395209
0 1 0.00906386
0 1 0.0153811
0.349264 1 0.0231174
0.564141 1 0.0325017
0.741741 1 0.0437171
0.904402 1 0.0568856
1 1 0.0720531
1 0.980011 0.089189
1 0.92108 0.10605
1 0.853376 0.122301
1 0.77673 0.137682
1 0.691051 0.151888
1 0.595956 0.164721
0 1 0
0 1 0
0 1 0
0 1 0
0 1 0
0 1 0
0 1 0
0 1 0
0 1 0
