src/main/resources/org/dpsoftware/lut/600nits_HDR-to-SDR.cube
#DPsofrware (Davide Perini) 3D LUT. Generated by Resolve.
TITLE "600nits_HDR-to-SDR"
LUT_3D_SIZE 9
0 0 0
0.114199 0 0
0.282399 0 0
0.537301 0 0
0.908873 0 0
1 0 0
1 0 0
1 0 0.224247
1 0 0.224247
0 0.0799115 0
0.0754864 0.0709392 0
0.264286 0.0472419 0
0.526696 0 0
0.901396 0 0
1 0 0
1 0 0
1 0 0.223728
1 0 0.224079
0 0.219959 0
0 0.215259 0
0.210925 0.202396 0
0.497993 0.160281 0
0.881529 0 0
1 0 0
1 0 0
1 0 0.222354
1 0 0.22359
0 0.425742 0
0 0.42295 0
0 0.415442 0
0.406622 0.392706 0
0.822766 0.325582 0
1 0.0628977 0
1 0 0
1 0 0.218311
1 0 0.222171
0 0.703868 0
0 0.701946 0
0 0.696818 0
0 0.681529 0
0.659922 0.639033 0
1 0.525475 0
1 0.272145 0
1 0 0.20766
1 0 0.218235
0 1 0
0 1 0
0 1 0
0 1 0
0.105455 0.970932 0
0.922896 0.896284 0
1 0.740139 0.0225071
1 0.40676 0.183062
1 0 0.208103
0 1 0
0 1 0
0 1 0
0 1 0
0 1 0
0.351156 1 0.0231785
1 1 0.0720531
1 0.780865 0.136919
1 0.38732 0.184497
0 1 0
0 1 0
0 1 0
0 1 0
0 1 0
0 1 0
0.341512 1 0.022858
1 1 0.0720531
1 0.770687 0.138781
0 1 0
0 1 0
0 1 0
0 1 0
0 1 0
0 1 0
0 1 0
0.306538 1 0.0217746
1 1 0.0720531
0 0 0.079408
0.10988 0 0.0779126
0.280247 0 0.0739757
0.536065 0 0.0624399
0.908049 0 0.0322728
1 0 0
1 0 0
1 0 0.234958
1 0 0.228
0 0.0792859 0.0717784
0.0703136 0.0703136 0.0703136
0.262013 0.0466316 0.066453
0.525444 0 0.0551614
0.900572 0 0.0255741
1 0 0
1 0 0
1 0 0.234424
1 0 0.227817
0 0.219593 0.0519265
0 0.214878 0.0505379
0.208255 0.202014 0.0468757
0.496712 0.159854 0.0361639
0.880705 0 0.00807202
1 0 0
1 0 0
1 0 0.233005
1 0 0.227329
0 0.425467 0
0 0.42266 0
0 0.415167 0
0.405173 0.392432 0
0.821958 0.325307 0
1 0.0624247 0
1 0 0
1 0 0.228855
1 0 0.225879
0 0.703624 0
0 0.701686 0
0 0.696574 0
0 0.681285 0
0.659083 0.638804 0
1 0.525277 0
1 0.272114 0
1 0 0.217899
1 0 0.221912
0 1 0
0 1 0
0 1 0
0 1 0
0.103365 0.970718 0
0.922454 0.896117 0
1 0.740047 0.0530709
1 0.406714 0.192584
1 0 0.211673
0 1 0.00936904
0 1 0.00978103
0 1 0.0108797
0 1 0.0141299
0 1 0.0229038
0.350698 1 0.0445106
1 1 0.0895857
1 0.780804 0.145129
1 0.387304 0.187839
0 1 0
0 1 0
0 1 0
0 1 0
0 1 0
0 1 0.00807202
0.341344 1 0.0304723
1 1 0.078294
1 0.770672 0.141665
0 1 0
0 1 0
0 1 0
0 1 0
0 1 0
0 1 0
0 1 0.00207523
0.306477 1 0.0243992
1 1 0.0742046
0 0 0.221378
0.0978103 0 0.220356
0.274418 0 0.217655
0.532738 0 0.209598
0.905852 0 0.187167
1 0 0.12607
1 0 0.0372015
1 0 0.261631
1 0 0.23772
0 0.0775921 0.216846
0.0565652 0.0686503 0.215839
0.255894 0.0449989 0.213138
0.522103 0 0.205081
0.89836 0 0.18262
1 0 0.121141
1 0 0.0399023
1 0 0.261067
1 0 0.237537
0 0.218601 0.2047
0 0.213886 0.203693
0.200992 0.200992 0.200992
0.493263 0.158709 0.19292
0.878523 0 0.170352
1 0 0.107561
1 0 0.0455482
1 0 0.259541
1 0 0.237049
0 0.42472 0.166995
0 0.421927 0.165972
0 0.414435 0.16321
0.401297 0.391699 0.15494
0.819791 0.324575 0.131395
1 0.0611582 0.0623636
1 0 0.0560311
1 0 0.255085
1 0 0.235569
0 0.702953 0.0374304
0 0.70103 0.0363012
0 0.695903 0.033341
0 0.680629 0.0246281
0.65687 0.638193 0.00149538
1 0.524742 0
1 0.272068 0.0740215
1 0 0.243351
1 0 0.231479
0 1 0
0 1 0
0 1 0
0 1 0
0.0976883 0.970153 0
0.921294 0.895689 0
1 0.739818 0.127459
1 0.406577 0.216251
1 0 0.220981
0 1 0.0741741
0 1 0.0744945
0 1 0.0753338
0 1 0.0778515
0 1 0.0848554
0.349477 1 0.100389
1 1 0.128756
1 0.780636 0.165515
1 0.387259 0.196506
0 1 0.016846
0 1 0.0169833
0 1 0.0173648
0 1 0.0185092
0 1 0.0216983
0 1 0.0300908
0.340902 1 0.050782
1 1 0.0946059
1 0.770611 0.149172
0 1 0
0 1 0
0 1 0
0 1 0
0 1 0
0 1 0.00108339
0 1 0.00967422
0.30631 1 0.0314336
1 1 0.0799573
0 0 0.439323
0.0569772 0 0.438361
0.256336 0 0.435798
0.522713 0 0.428199
0.899229 0 0.40766
1 0 0.356847
1 0 0.272511
1 0 0.32987
1 0 0.265034
0 0.0725414 0.435843
0.0155337 0.0636454 0.434882
0.236805 0.0401617 0.432334
0.511971 0 0.424811
0.891768 0 0.40441
1 0 0.353918
1 0 0.272618
1 0 0.329198
1 0 0.264836
0 0.21561 0.426627
0 0.21088 0.425681
0.17792 0.19791 0.423194
0.482841 0.155276 0.415824
0.871946 0 0.395819
1 0 0.346151
1 0 0.27248
1 0 0.327413
1 0 0.264302
0 0.422492 0.39968
0 0.419699 0.398795
0 0.412222 0.39646
0.389502 0.389502 0.389502
0.813275 0.322377 0.370581
1 0.0574044 0.323156
1 0 0.270481
1 0 0.322194
1 0 0.262715
0 0.700938 0.327962
0 0.699031 0.327199
0 0.693919 0.325154
0 0.678691 0.319066
0.650217 0.636362 0.302388
1 0.523156 0.25951
1 0.271931 0.2636
1 0 0.308446
1 0 0.258335
0 1 0.133303
0 1 0.13257
0 1 0.135714
0 0.999939 0.15967
0.0790875 0.968475 0.17911
0.9178 0.894408 0.206119
1 0.739101 0.261601
1 0.40618 0.276707
1 0 0.247074
0 1 0.209842
0 1 0.209873
0 1 0.209918
0 1 0.210086
0 1 0.210544
0.345815 1 0.211643
1 1 0.213947
1 0.780148 0.217441
1 0.387121 0.220844
0 1 0.0863508
0 1 0.0864424
0 1 0.0867323
0 1 0.0875563
0 1 0.0898299
0 1 0.0956893
0.339574 1 0.109285
1 1 0.135164
1 0.770443 0.170153
0 1 0.0199435
0 1 0.0200046
0 1 0.0201267
0 1 0.0205234
0 1 0.021622
0 1 0.0246128
0 1 0.032517
0.305806 1 0.0525368
1 1 0.0966506
0 0 0.770306
0 0 0.769116
0.198962 0 0.765957
0.493721 0 0.756649
0.880537 0 0.73164
1 0 0.671061
1 0 0.555901
1 0 0.472892
1 0 0.33109
0 0.0585184 0.766705
0 0.0497749 0.765515
0.175128 0.026688 0.762387
0.482673 0 0.75317
0.873106 0 0.728374
1 0 0.668269
1 0 0.554665
1 0 0.472007
1 0 0.330846
0 0.207141 0.757198
0 0.202319 0.756054
0.0960861 0.18912 0.753002
0.452567 0.145403 0.743999
0.853361 0 0.719768
1 0 0.660929
1 0 0.551369
1 0 0.469673
1 0 0.330236
0 0.416251 0.72987
0 0.413458 0.728786
0 0.405997 0.725948
0.354681 0.383322 0.717556
0.794812 0.316182 0.694896
1 0.0469062 0.639536
1 0 0.541695
1 0 0.462852
1 0 0.328389
0 0.695323 0.660578
0 0.693416 0.659678
0 0.68835 0.657313
0 0.673259 0.650294
0.631235 0.631235 0.631235
1 0.518669 0.583932
1 0.271534 0.517678
1 0 0.444862
1 0 0.323293
0 1 0.513466
0 1 0.513695
0 1 0.513787
0 0.994446 0.512673
0.0252079 0.963836 0.507454
0.907973 0.890806 0.493736
1 0.737102 0.474647
1 0.405051 0.403342
1 0 0.31017
0 1 0.409247
0 1 0.409033
0 1 0.408484
0 1 0.406867
0 1 0.402426
0.335317 1 0.391272
1 1 0.366918
1 0.778759 0.325841
1 0.38674 0.279637
0 1 0.216739
0 1 0.216754
0 1 0.216754
0 1 0.216785
0 1 0.216876
0 1 0.217105
0.33579 1 0.21767
1 1 0.21886
1 0.76997 0.220737
0 1 0.0876631
0 1 0.0876936
0 1 0.0877852
0 1 0.0880751
0 1 0.0888685
0 1 0.0910048
0 1 0.0965133
0.304402 1 0.109667
1 1 0.135866
0 0 1
0 0 1
0 0 1
0.407752 0 1
0.829068 0 1
1 0 1
1 0 0.957168
1 0 0.727977
1 0 0.467674
0 0.0217136 1
0 0.0133669 1
0 0 1
0.395361 0 1
0.821698 0 1
1 0 1
1 0 0.954849
1 0 0.726741
1 0 0.467369
0 0.183383 1
0 0.178302 1
0 0.164294 1
0.36112 0.116762 1
0.80209 0 1
1 0 1
1 0 0.948775
1 0 0.723445
1 0 0.466575
0 0.399313 1
0 0.396551 1
0 0.38912 1
0.241718 0.366537 1
0.743648 0.299214 1
1 0.0190585 1
1 0 0.931548
1 0 0.713832
1 0 0.464179
0 0.680186 1
0 0.67834 1
0 0.673381 1
0 0.658595 1
0.577676 0.617395 1
1 0.506539 1
1 0.270604 0.888899
1 0 0.688441
1 0 0.457588
0 0.996521 0.949416
0 0.995102 0.948531
0 0.991379 0.946227
0 0.980499 0.939529
0 0.951553 0.922042
0.881209 0.881209 0.881209
1 0.731731 0.802335
1 0.401968 0.62974
1 0 0.44062
0 1 0.708156
0 1 0.707713
0 1 0.706538
0 1 0.703059
0 1 0.693538
0.305409 1 0.669429
1 1 0.615518
1 0.77499 0.519814
1 0.385702 0.401099
0 1 0.4103
0 1 0.410224
0 1 0.410025
0 1 0.40943
0 1 0.407797
0 1 0.403418
0.325231 1 0.392401
1 1 0.367773
1 0.768643 0.324971
0 1 0.212482
0 1 0.212497
0 1 0.212497
0 1 0.212512
0 1 0.212558
0 1 0.212696
0 1 0.213031
0.300481 1 0.213901
1 1 0.215824
0 0 1
0 0 1
0 0 1
0 0 1
0.685252 0 1
1 0 1
1 0 1
1 0 1
1 0 0.714519
0 0 1
0 0 1
0 0 1
0 0 1
0.677791 0 1
1 0 1
1 0 1
1 0 1
1 0 0.714092
0 0.111696 1
0 0.105211 1
0 0.086656 1
0 0.0267033 1
0.657847 0 1
1 0 1
1 0 1
1 0 1
1 0 0.712978
0 0.354604 1
0 0.351843 1
0 0.344457 1
0 0.321859 1
0.597375 0.25304 1
1 0 1
1 0 1
1 0 1
1 0 0.709621
0 0.641016 1
0 0.639261 1
0 0.634577 1
0 0.620554 1
0.413489 0.581338 1
1 0.47451 1
1 0.269093 1
1 0 1
1 0 0.700389
0 0.960739 1
0 0.959518 1
0 0.956298 1
0 0.946761 1
0 0.920897 1
0.809552 0.856748 1
1 0.717968 1
1 0.39382 0.996384
1 0 0.6766
0 1 1
0 1 1
0 1 1
0 1 1
0 1 1
0.21149 1 1
0.999985 0.999969 0.999985
1 0.764843 0.836728
1 0.382864 0.621118
0 1 0.704753
0 1 0.704585
0 1 0.704173
0 1 0.702922
0 1 0.699443
0 1 0.69015
0.295094 1 0.66656
1 1 0.612619
1 0.765042 0.513863
0 1 0.400488
0 1 0.400458
0 1 0.400397
0 1 0.400198
0 1 0.399649
0 1 0.398154
0 1 0.394171
0.289509 1 0.383886
1 1 0.359869
0 0 1
0 0 1
0 0 1
0 0 1
0.0951705 0 1
0.986603 0 1
1 0 1
1 0 1
1 0 1
0 0 1
0 0 1
0 0 1
0 0 1
0.0681315 0 1
0.981674 0 1
1 0 1
1 0 1
1 0 1
0 0 1
0 0 1
0 0 1
0 0 1
0 0 1
0.968856 0 1
1 0 1
1 0 1
1 0 1
0 0.236652 1
0 0.233661 1
0 0.225589 1
0 0.200214 1
0 0.113481 1
0.932265 0 1
1 0 1
1 0 1
1 0 1
0 0.549477 1
0 0.548486 1
0 0.545647 1
0 0.536446 1
0 0.509667 1
0.837964 0.439429 1
1 0.272251 1
1 0 1
1 0 1
0 0.883116 1
0 0.88217 1
0 0.879667 1
0 0.872251 1
0 0.851926 1
0.616953 0.800473 1
1 0.678508 1
1 0.372992 1
1 0 1
0 1 1
0 1 1
0 1 1
0 1 1
0 1 1
0 1 1
0.901503 0.950973 1
1 0.73817 1
1 0.375174 0.986618
0 1 1
0 1 1
0 1 1
0 1 1
0 1 1
0 1 1
0.196963 1 1
0.999985 0.999969 0.999985
1 0.755123 0.830365
0 1 0.693065
0 1 0.693019
0 1 0.692866
0 1 0.692454
0 1 0.691264
0 1 0.688014
0 1 0.679316
0.257115 1 0.656718
1 1 0.602701
0 0 1
0 0 1
0 0 1
0 0 1
0 0 1
0.320226 0 1
1 0 1
1 0 1
1 0 1
0 0 1
0 0 1
0 0 1
0 0 1
0 0 1
0.315999 0 1
1 0 1
1 0 1
1 0 1
0 0.0108339 1
0 0.00907912 1
0 0.00444038 1
0 0 1
0 0 1
0.304616 0 1
1 0 1
1 0 1
1 0 1
0 0.220035 1
0 0.219028 1
0 0.216327 1
0 0.208194 1
0 0.185046 1
0.269306 0.118059 1
1 0 1
1 0 1
1 0 1
0 0.459602 1
0 0.45893 1
0 0.45716 1
0 0.451881 1
0 0.437339 1
0.140856 0.393866 1
1 0.245777 1
1 0 1
1 0 1
0 0.730312 1
0 0.729534 1
0 0.727474 1
0 0.72137 1
0 0.704479 1
0 0.660655 1
0.939895 0.555779 1
1 0.325154 1
1 0 1
0 0.963653 1
0 0.963119 1
0 0.961715 1
0 0.957534 1
0 0.945861 1
0 0.915099 1
0.645624 0.83917 1
1 0.672663 1
1 0.354604 1
0 1 1
0 1 1
0 1 1
0 1 1
0 1 1
0 1 1
0 1 1
0.896559 0.948577 1
1 0.727871 1
0 1 1
0 1 1
0 1 1
0 1 1
0 1 1
0 1 1
0 1 1
0.139254 1 1
0.999985 0.999969 0.999985
