src/main/resources/org/dpsoftware/lut/800nits_HDR-to-SDR.cube
#DPsofrware (Davide Perini) 3D LUT. Generated by Resolve.
TITLE "800nits_HDR-to-SDR"
LUT_3D_SIZE 9
0 0 0
0.114931 0 0
0.283558 0 0
0.538415 0 0
0.90724 0 0
1 0 0
1 0 0
1 0 0.249729
1 0 0.281773
0 0.0804913 0
0.0760052 0.0714275 0
0.265232 0.0475166 0
0.527535 0 0
0.899397 0 0
1 0 0
1 0 0
1 0 0.250187
1 0 0.281636
0 0.22063 0
0 0.215869 0
0.211398 0.202853 0
0.498161 0.160357 0
0.87866 0 0
1 0 0
1 0 0
1 0 0.251438
1 0 0.281254
0 0.425208 0
0 0.422324 0
0 0.414649 0
0.40528 0.391394 0
0.817655 0.323232 0
1 0.0612192 0
1 0 0
1 0 0.255207
1 0 0.280125
0 0.697215 0
0 0.695232 0
0 0.689921 0
0 0.674113 0
0.651041 0.630396 0
1 0.515007 0
1 0.262455 0
1 0 0.265965
1 0 0.277028
0 0.998108 0
0 0.996704 0
0 0.992966 0
0 0.979202 0
0.100816 0.946609 0
0.896712 0.870787 0
1 0.713771 0.0209659
1 0.438071 0.250019
1 0 0.269108
0 1 0.0112612
0 1 0.0124208
0 1 0.0154879
0 1 0.0246738
0 1 0.0502327
0.373236 1 0.114534
1 1 0.177279
1 0.788663 0.217075
1 0.42063 0.251087
0 1 0.120058
0 1 0.12018
0 1 0.1205
0 1 0.121462
0 1 0.124132
0 1 0.130999
0.380133 1 0.146929
1 1 0.177279
1 0.778912 0.218326
0 1 0.120058
0 1 0.120089
0 1 0.120211
0 1 0.120546
0 1 0.121492
0 1 0.124025
0 1 0.130571
0.349859 1 0.146197
1 1 0.177279
0 0 0.0800488
0.110597 0 0.0785077
0.281376 0 0.074464
0.537148 0 0.0626841
0.906371 0 0.0321508
1 0 0
1 0 0
1 0 0.259113
1 0 0.284749
0 0.0798505 0.072282
0.0707866 0.0707866 0.0707866
0.262943 0.046891 0.0668345
0.526268 0 0.055314
0.898543 0 0.025452
1 0 0
1 0 0
1 0 0.259541
1 0 0.284611
0 0.220249 0.0521706
0 0.215473 0.0507515
0.208698 0.202457 0.0470283
0.496864 0.159915 0.0361944
0.877821 0 0.00802625
1 0 0
1 0 0
1 0 0.26067
1 0 0.28423
0 0.424903 0
0 0.422034 0
0 0.414359 0
0.403815 0.391104 0
0.816831 0.322957 0
1 0.0607614 0
1 0 0
1 0 0.264134
1 0 0.28307
0 0.696956 0
0 0.694957 0
0 0.689647 0
0 0.673854 0
0.650202 0.630167 0
1 0.514809 0
1 0.26244 0
1 0 0.274083
1 0 0.279927
0 0.997879 0
0 0.996475 0
0 0.992737 0
0 0.978927 0
0.0987716 0.946395 0
0.896284 0.870619 0
1 0.71368 0.0494392
1 0.438025 0.257176
1 0 0.271885
0 1 0.0341497
0 1 0.0352789
0 1 0.0382849
0 1 0.0472572
0 1 0.0722667
0.372885 1 0.130556
1 1 0.187137
1 0.788602 0.22269
1 0.420615 0.25359
0 1 0.126558
0 1 0.12668
0 1 0.126986
0 1 0.127886
0 1 0.130404
0 1 0.136858
0.37998 1 0.151919
1 1 0.180835
1 0.778897 0.220295
0 1 0.122332
0 1 0.122362
0 1 0.122469
0 1 0.122805
0 1 0.123735
0 1 0.126207
0 1 0.132616
0.349813 1 0.147951
1 1 0.178515
0 0 0.222492
0.0984817 0 0.221424
0.275502 0 0.21857
0.533761 0 0.210086
0.904097 0 0.186664
1 0 0.123995
1 0 0.0354162
1 0 0.282765
1 0 0.292546
0 0.0781262 0.217823
0.0569314 0.0690929 0.216754
0.256779 0.0452583 0.213916
0.52285 0 0.205447
0.896269 0 0.182025
1 0 0.119051
1 0 0.0379644
1 0 0.283085
1 0 0.292409
0 0.219211 0.205295
0 0.21445 0.204227
0.201404 0.201404 0.201404
0.493355 0.158755 0.192966
0.875547 0 0.169528
1 0 0.10547
1 0 0.0433051
1 0 0.283986
1 0 0.291997
0 0.424125 0.16669
0 0.421241 0.165621
0 0.413565 0.162768
0.399908 0.390341 0.154238
0.814603 0.322194 0.130098
1 0.0595254 0.0607004
1 0 0.0531472
1 0 0.286702
1 0 0.290806
0 0.696239 0.0367285
0 0.69424 0.0356298
0 0.688945 0.0327001
0 0.673167 0.0241093
0.647974 0.629511 0.00144961
1 0.51426 0
1 0.262379 0.0697948
1 0 0.294743
1 0 0.287541
0 0.997269 0
0 0.995865 0
0 0.992126 0
0 0.978225 0
0.0932021 0.945815 0
0.895109 0.870176 0
1 0.713436 0.120333
1 0.437903 0.275456
1 0 0.279194
0 1 0.0948043
0 1 0.0957656
0 1 0.0983139
0 1 0.105699
0 1 0.124743
0.371939 1 0.167727
1 1 0.211597
1 0.788449 0.23711
1 0.420584 0.260166
0 1 0.142901
0 1 0.142992
0 1 0.143252
0 1 0.144015
0 1 0.146151
0 1 0.151675
0.379599 1 0.164675
1 1 0.190082
1 0.778836 0.225498
0 1 0.128252
0 1 0.128283
0 1 0.128389
0 1 0.12871
0 1 0.12958
0 1 0.131914
0 1 0.137987
0.34966 1 0.152544
1 1 0.181781
0 0 0.441062
0.0573587 0 0.439994
0.257267 0 0.437186
0.523537 0 0.428901
0.897231 0 0.406653
1 0 0.35256
1 0 0.264302
1 0 0.344701
1 0 0.31487
0 0.0729839 0.437324
0.0156252 0.0640269 0.436286
0.237537 0.0403449 0.433494
0.512535 0 0.425284
0.889433 0 0.403235
1 0 0.349538
1 0 0.264363
1 0 0.344823
1 0 0.314717
0 0.216144 0.427512
0 0.211337 0.426474
0.178225 0.19823 0.423758
0.482765 0.155245 0.415763
0.868772 0 0.394202
1 0 0.341543
1 0 0.264103
1 0 0.345144
1 0 0.314275
0 0.421759 0.398978
0 0.418891 0.398032
0 0.411231 0.395499
0.388022 0.388022 0.388022
0.807919 0.319905 0.367819
1 0.055848 0.317968
1 0 0.261769
1 0 0.346227
1 0 0.312963
0 0.694087 0.3243
0 0.692103 0.323507
0 0.686824 0.321355
0 0.671092 0.314992
0.641276 0.627588 0.297597
1 0.512612 0.253422
1 0.262211 0.254108
1 0 0.349874
1 0 0.309346
0 0.995438 0.12842
0 0.994049 0.127687
0 0.989837 0.130739
0 0.97612 0.15407
0.0751202 0.944076 0.172747
0.89163 0.868849 0.198276
1 0.712703 0.250248
1 0.437552 0.324605
1 0 0.30013
0 1 0.214862
0 1 0.215305
0 1 0.216449
0 1 0.219852
0 1 0.22916
0.369116 1 0.25275
1 1 0.273655
1 0.787976 0.276402
1 0.420462 0.279088
0 1 0.18526
0 1 0.185321
0 1 0.185489
0 1 0.185962
0 1 0.187274
0 1 0.190738
0.378424 1 0.199039
1 1 0.215869
1 0.778683 0.240497
0 1 0.144991
0 1 0.145022
0 1 0.145113
0 1 0.145373
0 1 0.146105
0 1 0.148089
0 1 0.153246
0.349233 1 0.165743
1 1 0.191302
0 0 0.772381
0 0 0.771038
0.199496 0 0.767514
0.494041 0 0.757122
0.877897 0 0.729397
1 0 0.663417
1 0 0.541268
1 0 0.478645
1 0 0.371038
0 0.0587778 0.768399
0 0.0499733 0.767071
0.175494 0.0267643 0.763577
0.482765 0 0.753292
0.870146 0 0.725856
1 0 0.660456
1 0 0.539971
1 0 0.478416
1 0 0.370825
0 0.207401 0.757961
0 0.202533 0.75668
0.0961471 0.189212 0.753277
0.452094 0.14519 0.743267
0.849607 0 0.716548
1 0 0.652674
1 0 0.536522
1 0 0.477821
1 0 0.370291
0 0.415152 0.728099
0 0.412299 0.726925
0 0.404669 0.723781
0.353017 0.381537 0.714549
0.789044 0.313497 0.689769
1 0.045594 0.630121
1 0 0.526421
1 0 0.476158
1 0 0.368688
0 0.68809 0.653666
0 0.686122 0.652705
0 0.680888 0.650141
0 0.665309 0.642588
0.622187 0.622187 0.622187
1 0.507988 0.572122
1 0.261769 0.501411
1 0 0.472389
1 0 0.364263
0 0.98883 0.50042
0 0.987045 0.500603
0 0.982635 0.500603
0 0.970443 0.499245
0.0239414 0.939269 0.493431
0.881849 0.865141 0.47837
1 0.710658 0.456489
1 0.43653 0.435004
1 0 0.352956
0 1 0.403403
0 1 0.403479
0 1 0.403693
0 1 0.404318
0 1 0.406149
0.361044 1 0.411627
1 1 0.402487
1 0.786648 0.366491
1 0.420127 0.327047
0 1 0.275853
0 1 0.275853
0 1 0.275868
0 1 0.275883
0 1 0.275959
0 1 0.276127
0.375128 1 0.27657
1 1 0.277516
1 0.77821 0.278996
0 1 0.186023
0 1 0.186038
0 1 0.186099
0 1 0.186252
0 1 0.186725
0 1 0.187961
0 1 0.191226
0.348028 1 0.199283
1 1 0.216358
0 0 1
0 0 1
0 0 1
0.406989 0 1
0.824872 0 1
1 0 1
1 0 0.932815
1 0 0.724269
1 0 0.493477
0 0.0216983 1
0 0.0133516 1
0 0 1
0.39443 0 1
0.817227 0 1
1 0 1
1 0 0.930404
1 0 0.723568
1 0 0.493202
0 0.183047 1
0 0.17792 1
0 0.163836 1
0.359823 0.116152 1
0.796963 0 1
1 0 1
1 0 0.924132
1 0 0.721752
1 0 0.49247
0 0.39733 1
0 0.394507 1
0 0.386954 1
0.239872 0.364004 1
0.736889 0.296025 1
1 0.0184787 1
1 0 0.90631
1 0 0.716426
1 0 0.490272
0 0.672007 1
0 0.670085 1
0 0.664988 1
0 0.64979 1
0.56846 0.607645 1
1 0.495476 1
1 0.260655 0.862287
1 0 0.700389
1 0 0.48423
0 0.972335 0.926268
0 0.970901 0.925353
0 0.967102 0.922957
0 0.956008 0.915969
0 0.926558 0.897749
0.855222 0.855222 0.855222
1 0.70515 0.77348
1 0.433768 0.644709
1 0 0.468742
0 1 0.692866
0 1 0.692653
0 1 0.692103
0 1 0.690471
0 1 0.686046
0.338415 1 0.675196
1 1 0.631266
1 0.783032 0.541634
1 0.419196 0.43299
0 1 0.44126
0 1 0.441199
0 1 0.441016
0 1 0.440482
0 1 0.439002
0 1 0.435065
0.365957 1 0.425193
1 1 0.40325
1 0.776959 0.365728
0 1 0.272511
0 1 0.272511
0 1 0.272526
0 1 0.272541
0 1 0.272572
0 1 0.272679
0 1 0.272938
0.344686 1 0.273625
1 1 0.27512
0 0 1
0 0 1
0 0 1
0 0 1
0.678233 0 1
1 0 1
1 0 1
1 0 1
1 0 0.725216
0 0 1
0 0 1
0 0 1
0 0 1
0.670634 0 1
1 0 1
1 0 1
1 0 1
1 0 0.724819
0 0.110399 1
0 0.103914 1
0 0.08542 1
0 0.0262455 1
0.650339 0 1
1 0 1
1 0 1
1 0 1
1 0 0.723751
0 0.350729 1
0 0.347951 1
0 0.340505 1
0 0.317754 1
0.589105 0.248844 1
1 0 1
1 0 1
1 0 1
1 0 0.720546
0 0.630671 1
0 0.62887 1
0 0.624094 1
0 0.609812 1
0.404959 0.570016 1
1 0.462654 1
1 0.258656 1
1 0 1
1 0 0.711757
0 0.935286 1
0 0.934051 1
0 0.93077 1
0 0.92108 1
0 0.89485 1
0.784146 0.830014 1
1 0.691035 1
1 0.426459 0.996506
1 0 0.689128
0 1 1
0 1 1
0 1 1
0 1 1
0 1 1
0.271672 1 1
0.999985 0.999969 0.999985
1 0.773312 0.842313
1 0.416663 0.636561
0 1 0.715908
0 1 0.715755
0 1 0.715358
0 1 0.714168
0 1 0.710857
0 1 0.702007
0.340093 1 0.679591
1 1 0.62855
1 0.773495 0.53611
0 1 0.432425
0 1 0.43241
0 1 0.432349
0 1 0.432181
0 1 0.431678
0 1 0.430335
0 1 0.426764
0.335363 1 0.417563
1 1 0.396262
0 0 1
0 0 1
0 0 1
0 0 1
0.0916609 0 1
0.96289 0 1
1 0 1
1 0 1
1 0 1
0 0 1
0 0 1
0 0 1
0 0 1
0.0654002 0 1
0.957931 0 1
1 0 1
1 0 1
1 0 1
0 0 1
0 0 1
0 0 1
0 0 1
0 0 1
0.945022 0 1
1 0 1
1 0 1
1 0 1
0 0.230671 1
0 0.22771 1
0 0.21973 1
0 0.194659 1
0 0.109239 1
0.908156 0 1
1 0 1
1 0 1
1 0 1
0 0.535607 1
0 0.534615 1
0 0.531731 1
0 0.522454 1
0 0.495567 1
0.813611 0.425422 1
1 0.260502 1
1 0 1
1 0 1
0 0.855207 1
0 0.854261 1
0 0.851743 1
0 0.844266 1
0 0.823819 1
0.594491 0.772259 1
1 0.658335 1
1 0.407874 1
1 0 1
0 1 1
0 1 1
0 1 1
0 1 1
0 1 1
0 1 1
0.904738 0.952529 1
1 0.747799 1
1 0.409812 0.987045
0 1 1
0 1 1
0 1 1
0 1 1
0 1 1
0 1 1
0.260533 1 1
0.999985 0.999969 0.999985
1 0.764004 0.836179
0 1 0.704784
0 1 0.704738
0 1 0.704601
0 1 0.704189
0 1 0.703059
0 1 0.699977
0 1 0.691707
0.308354 1 0.670253
1 1 0.619196
0 0 1
0 0 1
0 0 1
0 0 1
0 0 1
0.306294 0 1
1 0 1
1 0 1
1 0 1
0 0 1
0 0 1
0 0 1
0 0 1
0 0 1
0.30219 0 1
1 0 1
1 0 1
1 0 1
0 0.0101015 1
0 0.00846876 1
0 0.0041352 1
0 0 1
0 0 1
0.291112 0 1
1 0 1
1 0 1
1 0 1
0 0.209964 1
0 0.208972 1
0 0.206332 1
0 0.198398 1
0 0.17583 1
0.256809 0.110704 1
1 0 1
1 0 1
1 0 1
0 0.441154 1
0 0.440497 1
0 0.438743 1
0 0.433539 1
0 0.419211 1
0.143465 0.382452 1
1 0.298985 1
1 0 1
1 0 1
0 0.720043 1
0 0.719509 1
0 0.718074 1
0 0.713817 1
0 0.702098 1
0 0.671962 1
0.941833 0.575143 1
1 0.365881 1
1 0 1
0 0.964797 1
0 0.964294 1
0 0.962936 1
0 0.958877 1
0 0.947601 1
0 0.917861 1
0.659739 0.844663 1
1 0.685374 1
1 0.391608 1
0 1 1
0 1 1
0 1 1
0 1 1
0 1 1
0 1 1
0 1 1
0.899962 0.950225 1
1 0.737957 1
0 1 1
0 1 1
0 1 1
0 1 1
0 1 1
0 1 1
0 1 1
0.218662 1 1
0.999985 0.999969 0.999985
