src/main/resources/org/dpsoftware/lut/800nits_HDR-to-SDR.cube
#DPsofrware (Davide Perini) 3D LUT. Generated by Resolve.
TITLE "800nits_HDR-to-SDR"
LUT_3D_SIZE 33
0 0 0
0.028748 0 0
0.0546273 0 0
0.0829786 0 0
0.114931 0 0
0.150561 0 0
0.190249 0 0
0.23444 0 0
0.283558 0 0
0.338048 0 0
0.398367 0 0
0.465003 0 0
0.538415 0 0
0.619028 0 0
0.707225 0 0
0.80325 0 0
0.90724 0 0
1 0 0
1 0 0
1 0 0
1 0 0
1 0 0
1 0 0
1 0 0
1 0 0
1 0 0
1 0 0.0873579
1 0 0.176181
1 0 0.249729
1 0 0.281773
1 0 0.281773
1 0 0.281773
1 0 0.281773
0 0.0195926 0
0.0185397 0.0174258 0
0.0443885 0.0154726 0
0.0724346 0.0133516 0
0.10631 0.0106661 0
0.14342 0.00701915 0
0.184268 0.00213626 0
0.229358 0 0
0.279194 0 0
0.334264 0 0
0.395056 0 0
0.462074 0 0
0.53579 0 0
0.616648 0 0
0.705028 0 0
0.801221 0 0
0.905333 0 0
1 0 0
1 0 0
1 0 0
1 0 0
1 0 0
1 0 0
1 0 0
1 0 0
1 0 0
1 0 0.0875868
1 0 0.176333
1 0 0.249836
1 0 0.281697
1 0 0.281712
1 0 0.281727
1 0 0.281743
0 0.0372015 0
0.00936904 0.0350195 0
0.035172 0.0330663 0
0.0631876 0.03093 0
0.0981765 0.0282292 0
0.136767 0.024567 0
0.178744 0.0196536 0
0.224704 0.013138 0
0.275227 0.00454719 0
0.330846 0 0
0.392065 0 0
0.459434 0 0
0.533425 0 0
0.614496 0 0
0.703075 0 0
0.79939 0 0
0.903624 0 0
1 0 0
1 0 0
1 0 0
1 0 0
1 0 0
1 0 0
1 0 0
1 0 0
1 0 0
1 0 0.0877852
1 0 0.176455
1 0 0.249943
1 0 0.281636
1 0 0.281666
1 0 0.281697
1 0 0.281712
0 0.05626 0
0 0.054078 0
0.0251926 0.0521096 0
0.0531624 0.0499733 0
0.0888685 0.0472419 0
0.129305 0.0435645 0
0.17261 0.0386358 0
0.219577 0.032105 0
0.270863 0.0234684 0
0.327077 0.0121767 0
0.388785 0 0
0.456535 0 0
0.530831 0 0
0.612161 0 0
0.700923 0 0
0.797421 0 0
0.901762 0 0
1 0 0
1 0 0
1 0 0
1 0 0
1 0 0
1 0 0
1 0 0
1 0 0
1 0 0
1 0 0.088014
1 0 0.176608
1 0 0.25005
1 0 0.281559
1 0 0.281605
1 0 0.281651
1 0 0.281682
0 0.0804913 0
0 0.078294 0
0.0125277 0.0763104 0
0.0404364 0.0741588 0
0.0760052 0.0714275 0
0.119356 0.0677348 0
0.164553 0.0627756 0
0.212894 0.056199 0
0.265232 0.0475166 0
0.322255 0.0361639 0
0.384588 0.0214084 0
0.452842 0.00234989 0
0.527535 0 0
0.609186 0 0
0.698207 0 0
0.794888 0 0
0.899397 0 0
1 0 0
1 0 0
1 0 0
1 0 0
1 0 0
1 0 0
1 0 0
1 0 0
1 0 0
1 0 0.0882887
1 0 0.176791
1 0 0.250187
1 0 0.281453
1 0 0.281529
1 0 0.28159
1 0 0.281636
0 0.110491 0
0 0.108629 0
0 0.106935 0
0.0232853 0.105089 0
0.0587472 0.102693 0
0.105028 0.0994125 0
0.153216 0.0949111 0
0.203616 0.088716 0
0.257465 0.0798962 0
0.315633 0.068452 0
0.378866 0.0535897 0
0.447807 0.0343938 0
0.523064 0.00978103 0
0.605142 0 0
0.694514 0 0
0.79147 0 0
0.896193 0 0
1 0 0
1 0 0
1 0 0
1 0 0
1 0 0
1 0 0
1 0 0
1 0 0
1 0 0
1 0 0.0886702
1 0 0.177035
1 0 0.250385
1 0 0.281331
1 0 0.281437
1 0 0.281514
1 0 0.281575
0 0.143526 0
0 0.14197 0
0 0.140551 0
0.000411994 0.138994 0
0.0357519 0.136995 0
0.0837415 0.134264 0
0.137041 0.130541 0
0.190677 0.12549 0
0.246784 0.118593 0
0.306615 0.109148 0
0.371099 0.0960403 0
0.441016 0.0771191 0
0.517021 0.0522621 0
0.59971 0.0206149 0
0.689555 0 0
0.786877 0 0
0.891905 0 0
1 0 0
1 0 0
1 0 0
1 0 0
1 0 0
1 0 0
1 0 0
1 0 0
1 0 0
1 0 0.0891737
1 0 0.177371
1 0 0.250645
1 0 0.281147
1 0 0.2813
1 0 0.281407
1 0 0.281498
0 0.180148 0
0 0.17882 0
0 0.177615 0
0 0.176287 0
0.00538643 0.174609 0
0.052903 0.172305 0
0.113344 0.169177 0
0.172427 0.16495 0
0.232013 0.159258 0
0.294286 0.151568 0
0.360586 0.141115 0
0.431876 0.126741 0
0.508949 0.106493 0
0.592447 0.0763256 0
0.682933 0.0358282 0
0.780774 0 0
0.886198 0 0
0.999176 0 0
1 0 0
1 0 0
1 0 0
1 0 0
1 0 0
1 0 0
1 0 0
1 0 0
1 0 0.0898604
1 0 0.177813
1 0 0.25098
1 0 0.280919
1 0 0.281117
1 0 0.28127
1 0 0.281392
0 0.22063 0
0 0.219486 0
0 0.218448 0
0 0.217319 0
0 0.215869 0
0.0128786 0.213901 0
0.0761425 0.211231 0
0.145998 0.20766 0
0.211398 0.202853 0
0.27744 0.196429 0
0.346365 0.187808 0
0.419623 0.176196 0
0.498161 0.160357 0
0.582803 0.138293 0
0.674174 0.106203 0
0.772702 0.0564431 0
0.87866 0 0
0.992065 0 0
1 0 0
1 0 0
1 0 0
1 0 0
1 0 0
1 0 0
1 0 0
1 0 0
1 0 0.0907607
1 0 0.178393
1 0 0.251438
1 0 0.280613
1 0 0.280888
1 0 0.281086
1 0 0.281254
0 0.265202 0
0 0.264195 0
0 0.263294 0
0 0.262318 0
0 0.261067 0
0 0.259358 0
0.0237888 0.257069 0
0.10544 0.253986 0
0.181888 0.249866 0
0.254108 0.244388 0
0.327092 0.23711 0
0.403189 0.22742 0
0.483833 0.214435 0
0.570062 0.196902 0
0.662638 0.172732 0
0.762097 0.138109 0
0.868788 0.0837873 0
0.982757 0.00323491 0
1 0 0
1 0 0
1 0 0
1 0 0
1 0 0
1 0 0
1 0 0
1 0 0
1 0 0.0919356
1 0 0.179171
1 0 0.252033
1 0 0.280217
1 0 0.280568
1 0 0.280858
1 0 0.281071
0 0.314061 0
0 0.313191 0
0 0.312398 0
0 0.311543 0
0 0.310445 0
0 0.308949 0
0 0.30695 0
0.0391089 0.304265 0
0.137331 0.300679 0
0.221118 0.295949 0
0.300679 0.289677 0
0.381094 0.281392 0
0.464775 0.270436 0
0.553246 0.255879 0
0.647501 0.236347 0
0.748226 0.20972 0
0.855894 0.172122 0
0.970642 0.114641 0
1 0.0180972 0
1 0 0
1 0 0
1 0 0
1 0 0
1 0 0
1 0 0
1 0 0
1 0 0.093492
1 0 0.180194
1 0 0.252827
1 0 0.279698
1 0 0.280171
1 0 0.280552
1 0 0.280842
0 0.367376 0
0 0.366613 0
0 0.365911 0
0 0.365148 0
0 0.364172 0
0 0.36286 0
0 0.361089 0
0 0.358709 0
0.0600443 0.355566 0
0.172015 0.3514 0
0.263691 0.345922 0
0.351095 0.33872 0
0.439384 0.329259 0
0.53109 0.316808 0
0.627695 0.300404 0
0.730205 0.278569 0
0.8392 0.249073 0
0.954971 0.207996 0
1 0.146609 0
1 0.0374151 0
1 0 0
1 0 0
1 0 0
1 0 0
1 0 0
1 0 0
1 0 0.0955367
1 0 0.181537
1 0 0.253849
1 0 0.279011
1 0 0.279652
1 0 0.28014
1 0 0.280522
0 0.425208 0
0 0.424506 0
0 0.42388 0
0 0.423194 0
0 0.422324 0
0 0.421149 0
0 0.419562 0
0 0.417456 0
0 0.414649 0
0.0879683 0.410941 0
0.209491 0.406088 0
0.30959 0.39971 0
0.40528 0.391394 0
0.501823 0.380529 0
0.601846 0.366354 0
0.706813 0.347753 0
0.817655 0.323232 0
0.934829 0.29044 0
1 0.24535 0
1 0.179339 0
1 0.0612192 0
1 0 0
1 0 0
1 0 0
1 0 0
1 0 0
1 0 0.0981765
1 0 0.183276
1 0 0.255207
1 0 0.278141
1 0 0.278965
1 0 0.279622
1 0 0.280125
0 0.487449 0
0 0.486824 0
0 0.486244 0
0 0.485634 0
0 0.484855 0
0 0.483787 0
0 0.482353 0
0 0.480446 0
0 0.477928 0
0 0.474601 0
0.119265 0.470237 0
0.249622 0.46453 0
0.358587 0.457099 0
0.462928 0.447456 0
0.568048 0.434943 0
0.676585 0.418692 0
0.78999 0.397559 0
0.909056 0.369909 0
1 0.333318 0
1 0.28365 0
1 0.212345 0
1 0.0892042 0
1 0 0
1 0 0
1 0 0
1 0 0.0009308
1 0 0.10161
1 0 0.185565
1 0 0.256947
1 0 0.277028
1 0 0.278096
1 0 0.27895
1 0 0.279606
0 0.553872 0
0 0.553307 0
0 0.552789 0
0 0.552224 0
0 0.551507 0
0 0.550546 0
0 0.549233 0
0 0.547509 0
0 0.545205 0
0 0.542184 0
0 0.538231 0
0.152285 0.533074 0
0.292103 0.52636 0
0.41033 0.517678 0
0.523598 0.506462 0
0.637446 0.491981 0
0.754543 0.47332 0
0.87628 0.449226 0
1 0.41799 0
1 0.377066 0
1 0.322271 0
1 0.244984 0
1 0.116487 0
1 0 0
1 0 0
1 0 0.0061799
1 0 0.106035
1 0 0.188525
1 0 0.25922
1 0 0.275608
1 0 0.276997
1 0 0.278096
1 0 0.27895
0 0.624033 0
0 0.623499 0
0 0.623026 0
0 0.622507 0
0 0.621851 0
0 0.620966 0
0 0.619776 0
0 0.618189 0
0 0.616083 0
0 0.613321 0
0 0.609705 0
0 0.60499 0
0.18677 0.598886 0
0.336553 0.590982 0
0.464271 0.580804 0
0.586587 0.567727 0
0.709209 0.550958 0
0.83476 0.529488 0
0.964492 0.501991 0
1 0.466651 0
1 0.420874 0
1 0.360388 0
1 0.27657 0
1 0.189136 0
1 0.0563973 0
1 0 0.0131075
1 0 0.111727
1 0 0.192355
1 0 0.262165
1 0 0.273808
1 0 0.275593
1 0 0.276997
1 0 0.278096
0 0.697215 0
0 0.696742 0
0 0.6963 0
0 0.695827 0
0 0.695232 0
0 0.694408 0
0 0.693309 0
0 0.691844 0
0 0.689921 0
0 0.687373 0
0 0.684047 0
0 0.679713 0
0 0.674113 0
0.222309 0.66688 0
0.382361 0.657572 0
0.519661 0.64564 0
0.651041 0.630396 0
0.782269 0.610986 0
0.915938 0.586297 0
1 0.554925 0
1 0.515007 0
1 0.463859 0
1 0.397208 0
1 0.341283 0
1 0.262455 0
1 0.156237 0.0222934
1 0 0.119036
1 0 0.19733
1 0 0.265965
1 0 0.271565
1 0 0.273808
1 0 0.275608
1 0 0.277028
0 0.772503 0
0 0.772061 0
0 0.771664 0
0 0.771221 0
0 0.770657 0
0 0.769909 0
0 0.768902 0
0 0.767544 0
0 0.765774 0
0 0.763424 0
0 0.760357 0
0 0.756374 0
0 0.751217 0
0 0.744564 0
0.258335 0.736019 0
0.428763 0.725078 0
0.575601 0.711131 0
0.715846 0.693431 0
0.855344 0.671 0
0.996612 0.64268 0
1 0.607019 0
1 0.562051 0
1 0.51574 0
1 0.461112 0
1 0.396063 0
1 0.319677 0.0345617
1 0.229191 0.128344
1 0.115221 0.203754
1 0 0.265293
1 0 0.268772
1 0 0.271595
1 0 0.273854
1 0 0.275654
0 0.848676 0
0 0.848264 0
0 0.847898 0
0 0.847501 0
0 0.846983 0
0 0.846296 0
0 0.845365 0
0 0.844129 0
0 0.842481 0
0 0.84033 0
0 0.837507 0
0 0.833844 0
0 0.829099 0
0 0.82298 0
0 0.815137 0
0.294179 0.805097 0
0.474922 0.792309 0
0.631052 0.776089 0
0.779782 0.755596 0
0.927047 0.729824 0
1 0.69752 0
1 0.661189 0
1 0.618433 0
1 0.568292 0
1 0.510445 0
1 0.444831 0.0510262
1 0.371893 0.140108
1 0.292988 0.212009
1 0.191485 0.261067
1 0 0.265324
1 0 0.268818
1 0 0.271656
1 0 0.27393
0 0.924376 0
0 0.923995 0
0 0.923659 0
0 0.923293 0
0 0.92282 0
0 0.922194 0
0 0.92134 0
0 0.920195 0
0 0.9187 0
0 0.916732 0
0 0.914153 0
0 0.910796 0
0 0.906447 0
0 0.900847 0
0 0.89366 0
0 0.884474 0
0.329091 0.87277 0
0.519875 0.857939 0
0.684871 0.839216 0
0.840436 0.815091 0
0.989685 0.786969 0
1 0.753597 0
1 0.714199 0
1 0.668193 0
1 0.61532 0
1 0.555795 0.073228
1 0.490486 0.154849
1 0.421424 0.222553
1 0.327871 0.256001
1 0.188876 0.261143
1 0 0.265431
1 0 0.26894
1 0 0.271778
0 0.998108 0
0 0.997772 0
0 0.997467 0
0 0.997131 0
0 0.996704 0
0 0.996124 0
0 0.995346 0
0 0.994324 0
0 0.992966 0
0 0.991165 0
0 0.988006 0
0 0.983902 0
0 0.979202 0
0 0.97348 0
0 0.966384 0
0 0.957565 0
0.100816 0.946609 0
0.389609 0.933043 0
0.576791 0.916304 0
0.741146 0.895781 0
0.896712 0.870787 0
1 0.840635 0
1 0.80473 0
1 0.762509 0
1 0.713771 0.0209659
1 0.658686 0.101976
1 0.598123 0.173068
1 0.533883 0.235889
1 0.438071 0.250019
1 0.325368 0.256123
1 0.183825 0.26128
1 0 0.265583
1 0 0.269108
0 1 0
0 1 0
0 1 0
0 1 0
0 1 0
0 1 0
0 1 0
0 1 0
0 1 0
0 1 0
0 1 0
0 1 0
0 1 0
0 1 0
0 1 0
0 1 0
0 1 0
0.193622 1 0
0.443122 0.989837 0
0.626795 0.97174 0
0.79176 0.949523 0
0.94905 0.922469 0
1 0.889952 0
1 0.851423 0
1 0.806561 0.0628672
1 0.755428 0.134066
1 0.698695 0.19527
1 0.628565 0.235065
1 0.5364 0.243091
1 0.435569 0.250172
1 0.321294 0.256306
1 0.176257 0.261479
1 0 0.265797
0 1 0
0 1 0
0 1 0
0 1 0
0 1 0
0 1 0
0 1 0
0 1 0
0 1 0
0 1 0
0 1 0
0 1 0
0 1 0
0 1 0
0 1 0
0 1 0
0 1 0
0 1 0
0.260014 1 0
0.491173 1 0
0.672633 1 0
0.83801 0.998276 0
0.996231 0.969146 0.00288396
1 0.934325 0.0548562
1 0.893385 0.11516
1 0.84622 0.169848
1 0.790906 0.21677
1 0.71252 0.226322
1 0.626932 0.235218
1 0.533913 0.24329
1 0.431815 0.250401
1 0.315602 0.256565
1 0.165866 0.261753
0 1 0
0 1 0
0 1 0
0 1 0
0 1 0
0 1 0
0 1 0
0 1 0
0 1 0
0 1 0
0 1 0
0 1 0
0 1 0
0 1 0
0 1 0
0 1 0
0 1 0
0 1 0
0 1 0
0.318547 1 0
0.536019 1 0.0107118
0.714763 1 0.0424659
0.879545 1 0.0823835
1 1 0.12517
1 0.97351 0.167117
1 0.925246 0.19675
1 0.861494 0.206882
1 0.790005 0.216892
1 0.710979 0.22649
1 0.624598 0.235447
1 0.530449 0.243549
1 0.426871 0.250706
1 0.308232 0.256886
0 1 0.0112612
0 1 0.0115511
0 1 0.0117952
0 1 0.0120699
0 1 0.0124208
0 1 0.0128939
0 1 0.0135195
0 1 0.014374
0 1 0.0154879
0 1 0.016968
0 1 0.0188907
0 1 0.0214084
0 1 0.0246738
0 1 0.0288853
0 1 0.0343175
0 1 0.0412909
0 1 0.0502327
0 1 0.0616617
0 1 0.0762036
0 1 0.0943465
0.373236 1 0.114534
0.578393 1 0.137057
0.752682 1 0.160388
0.908431 1 0.168414
1 1 0.177279
1 0.981109 0.186816
1 0.924895 0.196811
1 0.860731 0.207004
1 0.788663 0.217075
1 0.708888 0.226734
1 0.621485 0.235737
1 0.526024 0.2439
1 0.42063 0.251087
0 1 0.120058
0 1 0.120119
0 1 0.12018
0 1 0.120241
0 1 0.120317
0 1 0.120424
0 1 0.120577
0 1 0.12076
0 1 0.121019
0 1 0.121355
0 1 0.121798
0 1 0.122362
0 1 0.123095
0 1 0.124025
0 1 0.125216
0 1 0.126726
0 1 0.128634
0 1 0.131014
0 1 0.133944
0 1 0.13756
0.0560922 1 0.141924
0.388403 1 0.147143
0.584192 1 0.153277
0.752163 1 0.160372
0.908095 1 0.168399
1 1 0.177279
1 0.980926 0.186847
1 0.924361 0.196902
1 0.859678 0.207156
1 0.786908 0.217304
1 0.706188 0.227039
1 0.617578 0.236103
1 0.520577 0.244312
0 1 0.120058
0 1 0.120104
0 1 0.12015
0 1 0.120195
0 1 0.120256
0 1 0.120348
0 1 0.120455
0 1 0.120607
0 1 0.120806
0 1 0.121065
0 1 0.121401
0 1 0.121843
0 1 0.122408
0 1 0.12314
0 1 0.124086
0 1 0.125277
0 1 0.126787
0 1 0.128679
0 1 0.131044
0 1 0.133959
0 1 0.137545
0.0533303 1 0.141894
0.386923 1 0.147097
0.582971 1 0.153231
0.751217 1 0.160327
0.90753 1 0.168368
1 1 0.177279
1 0.980636 0.186908
1 0.923629 0.197024
1 0.858335 0.207355
1 0.784695 0.217578
1 0.702861 0.227405
1 0.612833 0.236545
0 1 0.120058
0 1 0.120089
0 1 0.120119
0 1 0.120165
0 1 0.120211
0 1 0.120272
0 1 0.120363
0 1 0.120485
0 1 0.120638
