src/main/resources/org/dpsoftware/lut/800nits_HDR-to-SDR.cube
#DPsofrware (Davide Perini) 3D LUT. Generated by Resolve.
TITLE "800nits_HDR-to-SDR"
LUT_3D_SIZE 5
0 0 0
0.283558 0 0
0.90724 0 0
1 0 0
1 0 0.281773
0 0.22063 0
0.211398 0.202853 0
0.87866 0 0
1 0 0
1 0 0.281254
0 0.697215 0
0 0.689921 0
0.651041 0.630396 0
1 0.262455 0
1 0 0.277028
0 1 0.0112612
0 1 0.0154879
0 1 0.0502327
1 1 0.177279
1 0.42063 0.251087
0 1 0.120058
0 1 0.120211
0 1 0.121492
0 1 0.130571
1 1 0.177279
0 0 0.222492
0.275502 0 0.21857
0.904097 0 0.186664
1 0 0.0354162
1 0 0.292546
0 0.219211 0.205295
0.201404 0.201404 0.201404
0.875547 0 0.169528
1 0 0.0433051
1 0 0.291997
0 0.696239 0.0367285
0 0.688945 0.0327001
0.647974 0.629511 0.00144961
1 0.262379 0.0697948
1 0 0.287541
0 1 0.0948043
0 1 0.0983139
0 1 0.124743
1 1 0.211597
1 0.420584 0.260166
0 1 0.128252
0 1 0.128389
0 1 0.12958
0 1 0.137987
1 1 0.181781
0 0 0.772381
0.199496 0 0.767514
0.877897 0 0.729397
1 0 0.541268
1 0 0.371038
0 0.207401 0.757961
0.0961471 0.189212 0.753277
0.849607 0 0.716548
1 0 0.536522
1 0 0.370291
0 0.68809 0.653666
0 0.680888 0.650141
0.622187 0.622187 0.622187
1 0.261769 0.501411
1 0 0.364263
0 1 0.403403
0 1 0.403693
0 1 0.406149
1 1 0.402487
1 0.420127 0.327047
0 1 0.186023
0 1 0.186099
0 1 0.186725
0 1 0.191226
1 1 0.216358
0 0 1
0 0 1
0.678233 0 1
1 0 1
1 0 0.725216
0 0.110399 1
0 0.08542 1
0.650339 0 1
1 0 1
1 0 0.723751
0 0.630671 1
0 0.624094 1
0.404959 0.570016 1
1 0.258656 1
1 0 0.711757
0 1 1
0 1 1
0 1 1
0.999985 0.999969 0.999985
1 0.416663 0.636561
0 1 0.432425
0 1 0.432349
0 1 0.431678
0 1 0.426764
1 1 0.396262
0 0 1
0 0 1
0 0 1
1 0 1
1 0 1
0 0.0101015 1
0 0.0041352 1
0 0 1
1 0 1
1 0 1
0 0.441154 1
0 0.438743 1
0 0.419211 1
1 0.298985 1
1 0 1
0 0.964797 1
0 0.962936 1
0 0.947601 1
0.659739 0.844663 1
1 0.391608 1
0 1 1
0 1 1
0 1 1
0 1 1
0.999985 0.999969 0.999985
