src/main/resources/cube_lut/1000nits_HDR-to-SDR.cube
#DPsofrware (Davide Perini) 3D LUT. Generated by Resolve.
TITLE "1000nits_HDR-to-SDR"
LUT_3D_SIZE 33
0 0 0
0.0289006 0 0
0.054902 0 0
0.08336 0 0
0.115389 0 0
0.15108 0 0
0.190845 0 0
0.235096 0 0
0.284276 0 0
0.338811 0 0
0.399161 0 0
0.465766 0 0
0.539101 0 0
0.619532 0 0
0.707424 0 0
0.802976 0 0
0.906233 0 0
1 0 0
1 0 0
1 0 0
1 0 0
1 0 0
1 0 0
1 0 0
1 0 0
1 0 0
1 0 0.0841688
1 0 0.170901
1 0 0.242374
1 0 0.308309
1 0 0.322469
1 0 0.322469
1 0 0.322469
0 0.0196841 0
0.0186313 0.0175174 0
0.0445869 0.0155489 0
0.0727703 0.0134279 0
0.106737 0.0107118 0
0.143908 0.00704967 0
0.184817 0.00213626 0
0.229984 0 0
0.279881 0 0
0.334997 0 0
0.395804 0 0
0.462806 0 0
0.536431 0 0
0.617121 0 0
0.705196 0 0
0.8009 0 0
0.90428 0 0
1 0 0
1 0 0
1 0 0
1 0 0
1 0 0
1 0 0
1 0 0
1 0 0
1 0 0
1 0 0.0843824
1 0 0.171038
1 0 0.242481
1 0 0.308385
1 0 0.322408
1 0 0.322423
1 0 0.322438
0 0.0373693 0
0.00941482 0.0351873 0
0.0353399 0.0332189 0
0.0634775 0.0310674 0
0.0985733 0.0283513 0
0.13724 0.0246738 0
0.179278 0.0197452 0
0.225299 0.0131991 0
0.275883 0.00457771 0
0.331533 0 0
0.392782 0 0
0.460121 0 0
0.53402 0 0
0.614923 0 0
0.703197 0 0
0.799039 0 0
0.902525 0 0
1 0 0
1 0 0
1 0 0
1 0 0
1 0 0
1 0 0
1 0 0
1 0 0
1 0 0
1 0 0.0845808
1 0 0.171176
1 0 0.242588
1 0 0.308476
1 0 0.322362
1 0 0.322393
1 0 0.322408
0 0.0565194 0
0 0.0543221 0
0.0253147 0.0523384 0
0.0534066 0.0501869 0
0.0892348 0.0474556 0
0.129747 0.0437629 0
0.173114 0.0388037 0
0.220142 0.0322271 0
0.271489 0.0235599 0
0.327749 0.0122225 0
0.389471 0 0
0.457191 0 0
0.531395 0 0
0.612558 0 0
0.701015 0 0
0.797009 0 0
0.900618 0 0
1 0 0
1 0 0
1 0 0
1 0 0
1 0 0
1 0 0
1 0 0
1 0 0
1 0 0
1 0 0.0847944
1 0 0.171313
1 0 0.242695
1 0 0.308553
1 0 0.322316
1 0 0.322347
1 0 0.322377
0 0.0808423 0
0 0.0786297 0
0.0125734 0.0766461 0
0.0406043 0.0744793 0
0.0763104 0.0717327 0
0.119768 0.0680095 0
0.165026 0.0630198 0
0.213428 0.0564126 0
0.265812 0.0476844 0
0.322881 0.036286 0
0.385229 0.0214694 0
0.453452 0.00234989 0
0.528054 0 0
0.609522 0 0
0.698222 0 0
0.794415 0 0
0.898192 0 0
1 0 0
1 0 0
1 0 0
1 0 0
1 0 0
1 0 0
1 0 0
1 0 0
1 0 0
1 0 0.0850538
1 0 0.171481
1 0 0.242832
1 0 0.308659
1 0 0.322255
1 0 0.322301
1 0 0.322347
0 0.110872 0
0 0.10901 0
0 0.107317 0
0.0233768 0.105455 0
0.0589914 0.103059 0
0.105379 0.0997635 0
0.153643 0.0952316 0
0.204105 0.0890059 0
0.258 0.0801709 0
0.316213 0.0686656 0
0.379446 0.053727 0
0.448356 0.0344701 0
0.523507 0.00979629 0
0.605402 0 0
0.694453 0 0
0.790921 0 0
0.894896 0 0
1 0 0
1 0 0
1 0 0
1 0 0
1 0 0
1 0 0
1 0 0
1 0 0
1 0 0
1 0 0.0854353
1 0 0.171725
1 0 0.243015
1 0 0.308812
1 0 0.322164
1 0 0.32224
1 0 0.322286
0 0.143954 0
0 0.142367 0
0 0.140948 0
0.000411994 0.139391 0
0.0358892 0.137377 0
0.0840314 0.13463 0
0.137407 0.130892 0
0.191104 0.125811 0
0.247257 0.118898 0
0.307103 0.109407 0
0.371603 0.0962387 0
0.441474 0.0772717 0
0.517388 0.0523384 0
0.599878 0.0206302 0
0.689387 0 0
0.786221 0 0
0.890501 0 0
1 0 0
1 0 0
1 0 0
1 0 0
1 0 0
1 0 0
1 0 0
1 0 0
1 0 0
1 0 0.0859236
1 0 0.172045
1 0 0.243259
1 0 0.30901
1 0 0.322057
1 0 0.322148
1 0 0.322225
0 0.180575 0
0 0.179232 0
0 0.178027 0
0 0.176699 0
0.00540169 0.175006 0
0.0530709 0.172686 0
0.113619 0.169543 0
0.172763 0.165286 0
0.23241 0.159564 0
0.294697 0.151827 0
0.360983 0.141329 0
0.432227 0.126894 0
0.509194 0.106569 0
0.592493 0.0763409 0
0.682643 0.0357977 0
0.77998 0 0
0.884642 0 0
0.996551 0 0
1 0 0
1 0 0
1 0 0
1 0 0
1 0 0
1 0 0
1 0 0
1 0 0
1 0 0.0865949
1 0 0.172473
1 0 0.24358
1 0 0.30927
1 0 0.321904
1 0 0.322026
1 0 0.322133
0 0.221042 0
0 0.219883 0
0 0.21883 0
0 0.2177 0
0 0.216236 0
0.0129091 0.214252 0
0.0763409 0.211566 0
0.146242 0.207965 0
0.211688 0.203128 0
0.277729 0.196658 0
0.346654 0.187991 0
0.419837 0.176318 0
0.498268 0.160403 0
0.582696 0.138247 0
0.673716 0.106081 0
0.771725 0.0563058 0
0.876921 0 0
0.989242 0 0
1 0 0
1 0 0
1 0 0
1 0 0
1 0 0
1 0 0
1 0 0
1 0 0
1 0 0.0874647
1 0 0.173037
1 0 0.244022
1 0 0.309621
1 0 0.321691
1 0 0.321874
1 0 0.322011
0 0.265538 0
0 0.264546 0
0 0.26363 0
0 0.262638 0
0 0.261372 0
0 0.259663 0
0.0238193 0.257343 0
0.105577 0.254231 0
0.182055 0.25008 0
0.254276 0.244556 0
0.32723 0.237232 0
0.40325 0.227466 0
0.483757 0.214405 0
0.569757 0.196765 0
0.661967 0.172488 0
0.760891 0.137774 0
0.866804 0.0834058 0
0.97969 0.00320439 0
1 0 0
1 0 0
1 0 0
1 0 0
1 0 0
1 0 0
1 0 0
1 0 0
1 0 0.0886244
1 0 0.173785
1 0 0.244602
1 0 0.310094
1 0 0.321431
1 0 0.321675
1 0 0.321859
0 0.31429 0
0 0.313405 0
0 0.312612 0
0 0.311742 0
0 0.310628 0
0 0.309117 0
0 0.307088 0
0.0391394 0.304372 0
0.137377 0.300771 0
0.221134 0.295979 0
0.300649 0.289647 0
0.380957 0.2813 0
0.464485 0.270253 0
0.552697 0.255573 0
0.646571 0.235935 0
0.746746 0.209186 0
0.85362 0.171466 0
0.967254 0.113954 0
1 0.0179294 0
1 0 0
1 0 0
1 0 0
1 0 0
1 0 0
1 0 0
1 0 0
1 0 0.090135
1 0 0.174777
1 0 0.245365
1 0 0.310689
1 0 0.32108
1 0 0.321401
1 0 0.32166
0 0.367391 0
0 0.366613 0
0 0.365896 0
0 0.365133 0
0 0.364141 0
0 0.362814 0
0 0.361013 0
0 0.358618 0
0.0599985 0.355428 0
0.171908 0.351217 0
0.263493 0.345663 0
0.350759 0.338384 0
0.438849 0.328817 0
0.530251 0.316258 0
0.626459 0.299718 0
0.728374 0.277729 0
0.836561 0.248096 0
0.951202 0.206897 0
1 0.14551 0
1 0.0369421 0
1 0 0
1 0 0
1 0 0
1 0 0
1 0 0
1 0 0
1 0 0.0921187
1 0 0.176074
1 0 0.246357
1 0 0.311482
1 0 0.320638
1 0 0.32105
1 0 0.321386
0 0.424872 0
0 0.42417 0
0 0.423529 0
0 0.422827 0
0 0.421958 0
0 0.420752 0
0 0.41915 0
0 0.416999 0
0 0.41416 0
0.0877699 0.410407 0
0.209125 0.405478 0
0.309026 0.399023 0
0.404456 0.3906 0
0.500679 0.379614 0
0.600244 0.36527 0
0.704585 0.346517 0
0.814572 0.321813 0
0.930602 0.288838 0
1 0.243641 0
1 0.177676 0
1 0.0602426 0
1 0 0
1 0 0
1 0 0
1 0 0
1 0 0
1 0 0.0946822
1 0 0.177752
1 0 0.247639
1 0 0.31252
1 0 0.320058
1 0 0.320607
1 0 0.32105
0 0.486595 0
0 0.485954 0
0 0.485374 0
0 0.484749 0
0 0.483955 0
0 0.482872 0
0 0.481422 0
0 0.479484 0
0 0.476921 0
0 0.473533 0
0.118837 0.469108 0
0.248859 0.46331 0
0.357504 0.455787 0
0.461418 0.446006 0
0.566033 0.433326 0
0.673884 0.416892 0
0.786404 0.39556 0
0.904295 0.367697 0
1 0.330907 0
1 0.281147 0
1 0.209934 0
1 0.08748 0
1 0 0
1 0 0
1 0 0
1 0 0.000900282
1 0 0.098024
1 0 0.17995
1 0 0.249332
1 0 0.313863
1 0 0.31931
1 0 0.320027
1 0 0.320607
0 0.552285 0
0 0.551705 0
0 0.551171 0
0 0.550607 0
0 0.549874 0
0 0.548882 0
0 0.54757 0
0 0.5458 0
0 0.543465 0
0 0.540383 0
0 0.536355 0
0.151507 0.531106 0
0.290806 0.5243 0
0.408499 0.51548 0
0.521157 0.504097 0
0.634256 0.489418 0
0.750393 0.470542 0
0.870909 0.446204 0
0.996323 0.41474 0
1 0.373617 0
1 0.318746 0
1 0.241672 0
1 0.114092 0
1 0 0
1 0 0
1 0 0.00596628
1 0 0.102327
1 0 0.182818
1 0 0.251514
1 0 0.315602
1 0 0.318349
1 0 0.319295
1 0 0.320027
0 0.621408 0
0 0.620874 0
0 0.620386 0
0 0.619867 0
0 0.619196 0
0 0.618296 0
0 0.617075 0
0 0.615457 0
0 0.613321 0
0 0.610498 0
0 0.606821 0
0 0.602014 0
0.185519 0.595789 0
0.334524 0.587762 0
0.461463 0.577417 0
0.58291 0.564141 0
0.704479 0.547158 0
0.828733 0.525444 0
0.956847 0.497673 0
1 0.462104 0
1 0.416144 0
1 0.355642 0
1 0.27219 0
1 0.185336 0
1 0.054551 0
1 0 0.0126345
1 0 0.107881
1 0 0.186526
1 0 0.254337
1 0 0.315633
1 0 0.317159
1 0 0.318349
1 0 0.31931
0 0.693233 0
0 0.692744 0
0 0.692302 0
0 0.691814 0
0 0.691203 0
0 0.690364 0
0 0.68925 0
0 0.687755 0
0 0.685786 0
0 0.683192 0
0 0.679805 0
0 0.675395 0
0 0.669688 0
0.220401 0.662318 0
0.379355 0.652857 0
0.515587 0.640742 0
0.645777 0.625284 0
0.775601 0.605615 0
0.907576 0.580652 0
1 0.54902 0
1 0.508873 0
1 0.457618 0
1 0.391073 0
1 0.33521 0
1 0.256931 0
1 0.151919 0.0214694
1 0 0.114977
1 0 0.191333
1 0 0.258
1 0 0.31371
1 0 0.315633
1 0 0.317174
1 0 0.318379
0 0.766751 0
0 0.766308 0
0 0.765896 0
0 0.765454 0
0 0.764874 0
0 0.764111 0
0 0.763073 0
0 0.7617 0
0 0.759884 0
0 0.757504 0
0 0.754376 0
0 0.750317 0
0 0.745068 0
0 0.738293 0
0.255589 0.72961 0
0.424536 0.718502 0
0.56994 0.704341 0
0.708614 0.686397 0
0.846311 0.663706 0
0.985458 0.635126 0
1 0.599222 0
1 0.554086 0
1 0.507622 0
1 0.452995 0
1 0.38819 0
1 0.312383 0.0332341
1 0.222965 0.124025
1 0.110826 0.197543
1 0 0.26273
1 0 0.31133
1 0 0.313741
1 0 0.315663
1 0 0.317205
0 0.840742 0
0 0.84033 0
0 0.839948 0
0 0.839536 0
0 0.839017 0
0 0.838315 0
0 0.837369 0
0 0.836103 0
0 0.83444 0
0 0.832242 0
0 0.829374 0
0 0.82565 0
0 0.820813 0
0 0.814603 0
0 0.806622 0
0.29041 0.796429 0
0.46923 0.783475 0
0.623499 0.76704 0
0.77023 0.746319 0
0.915251 0.720302 0
1 0.68777 0
1 0.651209 0
1 0.60827 0
1 0.558068 0
1 0.500328 0
1 0.43505 0.049012
1 0.362768 0.13547
1 0.28481 0.205524
1 0.204562 0.268803
1 0.0842603 0.3084
1 0 0.311376
1 0 0.313802
1 0 0.31574
0 0.913817 0
0 0.913436 0
0 0.9131 0
0 0.912718 0
0 0.912245 0
0 0.911604 0
0 0.910735 0
0 0.909575 0
0 0.908064 0
0 0.90605 0
0 0.903441 0
0 0.900023 0
0 0.895613 0
0 0.889937 0
0 0.882658 0
0 0.873335 0
0.324132 0.861494 0
0.512474 0.846494 0
0.675135 0.827573 0
0.828275 0.80325 0
0.974884 0.774929 0
1 0.74136 0
1 0.701808 0
1 0.655711 0
1 0.602884 0
1 0.543587 0.070222
1 0.478752 0.149783
1 0.410361 0.215717
1 0.342321 0.2766
1 0.245869 0.30486
1 0.0780041 0.308492
1 0 0.311467
1 0 0.313893
0 0.984543 0
0 0.984192 0
0 0.983886 0
0 0.983551 0
0 0.983124 0
0 0.982528 0
0 0.98175 0
0 0.980713 0
0 0.979324 0
0 0.977508 0
0 0.974334 0
0 0.970199 0
0 0.965469 0
0 0.959686 0
0 0.952529 0
0 0.943633 0
0.0981308 0.932586 0
0.382895 0.918898 0
0.567285 0.902007 0
0.728939 0.881331 0
0.881712 0.856184 0
1 0.825879 0
1 0.789853 0
1 0.747585 0
1 0.698894 0.0201267
1 0.644007 0.098085
1 0.58381 0.167483
1 0.520134 0.228626
1 0.45626 0.286549
1 0.360479 0.300618
1 0.241932 0.304967
1 0.0682994 0.308614
1 0 0.31162
0 1 0
0 1 0
0 1 0
0 1 0
0 1 0
0 1 0
0 1 0
0 1 0
0 1 0
0 1 0
0 1 0
0 1 0
0 1 0
0 1 0
0 1 0
0 1 0
0 0.999023 0
0.189075 0.987274 0
0.434546 0.972595 0
0.615045 0.954421 0
0.776944 0.932082 0
0.931075 0.904952 0
1 0.872389 0
1 0.833844 0
1 0.789075 0.0601968
1 0.738155 0.129351
1 0.681758 0.189014
1 0.621408 0.24477
1 0.554131 0.289693
1 0.460136 0.295613
1 0.356878 0.300771
1 0.236118 0.30515
1 0.0549783 0.308797
0 1 0
0 1 0
0 1 0
0 1 0
0 1 0
0 1 0
0 1 0
0 1 0
0 1 0
0 1 0
0 1 0
0 1 0
0 1 0
0 1 0
0 1 0
0 1 0
0 1 0
0 1 0
0.253697 1 0
0.480613 1 0
0.658564 1 0
0.820539 0.977813 0
0.975265 0.948699 0.00276188
1 0.913939 0.0524758
1 0.873137 0.11078
1 0.826215 0.164157
1 0.773602 0.214786
1 0.716411 0.264698
1 0.639902 0.283162
1 0.551781 0.28986
1 0.456687 0.295811
1 0.351873 0.300984
1 0.228229 0.305379
0 1 0
0 1 0
0 1 0
0 1 0
0 1 0
0 1 0
0 1 0
0 1 0
0 1 0
0 1 0
0 1 0
0 1 0
0 1 0
0 1 0
0 1 0
0 1 0
0 1 0
0 1 0
0 1 0
0.310384 1 0
0.52343 1 0.0102541
0.69836 1 0.0405737
0.859449 1 0.0784466
1 0.987091 0.12047
1 0.950423 0.161395
1 0.907744 0.202686
1 0.85919 0.245045
1 0.796353 0.268177
1 0.720287 0.27599
1 0.637675 0.28336
1 0.548547 0.290089
1 0.452125 0.296071
1 0.345418 0.301259
0 1 0.0107576
0 1 0.0110323
0 1 0.0112612
0 1 0.0115206
0 1 0.0118563
0 1 0.012314
0 1 0.0129244
0 1 0.0137179
0 1 0.0148013
0 1 0.0162051
0 1 0.0180362
0 1 0.0204471
0 1 0.0235599
0 1 0.0275731
0 1 0.0327611
0 1 0.0394141
0 1 0.0479438
0 1 0.0588235
0 1 0.072694
0 1 0.0902571
0.363134 1 0.109957
0.563745 1 0.131945
0.734615 1 0.156329
0.893782 1 0.18323
1 1 0.212757
1 0.981613 0.244266
1 0.92697 0.25211
1 0.864744 0.260197
1 0.795071 0.268315
1 0.718288 0.276188
1 0.634699 0.283604
1 0.544381 0.290364
1 0.446403 0.296376
0 1 0.137957
0 1 0.138125
0 1 0.138277
0 1 0.138445
0 1 0.138659
0 1 0.138949
0 1 0.13933
0 1 0.139849
0 1 0.14052
0 1 0.141421
0 1 0.142565
0 1 0.14406
0 1 0.145998
0 1 0.148455
0 1 0.151583
0 1 0.15555
0 1 0.16051
0 1 0.166705
0 1 0.17435
0 1 0.183703
0.135317 1 0.195056
0.413657 1 0.208667
0.599298 1 0.218875
0.759884 1 0.224125
0.910658 1 0.230137
1 1 0.236896
1 0.98143 0.244297
1 0.926452 0.252186
1 0.863722 0.260334
1 0.793378 0.268498
1 0.715679 0.276432
1 0.630991 0.283894
1 0.539254 0.290715
0 1 0.195392
0 1 0.195422
0 1 0.195453
0 1 0.195483
0 1 0.195529
0 1 0.19559
0 1 0.195666
0 1 0.195758
0 1 0.195895
0 1 0.196078
0 1 0.196307
0 1 0.196612
0 1 0.196994
0 1 0.197498
0 1 0.198138
0 1 0.198962
0 1 0.2
0 1 0.201312
0 1 0.202945
0 1 0.205005
0 1 0.207538
0.15346 1 0.210636
0.415641 1 0.214374
0.598138 1 0.218845
0.758968 1 0.224094
0.910124 1 0.230121
1 1 0.236896
1 0.981155 0.244343
1 0.92575 0.252277
1 0.862425 0.260487
1 0.791241 0.268727
1 0.712489 0.276738
1 0.626474 0.28426
0 1 0.195392
0 1 0.195422
0 1 0.195438
0 1 0.195468
0 1 0.195499
0 1 0.195544
0 1 0.195605
0 1 0.195682
0 1 0.195789
