src/main/resources/cube_lut/1000nits_HDR-to-SDR.cube
#DPsofrware (Davide Perini) 3D LUT. Generated by Resolve.
TITLE "1000nits_HDR-to-SDR"
LUT_3D_SIZE 5
0 0 0
0.284276 0 0
0.906233 0 0
1 0 0
1 0 0.322469
0 0.221042 0
0.211688 0.203128 0
0.876921 0 0
1 0 0
1 0 0.322011
0 0.693233 0
0 0.685786 0
0.645777 0.625284 0
1 0.256931 0
1 0 0.318379
0 1 0.0107576
0 1 0.0148013
0 1 0.0479438
1 1 0.212757
1 0.446403 0.296376
0 1 0.195392
0 1 0.195499
0 1 0.196368
0 1 0.202625
1 1 0.236896
0 0 0.223194
0.276173 0 0.219135
0.903014 0 0.186358
1 0 0.0343938
1 0 0.331762
0 0.219593 0.205661
0.201663 0.201663 0.201663
0.873747 0 0.169039
1 0 0.0420386
1 0 0.331289
0 0.69221 0.0363165
0 0.684779 0.0323033
0.642695 0.624369 0.00143435
1 0.25684 0.0674449
1 0 0.327428
0 1 0.090837
0 1 0.0942702
0 1 0.120089
1 1 0.24213
1 0.446357 0.304036
0 1 0.201007
0 1 0.201114
0 1 0.201923
0 1 0.207843
1 1 0.24036
0 0 0.773648
0.199832 0 0.76846
0.876295 0 0.728038
1 0 0.532815
1 0 0.401266
0 0.207568 0.758419
0.0961929 0.189258 0.753445
0.847333 0 0.714595
1 0 0.527962
1 0 0.400595
0 0.683772 0.649531
0 0.676432 0.645869
0.616815 0.616815 0.616815
1 0.256168 0.492103
1 0 0.395178
0 1 0.393072
0 1 0.393332
0 1 0.39559
1 1 0.416739
1 0.44593 0.361959
0 1 0.243656
0 1 0.243717
0 1 0.24419
0 1 0.247715
1 1 0.267735
0 0 1
0 0 1
0.674022 0 1
1 0 1
1 0 0.733974
0 0.109606 1
0 0.0846723 1
0.645853 0 1
1 0 1
1 0 0.732555
0 0.624552 1
0 0.617899 1
0.399954 0.563378 1
1 0.25272 1
1 0 0.721035
0 1 1
0 1 1
0 1 1
0.998291 0.998276 0.998276
1 0.442771 0.649073
0 1 0.457252
0 1 0.457176
0 1 0.456565
0 1 0.452033
1 1 0.424125
0 0 1
0 0 1
0 0 1
1 0 1
1 0 1
0 0.00970474 1
0 0.00396735 1
0 0 1
1 0 1
1 0 1
0 0.430777 1
0 0.428397 1
0 0.409033 1
1 0.290272 1
1 0 1
0 0.965759 1
0 0.963928 1
0 0.94902 1
0.671199 0.849195 1
1 0.419898 1
0 1 1
0 1 1
0 1 1
0 1 1
0.999985 0.999969 0.999985
