src/main/resources/cube_lut/1000nits_HDR-to-SDR.cube
#DPsofrware (Davide Perini) 3D LUT. Generated by Resolve.
TITLE "1000nits_HDR-to-SDR"
LUT_3D_SIZE 9
0 0 0
0.115389 0 0
0.284276 0 0
0.539101 0 0
0.906233 0 0
1 0 0
1 0 0
1 0 0.242374
1 0 0.322469
0 0.0808423 0
0.0763104 0.0717327 0
0.265812 0.0476844 0
0.528054 0 0
0.898192 0 0
1 0 0
1 0 0
1 0 0.242832
1 0 0.322347
0 0.221042 0
0 0.216236 0
0.211688 0.203128 0
0.498268 0.160403 0
0.876921 0 0
1 0 0
1 0 0
1 0 0.244022
1 0 0.322011
0 0.424872 0
0 0.421958 0
0 0.41416 0
0.404456 0.3906 0
0.814572 0.321813 0
1 0.0602426 0
1 0 0
1 0 0.247639
1 0 0.32105
0 0.693233 0
0 0.691203 0
0 0.685786 0
0 0.669688 0
0.645777 0.625284 0
1 0.508873 0
1 0.256931 0
1 0 0.258
1 0 0.318379
0 0.984543 0
0 0.983124 0
0 0.979324 0
0 0.965469 0
0.0981308 0.932586 0
0.881712 0.856184 0
1 0.698894 0.0201267
1 0.45626 0.286549
1 0 0.31162
0 1 0.0107576
0 1 0.0118563
0 1 0.0148013
0 1 0.0235599
0 1 0.0479438
0.363134 1 0.109957
1 1 0.212757
1 0.795071 0.268315
1 0.446403 0.296376
0 1 0.195392
0 1 0.195468
0 1 0.195697
0 1 0.196353
0 1 0.198169
0 1 0.20293
0.409491 1 0.214252
1 1 0.236896
1 0.785657 0.269337
0 1 0.195392
0 1 0.195422
0 1 0.195499
0 1 0.195727
0 1 0.196368
0 1 0.198093
0 1 0.202625
0.382254 1 0.213733
1 1 0.236896
0 0 0.0804456
0.11104 0 0.0788891
0.282078 0 0.0747692
0.53782 0 0.0628367
0.905348 0 0.0320897
1 0 0
1 0 0
1 0 0.25156
1 0 0.325017
0 0.0801862 0.0726024
0.0710765 0.0710765 0.0710765
0.263523 0.0470588 0.0670634
0.526757 0 0.0554208
0.897307 0 0.0253758
1 0 0
1 0 0
1 0 0.251972
1 0 0.324895
0 0.220645 0.0523079
0 0.215839 0.0508888
0.208988 0.202731 0.0471351
0.496941 0.15996 0.0361944
0.876051 0 0.00799573
1 0 0
1 0 0
1 0 0.253071
1 0 0.324575
0 0.424567 0
0 0.421653 0
0 0.413855 0
0.402991 0.390311 0
0.813733 0.321523 0
1 0.0597848 0
1 0 0
1 0 0.256382
1 0 0.323583
0 0.692958 0
0 0.690929 0
0 0.685512 0
0 0.669413 0
0.644938 0.625025 0
1 0.508659 0
1 0.256901 0
1 0 0.265949
1 0 0.320867
0 0.984314 0
0 0.982879 0
0 0.979095 0
0 0.965194 0
0.0961166 0.932357 0
0.881285 0.856001 0
1 0.698787 0.0474403
1 0.45626 0.29279
1 0 0.313985
0 1 0.0326238
0 1 0.0336919
0 1 0.0365606
0 1 0.0451209
0 1 0.0689555
0.362799 1 0.125643
1 1 0.221088
1 0.79501 0.272877
1 0.446387 0.298482
0 1 0.199847
0 1 0.199924
0 1 0.200137
0 1 0.200763
0 1 0.202502
0 1 0.207034
0.409354 1 0.217884
1 1 0.239643
1 0.785641 0.270939
0 1 0.196933
0 1 0.196963
0 1 0.19704
0 1 0.197269
0 1 0.197894
0 1 0.199603
0 1 0.204059
0.382208 1 0.215
1 1 0.237842
0 0 0.223194
0.0988785 0 0.22208
0.276173 0 0.219135
0.534386 0 0.210391
0.903014 0 0.186358
1 0 0.122744
1 0 0.0343938
1 0 0.274708
1 0 0.331762
0 0.0784466 0.218433
0.0571603 0.0693675 0.217319
0.257313 0.0454108 0.214389
0.523308 0 0.205676
0.894987 0 0.181674
1 0 0.1178
1 0 0.0368811
1 0 0.275029
1 0 0.33164
0 0.219593 0.205661
0 0.214786 0.204562
0.201663 0.201663 0.201663
0.493416 0.158785 0.192996
0.873747 0 0.169039
1 0 0.104219
1 0 0.0420386
1 0 0.275883
1 0 0.331289
0 0.423743 0.166506
0 0.420829 0.165408
0 0.413046 0.162509
0.399069 0.389502 0.153811
0.811475 0.320745 0.129305
1 0.0585641 0.0597238
1 0 0.0515145
1 0 0.278477
1 0 0.330251
0 0.69221 0.0363165
0 0.690181 0.0352178
0 0.684779 0.0323033
0 0.668696 0.0238041
0.642695 0.624369 0.00143435
1 0.50811 0
1 0.25684 0.0674449
1 0 0.286152
1 0 0.327428
0 0.983688 0
0 0.982269 0
0 0.978485 0
0 0.964462 0
0.0906233 0.931762 0
0.880125 0.855558 0
1 0.698543 0.11632
1 0.456245 0.308827
1 0 0.320241
0 1 0.090837
0 1 0.091783
0 1 0.0942702
0 1 0.101472
0 1 0.120089
0.361868 1 0.16202
1 1 0.24213
1 0.794858 0.284733
1 0.446357 0.304036
0 1 0.211353
0 1 0.211414
0 1 0.211597
0 1 0.212161
0 1 0.213687
0 1 0.2177
0.409003 1 0.227344
1 1 0.24683
1 0.785595 0.275166
0 1 0.201007
0 1 0.201038
0 1 0.201114
0 1 0.201328
0 1 0.201923
0 1 0.203571
0 1 0.207843
0.382071 1 0.218341
1 1 0.24036
0 0 0.44213
0.0576028 0 0.441001
0.257832 0 0.438041
0.524041 0 0.429328
0.896025 0 0.406027
1 0 0.349996
1 0 0.259571
1 0 0.335348
1 0 0.351232
0 0.0732738 0.438254
0.015671 0.0642557 0.43714
0.237995 0.0404669 0.434211
0.512886 0 0.425589
0.888014 0 0.402502
1 0 0.346929
1 0 0.259586
1 0 0.335454
1 0 0.351095
0 0.216464 0.428046
0 0.211627 0.426963
0.178408 0.198428 0.424125
0.482734 0.15523 0.415717
0.866835 0 0.393225
1 0 0.338796
1 0 0.259266
1 0 0.335744
1 0 0.350698
0 0.421317 0.39855
0 0.418402 0.397559
0 0.410636 0.394919
0.387137 0.387137 0.387137
0.8047 0.318425 0.366171
1 0.0549325 0.314885
1 0 0.256748
1 0 0.336721
1 0 0.349554
0 0.689998 0.322118
0 0.687968 0.321294
0 0.682582 0.319081
0 0.66656 0.312551
0.635966 0.622385 0.294743
1 0.506432 0.249866
1 0.256657 0.248676
1 0 0.340078
1 0 0.346395
0 0.981811 0.125597
0 0.980392 0.124865
0 0.97615 0.127855
0 0.962341 0.15082
0.0728923 0.930007 0.169085
0.876661 0.854215 0.193774
1 0.69781 0.243839
1 0.456245 0.352804
1 0 0.338338
0 1 0.208423
0 1 0.20885
0 1 0.209964
0 1 0.213275
0 1 0.222309
0.359091 1 0.245212
1 1 0.297276
1 0.7944 0.317845
1 0.44625 0.32015
0 1 0.243061
0 1 0.243107
0 1 0.243229
0 1 0.24361
0 1 0.244633
0 1 0.247333
0.40795 1 0.253864
1 1 0.267353
1 0.785428 0.287541
0 1 0.212848
0 1 0.212879
0 1 0.21294
0 1 0.213123
0 1 0.213657
0 1 0.215091
0 1 0.21886
0.381689 1 0.228153
1 1 0.247776
0 0 0.773648
0 0 0.772229
0.199832 0 0.76846
0.49424 0 0.757397
0.876295 0 0.728038
1 0 0.658854
1 0 0.532815
1 0 0.466438
1 0 0.401266
0 0.0589303 0.769436
0 0.0500954 0.768032
0.175738 0.0268101 0.764309
0.482811 0 0.753384
0.868345 0 0.72433
1 0 0.655802
1 0 0.531487
1 0 0.466209
1 0 0.401083
0 0.207568 0.758419
0 0.20267 0.757061
0.0961929 0.189258 0.753445
0.451804 0.145068 0.742824
0.847333 0 0.714595
1 0 0.647761
1 0 0.527962
1 0 0.465583
1 0 0.400595
0 0.414481 0.727031
0 0.411597 0.72578
0 0.403861 0.722469
0.351995 0.380468 0.712718
0.785565 0.311879 0.686687
1 0.044831 0.624552
1 0 0.517632
1 0 0.463844
1 0 0.399145
0 0.683772 0.649531
0 0.681773 0.648524
0 0.676432 0.645869
0 0.660578 0.637995
0.616815 0.616815 0.616815
1 0.501732 0.565194
1 0.256168 0.492103
1 0 0.459892
1 0 0.395178
0 0.975097 0.492851
0 0.973312 0.493019
0 0.968856 0.492973
0 0.956573 0.491478
0.0232242 0.925109 0.485344
0.866896 0.850446 0.469566
1 0.695735 0.44625
1 0.456214 0.454795
1 0 0.385031
0 1 0.393072
0 1 0.393149
0 1 0.393332
0 1 0.393912
0 1 0.39559
0.351186 1 0.400671
1 1 0.416739
1 0.793118 0.397162
1 0.44593 0.361959
0 1 0.317372
0 1 0.317388
0 1 0.317388
0 1 0.317403
0 1 0.317464
0 1 0.317617
0.404959 1 0.317998
1 1 0.318807
1 0.784985 0.320073
0 1 0.243656
0 1 0.243671
0 1 0.243717
0 1 0.243839
0 1 0.24419
0 1 0.245167
0 1 0.247715
0.380606 1 0.254063
1 1 0.267735
0 0 1
0 0 1
0 0 1
0.406516 0 1
0.822339 0 1
1 0 1
1 0 0.918761
1 0 0.706767
1 0 0.513893
0 0.0216983 1
0 0.0133516 1
0 0 1
0.393866 0 1
0.814542 0 1
1 0 1
1 0 0.91632
1 0 0.706065
1 0 0.513634
0 0.182834 1
0 0.177707 1
0 0.163561 1
0.35903 0.115785 1
0.793881 0 1
1 0 1
1 0 0.909941
1 0 0.704234
1 0 0.512932
0 0.396124 1
0 0.393271 1
0 0.385626 1
0.238743 0.362478 1
0.732815 0.294102 1
1 0.018143 1
1 0 0.891798
1 0 0.698878
1 0 0.510887
0 0.667124 1
0 0.665171 1
0 0.659998 1
0 0.644572 1
0.563012 0.601892 1
1 0.489021 0.992981
1 0.254963 0.847089
1 0 0.685023
1 0 0.505257
0 0.958358 0.912886
0 0.956909 0.911955
0 0.953063 0.909499
0 0.941878 0.902373
0 0.912154 0.883757
0.840375 0.840375 0.840375
1 0.690166 0.757229
1 0.456184 0.65507
1 0 0.490837
0 1 0.676463
0 1 0.676265
0 1 0.6757
0 1 0.674037
0 1 0.669535
0.328984 1 0.658488
1 1 0.636378
1 0.789639 0.55906
1 0.44509 0.457771
0 1 0.4654
0 1 0.465339
0 1 0.465171
0 1 0.464683
0 1 0.46331
0 1 0.459678
0.396689 1 0.450584
1 1 0.430503
1 0.783764 0.39649
0 1 0.314519
0 1 0.314534
0 1 0.314534
0 1 0.314549
0 1 0.31458
0 1 0.314656
0 1 0.314885
0.37763 1 0.315465
1 1 0.316762
0 0 1
0 0 1
0 0 1
0 0 1
0.674022 0 1
1 0 1
1 0 1
1 0 1
1 0 0.733974
0 0 1
0 0 1
0 0 1
0 0 1
0.666346 0 1
1 0 1
1 0 1
1 0 1
1 0 0.733577
0 0.109606 1
0 0.103136 1
0 0.0846723 1
0 0.0259861 1
0.645853 0 1
1 0 1
1 0 1
1 0 1
1 0 0.732555
0 0.348424 1
0 0.345632 1
0 0.33814 1
0 0.315312 1
0.584176 0.246357 1
1 0 1
1 0 1
1 0 1
1 0 0.729488
0 0.624552 1
0 0.622736 1
0 0.617899 1
0 0.603479 1
0.399954 0.563378 1
1 0.455772 1
1 0.25272 1
1 0 1
1 0 0.721035
0 0.920653 1
0 0.919402 1
0 0.916091 1
0 0.906325 1
0 0.879927 1
0.76968 0.814801 1
1 0.675898 1
1 0.451759 0.996597
1 0 0.699321
0 1 1
0 1 1
0 1 1
0 1 1
0 1 1
0.263554 1 1
0.998291 0.998276 0.998276
1 0.780255 0.846922
1 0.442771 0.649073
0 1 0.725017
0 1 0.72488
0 1 0.724498
0 1 0.723354
0 1 0.72018
0 1 0.711681
0.373541 1 0.690196
1 1 0.641428
1 0.780438 0.553857
0 1 0.457252
0 1 0.457237
0 1 0.457176
0 1 0.457023
0 1 0.456565
0 1 0.455329
0 1 0.452033
0.369345 1 0.443595
1 1 0.424125
0 0 1
0 0 1
0 0 1
0 0 1
0.0896162 0 1
0.949187 0 1
1 0 1
1 0 1
1 0 1
0 0 1
0 0 1
0 0 1
0 0 1
0.0638285 0 1
0.944198 0 1
1 0 1
1 0 1
1 0 1
0 0 1
0 0 1
0 0 1
0 0 1
0 0 1
0.931228 0 1
1 0 1
1 0 1
1 0 1
0 0.227176 1
0 0.224247 1
0 0.216312 1
0 0.191409 1
0 0.106767 1
0.89427 0 1
1 0 1
1 0 1
1 0 1
0 0.527581 1
0 0.526574 1
0 0.523674 1
0 0.514366 1
0 0.487434 1
0.799664 0.417411 1
1 0.253864 1
1 0 1
1 0 1
0 0.839338 1
0 0.838376 1
0 0.835859 1
0 0.828367 1
0 0.807889 1
0.581811 0.756329 1
1 0.642863 1
1 0.434714 1
1 0 1
0 1 1
0 1 1
0 1 1
0 1 1
0 1 1
0 1 1
0.907408 0.953826 1
1 0.755673 1
1 0.436484 0.987381
0 1 1
0 1 1
0 1 1
0 1 1
0 1 1
0 1 1
0.304341 1 1
0.999985 0.999969 0.999985
1 0.771298 0.840986
0 1 0.714351
0 1 0.71429
0 1 0.714168
0 1 0.713787
0 1 0.712688
0 1 0.709728
0 1 0.701808
0.345525 1 0.681254
1 1 0.632532
0 0 1
0 0 1
0 0 1
0 0 1
0 0 1
0.298466 0 1
1 0 1
1 0 1
1 0 1
0 0 1
0 0 1
0 0 1
0 0 1
0 0 1
0.294423 0 1
1 0 1
1 0 1
1 0 1
0 0.00970474 1
0 0.00813306 1
0 0.00396735 1
0 0 1
0 0 1
0.283543 0 1
1 0 1
1 0 1
1 0 1
0 0.204273 1
0 0.203311 1
0 0.200702 1
0 0.192874 1
0 0.170642 1
0.249821 0.106569 1
1 0 1
1 0 1
1 0 1
0 0.430777 1
0 0.430121 1
0 0.428397 1
0 0.423239 1
0 0.409033 1
0.138537 0.372656 1
1 0.290272 1
1 0.0168154 1
1 0 1
0 0.702861 1
0 0.702327 1
0 0.700908 1
0 0.696696 1
0 0.685054 1
0 0.655161 1
0.940429 0.586831 1
1 0.396612 1
1 0 1
0 0.965759 1
0 0.965255 1
0 0.963928 1
0 0.959991 1
0 0.94902 1
0 0.92015 1
0.671199 0.849195 1
1 0.695735 1
1 0.419898 1
0 1 1
0 1 1
0 1 1
0 1 1
0 1 1
0 1 1
0 1 1
0.90277 0.951583 1
1 0.746227 1
0 1 1
0 1 1
0 1 1
0 1 1
0 1 1
0 1 1
0 1 1
0.269612 1 1
0.999985 0.999969 0.999985
