src/main/resources/cube_lut/1500nits_HDR-to-SDR.cube
#DPsofrware (Davide Perini) 3D LUT. Generated by Resolve.
TITLE "1500nits_HDR-to-SDR"
LUT_3D_SIZE 9
0 0 0
0.11603 0 0
0.285267 0 0
0.540032 0 0
0.90486 0 0
1 0 0
1 0 0
1 0 0.233097
1 0 0.392386
0 0.08159 0
0.0767529 0.0721447 0
0.266621 0.0479133 0
0.528756 0 0
0.896529 0 0
1 0 0
1 0 0
1 0 0.233524
1 0 0.392294
0 0.221607 0
0 0.216754 0
0.212085 0.203525 0
0.498405 0.160464 0
0.874556 0 0
1 0 0
1 0 0
1 0 0.234653
1 0 0.392035
0 0.424414 0
0 0.421439 0
0 0.413489 0
0.403342 0.389517 0
0.810407 0.31989 0
1 0.0589456 0
1 0 0
1 0 0.238102
1 0 0.391272
0 0.687892 0
0 0.685802 0
0 0.680247 0
0 0.663752 0
0.638758 0.618448 0
1 0.500801 0
1 0.249775 0
1 0 0.247959
1 0 0.389197
0 0.966842 0
0 0.965393 0
0 0.961547 0
0 0.94757 0
0.0946365 0.914336 0
0.862333 0.837293 0
1 0.679881 0.0190738
1 0.439902 0.275196
1 0.101732 0.383932
0 1 0.010132
0 1 0.0111696
0 1 0.0139315
0 1 0.0221866
0 1 0.0451209
0.350393 1 0.104204
1 0.987442 0.203662
1 0.804654 0.343511
1 0.494209 0.372213
0 1 0.300359
0 1 0.300404
0 1 0.300557
0 1 0.300984
0 1 0.302174
0 1 0.305303
0.463035 1 0.312886
1 1 0.328511
1 0.799054 0.351919
0 1 0.300359
0 1 0.300374
0 1 0.30042
0 1 0.300572
0 1 0.300984
0 1 0.302113
0 1 0.305104
0.440452 1 0.31252
1 1 0.328511
0 0 0.0809949
0.11165 0 0.0793927
0.283055 0 0.0751965
0.538735 0 0.063035
0.90396 0 0.0319829
1 0 0
1 0 0
1 0 0.242023
1 0 0.3944
0 0.0806744 0.0730449
0.0714885 0.0714885 0.0714885
0.264302 0.0472877 0.0673991
0.527443 0 0.0555428
0.895644 0 0.0252842
1 0 0
1 0 0
1 0 0.24242
1 0 0.394293
0 0.221195 0.0525216
0 0.216342 0.0510719
0.209369 0.203113 0.0472572
0.497078 0.160006 0.0362249
0.873671 0 0.00794995
1 0 0
1 0 0
1 0 0.243442
1 0 0.394034
0 0.424094 0
0 0.421118 0
0 0.413169 0
0.401862 0.389212 0
0.809552 0.3196 0
1 0.0585031 0
1 0 0
1 0 0.246601
1 0 0.393271
0 0.687602 0
0 0.685512 0
0 0.679957 0
0 0.663478 0
0.637903 0.618189 0
1 0.500587 0
1 0.249744 0
1 0 0.25568
1 0 0.39115
0 0.966598 0
0 0.965148 0
0 0.961303 0
0 0.94728 0
0.092668 0.914107 0
0.861906 0.837125 0
1 0.679789 0.0449683
1 0.439902 0.281254
1 0.101762 0.385779
0 1 0.0307317
0 1 0.0317388
0 1 0.0344396
0 1 0.0424964
0 1 0.0648966
0.350042 1 0.119448
1 0.987366 0.211765
1 0.804623 0.34699
1 0.494209 0.373831
0 1 0.303273
0 1 0.303319
0 1 0.303456
0 1 0.303868
0 1 0.305028
0 1 0.308034
0.462928 1 0.315343
1 1 0.330449
1 0.799039 0.353094
0 1 0.301366
0 1 0.301381
0 1 0.301427
0 1 0.301579
0 1 0.301991
0 1 0.303105
0 1 0.30605
0.440406 1 0.313375
1 1 0.329183
0 0 0.224155
0.099443 0 0.222995
0.277089 0 0.219928
0.535241 0 0.210819
0.901564 0 0.185946
1 0 0.12108
1 0 0.0330968
1 0 0.264546
1 0 0.39971
0 0.0789044 0.219257
0.0574655 0.069749 0.218097
0.258061 0.0456245 0.215045
0.523949 0 0.205982
0.893248 0 0.181186
1 0 0.116136
1 0 0.0354772
1 0 0.264836
1 0 0.399603
0 0.220127 0.206165
0 0.215274 0.205035
0.202014 0.202014 0.202014
0.493492 0.158816 0.193042
0.871305 0 0.168353
1 0 0.102541
1 0 0.0404212
1 0 0.265629
1 0 0.399329
0 0.423239 0.166247
0 0.420264 0.165118
0 0.412329 0.162142
0.397925 0.388388 0.153216
0.807248 0.318807 0.128252
1 0.0572976 0.0584268
1 0 0.0494545
1 0 0.26807
1 0 0.39852
0 0.686824 0.0357671
0 0.684733 0.0346838
0 0.679194 0.0317998
0 0.66273 0.0233921
0.63566 0.617502 0.00140383
1 0.500008 0
1 0.249683 0.0644541
1 0 0.275319
1 0 0.396292
0 0.965957 0
0 0.964508 0
0 0.960662 0
0 0.946548 0
0.0872663 0.913497 0
0.860746 0.836667 0
1 0.67953 0.111177
1 0.439902 0.296818
1 0.101854 0.390646
0 1 0.0858015
0 1 0.086717
0 1 0.089128
0 1 0.0961318
0 1 0.114183
0.349142 1 0.154818
1 0.987137 0.232197
1 0.804517 0.35613
1 0.494179 0.378088
0 1 0.310918
0 1 0.310964
0 1 0.311086
0 1 0.311467
0 1 0.312505
0 1 0.315221
0.462623 1 0.321843
1 1 0.335561
1 0.798993 0.356237
0 1 0.304036
0 1 0.304051
0 1 0.304097
0 1 0.30425
0 1 0.304646
0 1 0.305715
0 1 0.308568
0.440299 1 0.315663
1 1 0.330953
0 0 0.443595
0.0579232 0 0.442405
0.258625 0 0.439231
0.524742 0 0.429923
0.894362 0 0.405188
1 0 0.346563
1 0 0.253391
1 0 0.323522
1 0 0.415229
0 0.0736553 0.439506
0.0157473 0.0645609 0.438331
0.238621 0.0406348 0.435203
0.513359 0 0.426001
0.886076 0 0.401526
1 0 0.34342
1 0 0.253391
1 0 0.323613
1 0 0.415106
0 0.216907 0.428794
0 0.212024 0.427634
0.178668 0.198703 0.424598
0.482673 0.1552 0.415671
0.86421 0 0.391882
1 0 0.335134
1 0 0.252964
1 0 0.323857
1 0 0.414801
0 0.420691 0.397971
0 0.417731 0.396918
0 0.409812 0.394125
0.385916 0.385916 0.385916
0.800351 0.316411 0.363928
1 0.053727 0.310796
1 0 0.250233
1 0 0.324712
1 0 0.41387
0 0.684489 0.319188
0 0.682414 0.318318
0 0.67689 0.316045
0 0.660502 0.309285
0.628901 0.615442 0.290959
1 0.498299 0.245182
1 0.249485 0.241657
1 0 0.327733
1 0 0.411337
0 0.964034 0.121889
0 0.9626 0.121172
0 0.958297 0.124086
0 0.944366 0.146593
0.0700389 0.911696 0.164309
0.857298 0.835294 0.187961
1 0.678782 0.23566
1 0.439887 0.339483
1 0.102113 0.404913
0 1 0.200275
0 1 0.200687
0 1 0.201755
0 1 0.204944
0 1 0.213657
0.346441 1 0.235706
1 0.986465 0.285725
1 0.804227 0.382269
1 0.494072 0.39057
0 1 0.332876
0 1 0.332906
0 1 0.332998
0 1 0.333257
0 1 0.333989
0 1 0.335912
0.461753 1 0.340612
1 1 0.350454
1 0.79884 0.365499
0 1 0.311925
0 1 0.31194
0 1 0.311986
0 1 0.312123
0 1 0.312474
0 1 0.313451
0 1 0.315999
0.439979 1 0.322393
1 1 0.336233
0 0 0.775387
0 0 0.773846
0.200275 0 0.769757
0.494514 0 0.757794
0.874113 0 0.726192
1 0 0.652766
1 0 0.521813
1 0 0.451011
1 0 0.456168
0 0.059144 0.770871
0 0.0502632 0.769345
0.176059 0.0268864 0.765301
0.482887 0 0.753491
0.865904 0 0.722255
1 0 0.649577
1 0 0.520455
1 0 0.450767
1 0 0.456016
0 0.207797 0.759045
0 0.202853 0.75758
0.0962387 0.189334 0.753674
0.451408 0.144884 0.742229
0.844251 0 0.71194
1 0 0.641215
1 0 0.516823
1 0 0.450111
1 0 0.455619
0 0.413581 0.725567
0 0.410636 0.724224
0 0.402762 0.720668
0.350622 0.379004 0.710246
0.78088 0.309712 0.682536
1 0.0438087 0.617136
1 0 0.506233
1 0 0.44831
1 0 0.454414
0 0.677989 0.643992
0 0.675929 0.642939
0 0.670481 0.640131
0 0.654261 0.631876
0.609689 0.609689 0.609689
1 0.493492 0.5561
1 0.248951 0.480095
1 0 0.444129
1 0 0.451102
0 0.957214 0.482994
0 0.955398 0.483131
0 0.950912 0.483024
0 0.938491 0.481361
0.0222934 0.906691 0.474845
0.847578 0.831464 0.458198
1 0.676692 0.433188
1 0.439841 0.438453
1 0.102846 0.442725
0 1 0.37998
0 1 0.380056
0 1 0.380224
0 1 0.380728
0 1 0.382239
0.33872 1 0.386847
1 0.984573 0.401679
1 0.803388 0.447883
1 0.493812 0.42388
0 1 0.388418
0 1 0.388418
0 1 0.388418
0 1 0.388434
0 1 0.388479
0 1 0.388602
0.459251 1 0.388891
1 1 0.389517
1 0.798428 0.390524
0 1 0.333288
0 1 0.333303
0 1 0.333333
0 1 0.333425
0 1 0.333684
0 1 0.334371
0 1 0.336187
0.439094 1 0.340749
1 1 0.350744
0 0 1
0 0 1
0 0 1
0.405875 0 1
0.818891 0 1
1 0 1
1 0 0.900526
1 0 0.684657
1 0 0.552621
0 0.0216831 1
0 0.0133364 1
0 0 1
0.393103 0 1
0.810895 0 1
1 0 1
1 0 0.898024
1 0 0.683955
1 0 0.552392
0 0.182544 1
0 0.177386 1
0 0.16318 1
0.357961 0.115282 1
0.7897 0 1
1 0 1
1 0 0.891508
1 0 0.682109
1 0 0.551797
0 0.394491 1
0 0.391592 1
0 0.383841 1
0.237232 0.360403 1
0.727367 0.291524 1
1 0.0176852 1
1 0 0.873014
1 0 0.676738
1 0 0.549996
0 0.660609 1
0 0.658625 1
0 0.65333 1
0 0.637598 1
0.555795 0.594247 1
1 0.480537 0.977234
1 0.247639 0.827512
1 0 0.662821
1 0 0.545068
0 0.940154 0.89546
0 0.938689 0.894514
0 0.934813 0.891997
0 0.923491 0.884688
0 0.893492 0.865614
0.82121 0.82121 0.82121
1 0.671061 0.736492
1 0.43975 0.632746
1 0.104814 0.532494
0 1 0.655726
0 1 0.655497
0 1 0.654932
0 1 0.653239
0 1 0.648661
0.317067 1 0.63743
0.995956 0.979431 0.614832
1 0.801129 0.590265
1 0.49308 0.503944
0 1 0.510491
0 1 0.51043
0 1 0.510292
0 1 0.50988
0 1 0.50869
0 1 0.505577
0.452369 1 0.497795
1 1 0.480705
1 0.797299 0.452201
0 1 0.386191
0 1 0.386191
0 1 0.386191
0 1 0.386206
0 1 0.386236
0 1 0.386297
0 1 0.386481
0.436652 1 0.386923
1 1 0.38793
0 0 1
0 0 1
0 0 1
0 0 1
0.668391 0 1
1 0 1
1 0 1
1 0 1
1 0 0.751247
0 0 1
0 0 1
0 0 1
0 0 1
0.660609 0 1
1 0 1
1 0 1
1 0 1
1 0 0.750896
0 0.108537 1
0 0.102083 1
0 0.0836805 1
0 0.0256352 1
0.639872 0 1
1 0 1
1 0 1
1 0 1
1 0 0.749935
0 0.345312 1
0 0.342504 1
0 0.334981 1
0 0.312047 1
0.57763 0.243046 1
1 0 1
1 0 1
1 0 1
1 0 0.747112
0 0.616449 1
0 0.614618 1
0 0.60972 1
0 0.595117 1
0.393378 0.554635 1
1 0.446799 1
1 0.24509 1
1 0 1
1 0 0.739345
0 0.901671 1
0 0.900404 1
0 0.897078 1
0 0.887221 1
0 0.860624 1
0.751064 0.795224 1
1 0.656626 1
1 0.439689 0.966552
1 0.110018 0.719402
0 1 1
0 1 1
0 1 1
0 1 1
0 1 1
0.25333 1 1
0.965835 0.96582 0.96582
1 0.794049 0.856092
1 0.491112 0.673518
0 1 0.743008
0 1 0.74287
0 1 0.742519
0 1 0.741482
0 1 0.738552
0 1 0.730739
0.43331 1 0.71104
1 1 0.66659
1 0.794217 0.587915
0 1 0.503502
0 1 0.503471
0 1 0.503426
0 1 0.503288
0 1 0.502907
0 1 0.501839
0 1 0.499031
0.429877 1 0.491829
1 1 0.475334
0 0 1
0 0 1
0 0 1
0 0 1
0.0869154 0 1
0.931319 0 1
1 0 1
1 0 1
1 0 1
0 0 1
0 0 1
0 0 1
0 0 1
0.061799 0 1
0.926314 0 1
1 0 1
1 0 1
1 0 1
0 0 1
0 0 1
0 0 1
0 0 1
0 0 1
0.913298 0 1
1 0 1
1 0 1
1 0 1
0 0.222583 1
0 0.219669 1
0 0.21181 1
0 0.187152 1
0 0.103532 1
0.876234 0 1
1 0 1
1 0 1
1 0 1
0 0.517098 1
0 0.516091 1
0 0.513176 1
0 0.503822 1
0 0.47686 1
0.781659 0.407065 1
1 0.245396 1
1 0 1
1 0 1
0 0.818936 1
0 0.817975 1
0 0.815457 1
0 0.80795 1
0 0.787457 1
0.565621 0.735973 1
1 0.623255 1
1 0.440986 1
1 0.123156 1
0 1 1
0 1 1
0 1 1
0 1 1
0 1 1
0 1 1
0.88661 0.93138 1
1 0.771282 1
1 0.485771 0.988083
0 1 1
0 1 1
0 1 1
0 1 1
0 1 1
0 1 1
0.378317 1 1
0.999985 0.999969 0.999985
1 0.785733 0.850553
0 1 0.733181
0 1 0.733135
0 1 0.733028
0 1 0.732662
0 1 0.73167
0 1 0.728939
0 1 0.721675
0.410651 1 0.702861
1 1 0.658518
0 0 1
0 0 1
0 0 1
0 0 1
0 0 1
0.288518 0 1
1 0 1
1 0 1
1 0 1
0 0 1
0 0 1
0 0 1
0 0 1
0 0 1
0.28455 0 1
1 0 1
1 0 1
1 0 1
0 0.00920119 1
0 0.00770581 1
0 0.00376898 1
0 0 1
0 0 1
0.273899 0 1
1 0 1
1 0 1
1 0 1
0 0.197024 1
0 0.196063 1
0 0.193515 1
0 0.18584 1
0 0.164019 1
0.240925 0.101335 1
1 0 1
1 0 1
1 0 1
0 0.417578 1
0 0.416938 1
0 0.415213 1
0 0.410132 1
0 0.396109 1
0.132296 0.36025 1
1 0.279301 1
1 0.15964 1
1 0 1
0 0.681147 1
0 0.680613 1
0 0.67921 1
0 0.675044 1
0 0.663523 1
0 0.633982 1
0.909758 0.566598 1
1 0.452293 1
1 0.152605 1
0 0.947463 1
0 0.947066 1
0 0.946014 1
0 0.942855 1
0 0.934096 1
0 0.911147 1
0.690654 0.855863 1
1 0.716106 1
1 0.471748 1
0 1 1
0 1 1
0 1 1
0 1 1
0 1 1
0 1 1
0.18677 1 1
0.9084 0.954299 1
1 0.762554 1
0 1 1
0 1 1
0 1 1
0 1 1
0 1 1
0 1 1
0 1 1
0.352117 1 1
0.999985 0.999969 0.999985
