src/main/resources/cube_lut/1500nits_HDR-to-SDR.cube
#DPsofrware (Davide Perini) 3D LUT. Generated by Resolve.
TITLE "1500nits_HDR-to-SDR"
LUT_3D_SIZE 33
0 0 0
0.0290837 0 0
0.0552682 0 0
0.0839094 0 0
0.11603 0 0
0.151812 0 0
0.191669 0 0
0.236011 0 0
0.285267 0 0
0.339849 0 0
0.400229 0 0
0.466819 0 0
0.540032 0 0
0.620233 0 0
0.707713 0 0
0.802609 0 0
0.90486 0 0
1 0 0
1 0 0
1 0 0
1 0 0
1 0 0
1 0 0
1 0 0
1 0 0
1 0 0
1 0 0.0798199
1 0 0.164187
1 0 0.233097
1 0 0.296391
1 0 0.357229
1 0 0.392386
1 0 0.392386
0 0.0198215 0
0.0187533 0.0176242 0
0.044892 0.0156558 0
0.0732433 0.0135042 0
0.107332 0.0107729 0
0.144594 0.00709545 0
0.185595 0.00215152 0
0.230854 0 0
0.280827 0 0
0.335988 0 0
0.396826 0 0
0.463798 0 0
0.537316 0 0
0.617761 0 0
0.705425 0 0
0.800458 0 0
0.902846 0 0
1 0 0
1 0 0
1 0 0
1 0 0
1 0 0
1 0 0
1 0 0
1 0 0
1 0 0
1 0 0.0800183
1 0 0.164309
1 0 0.233188
1 0 0.296468
1 0 0.357305
1 0 0.392355
1 0 0.39237
0 0.0376135 0
0.00947585 0.0354162 0
0.0355688 0.0334173 0
0.0638743 0.0312657 0
0.0991226 0.0285191 0
0.137881 0.0248264 0
0.180011 0.019852 0
0.226123 0.0132753 0
0.276783 0.00459297 0
0.332494 0 0
0.393759 0 0
0.461067 0 0
0.534844 0 0
0.615518 0 0
0.703365 0 0
0.798535 0 0
0.90103 0 0
1 0 0
1 0 0
1 0 0
1 0 0
1 0 0
1 0 0
1 0 0
1 0 0
1 0 0
1 0 0.0802167
1 0 0.164431
1 0 0.23328
1 0 0.296544
1 0 0.357366
1 0 0.392325
1 0 0.39234
0 0.0568704 0
0 0.0546578 0
0.0254673 0.0526589 0
0.053727 0.0504921 0
0.0897383 0.0477455 0
0.130343 0.044007 0
0.173816 0.0390173 0
0.22092 0.0323949 0
0.272343 0.023682 0
0.328664 0.0122835 0
0.390402 0 0
0.458091 0 0
0.532174 0 0
0.613077 0 0
0.701106 0 0
0.796445 0 0
0.899046 0 0
1 0 0
1 0 0
1 0 0
1 0 0
1 0 0
1 0 0
1 0 0
1 0 0
1 0 0
1 0 0.080415
1 0 0.164569
1 0 0.233387
1 0 0.29662
1 0 0.357427
1 0 0.392294
1 0 0.392325
0 0.08159 0
0 0.0791028 0
0.0126497 0.0771038 0
0.0408331 0.0749218 0
0.0767529 0.0721447 0
0.120317 0.0683909 0
0.165667 0.0633707 0
0.21416 0.0567025 0
0.266621 0.0479133 0
0.323735 0.0364385 0
0.386099 0.0215457 0
0.454276 0.00236515 0
0.528756 0 0
0.609964 0 0
0.698253 0 0
0.793774 0 0
0.896529 0 0
1 0 0
1 0 0
1 0 0
1 0 0
1 0 0
1 0 0
1 0 0
1 0 0
1 0 0
1 0 0.0806744
1 0 0.164736
1 0 0.233524
1 0 0.296727
1 0 0.357519
1 0 0.392264
1 0 0.392294
0 0.111421 0
0 0.109545 0
0 0.107836 0
0.0234989 0.105959 0
0.0592966 0.103548 0
0.105867 0.100221 0
0.154223 0.0956741 0
0.204776 0.0894179 0
0.258747 0.0805371 0
0.316991 0.0689555 0
0.38024 0.0539254 0
0.449104 0.0345617 0
0.524117 0.00981155 0
0.605768 0 0
0.694377 0 0
0.790158 0 0
0.893141 0 0
1 0 0
1 0 0
1 0 0
1 0 0
1 0 0
1 0 0
1 0 0
1 0 0
1 0 0
1 0 0.0812848
1 0 0.164965
1 0 0.233692
1 0 0.296864
1 0 0.357626
1 0 0.392218
1 0 0.392248
0 0.144518 0
0 0.142931 0
0 0.141497 0
0.000411994 0.139925 0
0.0360571 0.137911 0
0.0844282 0.135149 0
0.137896 0.13138 0
0.191684 0.126268 0
0.247898 0.119295 0
0.30779 0.109758 0
0.37229 0.0965286 0
0.442115 0.0774701 0
0.517876 0.05243 0
0.600107 0.0206455 0
0.689174 0 0
0.785321 0 0
0.888579 0 0
0.998718 0 0
1 0 0
1 0 0
1 0 0
1 0 0
1 0 0
1 0 0
1 0 0
1 0 0
1 0 0.0817578
1 0 0.16527
1 0 0.233921
1 0 0.297047
1 0 0.357778
1 0 0.392142
1 0 0.392203
0 0.18117 0
0 0.179812 0
0 0.178592 0
0 0.177249 0
0.00541695 0.17554 0
0.0532998 0.173205 0
0.114015 0.170031 0
0.173251 0.165759 0
0.232944 0.159976 0
0.295277 0.152193 0
0.361547 0.141619 0
0.432731 0.127108 0
0.509529 0.106691 0
0.592554 0.0763561 0
0.682246 0.0357519 0
0.778881 0 0
0.882536 0 0
0.992981 0 0
1 0 0
1 0 0
1 0 0
1 0 0
1 0 0
1 0 0
1 0 0
1 0 0
1 0 0.0823987
1 0 0.165682
1 0 0.234241
1 0 0.297307
1 0 0.357977
1 0 0.39205
1 0 0.392126
0 0.221607 0
0 0.220432 0
0 0.219379 0
0 0.218219 0
0 0.216754 0
0.0129549 0.21474 0
0.076585 0.212039 0
0.146593 0.208392 0
0.212085 0.203525 0
0.278157 0.196994 0
0.347051 0.188251 0
0.420157 0.176471 0
0.498405 0.160464 0
0.582544 0.138201 0
0.673091 0.105913 0
0.770382 0.0561074 0
0.874556 0 0
0.985412 0 0
1 0 0
1 0 0
1 0 0
1 0 0
1 0 0
1 0 0
1 0 0
1 0 0
1 0 0.0832532
1 0 0.166217
1 0 0.234653
1 0 0.297642
1 0 0.358251
1 0 0.391928
1 0 0.392035
0 0.266026 0
0 0.265003 0
0 0.264088 0
0 0.263081 0
0 0.261799 0
0 0.26006 0
0.0238804 0.25771 0
0.105776 0.254566 0
0.1823 0.25037 0
0.25452 0.2448 0
0.327428 0.237385 0
0.403342 0.227512 0
0.48365 0.214343 0
0.569329 0.196582 0
0.661051 0.172168 0
0.759243 0.137331 0
0.864103 0.0829023 0
0.975525 0.00317388 0
1 0 0
1 0 0
1 0 0
1 0 0
1 0 0
1 0 0
1 0 0
1 0 0
1 0 0.0843671
1 0 0.166934
1 0 0.235203
1 0 0.29807
1 0 0.358602
1 0 0.39176
1 0 0.391913
0 0.314595 0
0 0.313695 0
0 0.312886 0
0 0.312001 0
0 0.310887 0
0 0.309346 0
0 0.307301 0
0.0391699 0.30454 0
0.137438 0.300877 0
0.22118 0.296025 0
0.300618 0.289616 0
0.380789 0.281163 0
0.464088 0.269978 0
0.551949 0.255177 0
0.645304 0.23537 0
0.744717 0.208438 0
0.850523 0.170596 0
0.962692 0.113039 0
1 0.0177157 0
1 0 0
1 0 0
1 0 0
1 0 0
1 0 0
1 0 0
1 0 0
1 0 0.085832
1 0 0.16788
1 0 0.23592
1 0 0.29865
1 0 0.359075
1 0 0.391562
1 0 0.39176
0 0.367407 0
0 0.366613 0
0 0.365881 0
0 0.365103 0
0 0.364096 0
0 0.362737 0
0 0.360906 0
0 0.35848 0
0.0599527 0.35523 0
0.17174 0.350958 0
0.263203 0.345327 0
0.350286 0.337926 0
0.438102 0.328237 0
0.529122 0.315511 0
0.624765 0.298787 0
0.725887 0.2766 0
0.832975 0.246769 0
0.94612 0.205417 0
1 0.14403 0
1 0.0363317 0
1 0 0
1 0 0
1 0 0
1 0 0
1 0 0
1 0 0
1 0 0.0877394
1 0 0.169116
1 0 0.236866
1 0 0.299397
1 0 0.359686
1 0 0.391287
1 0 0.391546
0 0.424414 0
0 0.423697 0
0 0.423041 0
0 0.422339 0
0 0.421439 0
0 0.420218 0
0 0.418585 0
0 0.416388 0
0 0.413489 0
0.0875105 0.409674 0
0.208621 0.404654 0
0.308263 0.398077 0
0.403342 0.389517 0
0.499107 0.378363 0
0.598047 0.363821 0
0.701564 0.344839 0
0.810407 0.31989 0
0.92491 0.286702 0
1 0.241337 0
1 0.175433 0
1 0.0589456 0
1 0 0
1 0 0
1 0 0
1 0 0
1 0 0
1 0 0.0902266
1 0 0.170733
1 0 0.238102
1 0 0.300389
1 0 0.360479
1 0 0.390936
1 0 0.391272
0 0.485435 0
0 0.484794 0
0 0.484199 0
0 0.483558 0
0 0.482734 0
0 0.481636 0
0 0.480156 0
0 0.478172 0
0 0.475547 0
0 0.472099 0
0.118242 0.467567 0
0.247837 0.461662 0
0.356023 0.453986 0
0.459388 0.444022 0
0.563302 0.431144 0
0.670237 0.414466 0
0.781567 0.392859 0
0.897902 0.364721 0
1 0.327688 0
1 0.27779 0
1 0.206744 0
1 0.0852216 0
1 0 0
1 0 0
1 0 0
1 0 0.000854505
1 0 0.0934462
1 0 0.172839
1 0 0.239704
1 0 0.301656
1 0 0.361501
1 0 0.390478
1 0 0.390936
0 0.550134 0
0 0.549523 0
0 0.548989 0
0 0.548409 0
0 0.547662 0
0 0.546654 0
0 0.545296 0
0 0.543481 0
0 0.541085 0
0 0.537942 0
0 0.533822 0
0.150454 0.528466 0
0.289067 0.521492 0
0.406043 0.512505 0
0.517876 0.500893 0
0.629953 0.485985 0
0.744823 0.466804 0
0.863722 0.442161 0
0.987045 0.410391 0
1 0.369024 0
1 0.314092 0
1 0.237293 0
1 0.110964 0
1 0 0
1 0 0
1 0 0.00569162
1 0 0.0975967
1 0 0.175586
1 0 0.241779
1 0 0.303304
1 0 0.362829
1 0 0.389914
1 0 0.390478
0 0.617884 0
0 0.617334 0
0 0.616831 0
0 0.616297 0
0 0.61561 0
0 0.614679 0
0 0.613443 0
0 0.61178 0
0 0.609583 0
0 0.606699 0
0 0.602914 0
0 0.598001 0
0.18381 0.591638 0
0.331792 0.583429 0
0.45771 0.572885 0
0.577981 0.55935 0
0.698146 0.542077 0
0.820691 0.520027 0
0.946685 0.491936 0
1 0.456046 0
1 0.409888 0
1 0.349416 0
1 0.266453 0
1 0.180392 0
1 0.0522164 0
1 0 0.0120394
1 0 0.102953
1 0 0.179126
1 0 0.24448
1 0 0.30544
1 0 0.364553
1 0 0.389181
1 0 0.389914
0 0.687892 0
0 0.687388 0
0 0.686931 0
0 0.686427 0
0 0.685802 0
0 0.684947 0
0 0.683803 0
0 0.682261 0
0 0.680247 0
0 0.677592 0
0 0.674113 0
0 0.669596 0
0 0.663752 0
0.217838 0.656214 0
0.375357 0.646555 0
0.510155 0.634195 0
0.638758 0.618448 0
0.766735 0.598474 0
0.896483 0.573175 0
1 0.541207 0
1 0.500801 0
1 0.449409 0
1 0.383047 0
1 0.327321 0
1 0.249775 0
1 0.146365 0.0204166
1 0 0.109804
1 0 0.183734
1 0 0.247959
1 0 0.308202
1 0 0.366766
1 0 0.388251
1 0 0.389197
0 0.759091 0
0 0.758618 0
0 0.758206 0
0 0.757748 0
0 0.757168 0
0 0.756374 0
0 0.755322 0
0 0.753918 0
0 0.752056 0
0 0.749615 0
0 0.74641 0
0 0.74226 0
0 0.736889 0
0 0.729961 0
0.251942 0.721096 0
0.418952 0.709758 0
0.562448 0.695354 0
0.699062 0.677104 0
0.834394 0.654093 0
0.970779 0.625193 0
1 0.588998 0
1 0.543679 0
1 0.497063 0
1 0.442496 0
1 0.378042 0
1 0.303044 0.0315709
1 0.215045 0.118532
1 0.105272 0.189685
1 0 0.252461
1 0 0.311742
1 0 0.369604
1 0 0.387076
1 0 0.388281
0 0.830228 0
0 0.829801 0
0 0.829419 0
0 0.828992 0
0 0.828458 0
0 0.827741 0
0 0.82678 0
0 0.825483 0
0 0.823774 0
0 0.82153 0
0 0.818601 0
0 0.814801 0
0 0.809873 0
0 0.803525 0
0 0.795392 0
0.285435 0.785016 0
0.461723 0.771817 0
0.613565 0.755138 0
0.757702 0.734142 0
0.899825 0.707835 0
1 0.675029 0
1 0.638224 0
1 0.595102 0
1 0.544869 0
1 0.487327 0
1 0.422553 0.0464942
1 0.351141 0.129564
1 0.274479 0.19733
1 0.195865 0.258274
1 0.124315 0.31632
1 0.0848707 0.373266
1 0 0.385626
1 0 0.387137
0 0.899931 0
0 0.89955 0
0 0.899199 0
0 0.898817 0
0 0.898329 0
0 0.897673 0
0 0.896788 0
0 0.895613 0
0 0.894057 0
0 0.892027 0
0 0.889357 0
0 0.885878 0
0 0.881392 0
0 0.875624 0
0 0.868208 0
0 0.858747 0
0.317617 0.846723 0
0.502785 0.831525 0
0.662455 0.81239 0
0.812436 0.787839 0
0.955657 0.759289 0
1 0.725505 0
1 0.685786 0
1 0.639658 0
1 0.586969 0
1 0.528023 0.0664988
1 0.463828 0.143359
1 0.396399 0.20708
1 0.329519 0.265705
1 0.270176 0.322179
1 0.230106 0.377966
1 0.110094 0.383825
1 0 0.385702
0 0.966842 0
0 0.966491 0
0 0.966171 0
0 0.96582 0
0 0.965393 0
0 0.964797 0
0 0.964004 0
0 0.962936 0
0 0.961547 0
0 0.959701 0
0 0.956497 0
0 0.952346 0
0 0.94757 0
0 0.941726 0
0 0.934493 0
0 0.925505 0
0.0946365 0.914336 0
0.374197 0.900511 0
0.55494 0.883467 0
0.713146 0.862623 0
0.862333 0.837293 0
1 0.806851 0
1 0.770718 0
1 0.72845 0
1 0.679881 0.0190738
1 0.625315 0.0931258
1 0.565667 0.160403
1 0.502785 0.219455
1 0.439902 0.275196
1 0.382315 0.329671
1 0.332067 0.378805
1 0.231342 0.381613
1 0.101732 0.383932
0 1 0
0 1 0
0 1 0
0 1 0
0 1 0
0 1 0
0 1 0
0 1 0
0 1 0
0 1 0
0 1 0
0 1 0
0 1 0
0 0.999725 0
0 0.993866 0
0 0.986404 0
0 0.976989 0
0.183215 0.965148 0
0.423484 0.950378 0
0.599924 0.932113 0
0.757916 0.909697 0
0.908034 0.88249 0
1 0.849897 0
1 0.811414 0
1 0.766812 0.0569009
1 0.716228 0.123369
1 0.660365 0.181125
1 0.600763 0.234928
1 0.540063 0.287221
1 0.482506 0.339208
1 0.41976 0.37557
1 0.327947 0.378943
1 0.225269 0.38175
0 1 0
0 1 0
0 1 0
0 1 0
0 1 0
0 1 0
0 1 0
0 1 0
0 1 0
0 1 0
0 1 0
0 1 0
0 1 0
0 1 0
0 1 0
0 1 0
0 1 0
0 1 0
0.245594 1 0
0.467109 0.995422 0
0.640589 0.975769 0
0.79826 0.95172 0
0.948577 0.922683 0.00260929
1 0.88806 0.049546
1 0.847501 0.105257
1 0.800961 0.15697
1 0.748882 0.205905
1 0.692439 0.254002
1 0.633738 0.302266
1 0.576242 0.351232
1 0.502998 0.371786
1 0.415732 0.375738
1 0.322438 0.37911
0 1 0
0 1 0
0 1 0
0 1 0
0 1 0
0 1 0
0 1 0
0 1 0
0 1 0
0 1 0
0 1 0
0 1 0
0 1 0
0 1 0
0 1 0
0 1 0
0 1 0
0 1 0
0 1 0
0.299992 1 0
0.507439 1 0.00967422
0.677562 1 0.0382696
0.833997 0.988342 0.0738842
0.983703 0.957656 0.114519
1 0.921294 0.154162
1 0.879057 0.194095
1 0.831098 0.234958
1 0.77821 0.27715
1 0.722011 0.320882
1 0.663172 0.362356
1 0.583185 0.367437
1 0.499107 0.371984
1 0.410559 0.375952
0 1 0.010132
0 1 0.0103914
0 1 0.0106203
0 1 0.0108644
0 1 0.0111696
0 1 0.0115969
0 1 0.0121614
0 1 0.0129244
0 1 0.0139315
0 1 0.015259
0 1 0.0169985
0 1 0.0192569
0 1 0.0221866
0 1 0.0259709
0 1 0.0308385
0 1 0.0371099
0 1 0.0451209
0 1 0.0553597
0 1 0.0683757
0 1 0.085069
0.350393 1 0.104204
0.545266 1 0.125505
0.711086 1 0.149111
0.865354 1 0.175143
1 0.987442 0.203662
1 0.949767 0.234745
1 0.906355 0.268406
1 0.857603 0.304662
1 0.804654 0.343511
1 0.736812 0.357
1 0.660471 0.362539
1 0.579507 0.367651
1 0.494209 0.372213
0 1 0.131182
0 1 0.13135
0 1 0.131502
0 1 0.131655
0 1 0.131868
0 1 0.132143
0 1 0.132509
0 1 0.133013
0 1 0.133669
0 1 0.134524
0 1 0.135653
0 1 0.137102
0 1 0.138964
0 1 0.141344
0 1 0.144381
0 1 0.148211
0 1 0.153017
0 1 0.159014
0 1 0.1664
0 1 0.175448
0.128435 1 0.186419
0.398505 1 0.199573
0.581079 1 0.215167
0.741604 1 0.233448
0.892576 1 0.254612
1 1 0.278813
1 0.9738 0.306172
1 0.929763 0.336751
1 0.871794 0.345312
1 0.806226 0.351293
1 0.734417 0.357183
1 0.657115 0.362768
1 0.57496 0.36791
0 1 0.223346
0 1 0.223438
0 1 0.223529
0 1 0.223621
0 1 0.223743
0 1 0.223911
0 1 0.224125
0 1 0.224414
0 1 0.224796
0 1 0.225299
0 1 0.225956
0 1 0.22681
0 1 0.227909
0 1 0.229343
0 1 0.231159
0 1 0.233494
0 1 0.236454
0 1 0.240208
0 1 0.244907
0 1 0.250797
0 1 0.258106
0.225101 1 0.267124
0.445243 1 0.278111
0.615457 1 0.291417
0.769528 1 0.307332
0.915297 1 0.323766
1 1 0.328511
1 0.982208 0.333776
1 0.929992 0.339467
1 0.870588 0.345418
1 0.804242 0.351476
1 0.731487 0.357397
1 0.653025 0.363043
0 1 0.300359
0 1 0.300374
0 1 0.300389
0 1 0.300404
0 1 0.30042
0 1 0.30045
0 1 0.300496
0 1 0.300542
0 1 0.300603
