src/main/resources/cube_lut/1500nits_HDR-to-SDR.cube
#DPsofrware (Davide Perini) 3D LUT. Generated by Resolve.
TITLE "1500nits_HDR-to-SDR"
LUT_3D_SIZE 5
0 0 0
0.285267 0 0
0.90486 0 0
1 0 0
1 0 0.392386
0 0.221607 0
0.212085 0.203525 0
0.874556 0 0
1 0 0
1 0 0.392035
0 0.687892 0
0 0.680247 0
0.638758 0.618448 0
1 0.249775 0
1 0 0.389197
0 1 0.010132
0 1 0.0139315
0 1 0.0451209
1 0.987442 0.203662
1 0.494209 0.372213
0 1 0.300359
0 1 0.30042
0 1 0.300984
0 1 0.305104
1 1 0.328511
0 0 0.224155
0.277089 0 0.219928
0.901564 0 0.185946
1 0 0.0330968
1 0 0.39971
0 0.220127 0.206165
0.202014 0.202014 0.202014
0.871305 0 0.168353
1 0 0.0404212
1 0 0.399329
0 0.686824 0.0357671
0 0.679194 0.0317998
0.63566 0.617502 0.00140383
1 0.249683 0.0644541
1 0 0.396292
0 1 0.0858015
0 1 0.089128
0 1 0.114183
1 0.987137 0.232197
1 0.494179 0.378088
0 1 0.304036
0 1 0.304097
0 1 0.304646
0 1 0.308568
1 1 0.330953
0 0 0.775387
0.200275 0 0.769757
0.874113 0 0.726192
1 0 0.521813
1 0 0.456168
0 0.207797 0.759045
0.0962387 0.189334 0.753674
0.844251 0 0.71194
1 0 0.516823
1 0 0.455619
0 0.677989 0.643992
0 0.670481 0.640131
0.609689 0.609689 0.609689
1 0.248951 0.480095
1 0 0.451102
0 1 0.37998
0 1 0.380224
0 1 0.382239
1 0.984573 0.401679
1 0.493812 0.42388
0 1 0.333288
0 1 0.333333
0 1 0.333684
0 1 0.336187
1 1 0.350744
0 0 1
0 0 1
0.668391 0 1
1 0 1
1 0 0.751247
0 0.108537 1
0 0.0836805 1
0.639872 0 1
1 0 1
1 0 0.749935
0 0.616449 1
0 0.60972 1
0.393378 0.554635 1
1 0.24509 1
1 0 0.739345
0 1 1
0 1 1
0 1 1
0.965835 0.96582 0.96582
1 0.491112 0.673518
0 1 0.503502
0 1 0.503426
0 1 0.502907
0 1 0.499031
1 1 0.475334
0 0 1
0 0 1
0 0 1
1 0 1
1 0 1
0 0.00920119 1
0 0.00376898 1
0 0 1
1 0 1
1 0 1
0 0.417578 1
0 0.415213 1
0 0.396109 1
1 0.279301 1
1 0 1
0 0.947463 1
0 0.946014 1
0 0.934096 1
0.690654 0.855863 1
1 0.471748 1
0 1 1
0 1 1
0 1 1
0 1 1
0.999985 0.999969 0.999985
