src/main/resources/cube_lut/2000nits_HDR-to-SDR.cube
#DPsofrware (Davide Perini) 3D LUT. Generated by Resolve.
TITLE "2000nits_HDR-to-SDR"
LUT_3D_SIZE 5
0 0 0
0.285771 0 0
0.904158 0 0
1 0 0
1 0 0.440864
0 0.221897 0
0.212284 0.203723 0
0.873335 0 0
1 0 0
1 0 0.440558
0 0.685176 0
0 0.67744 0
0.635218 0.615015 0
1 0.246265 0
1 0 0.438148
0 1 0.00984207
0 1 0.0135348
0 1 0.0437934
0.997391 0.971786 0.199298
1 0.529503 0.423819
0 1 0.365026
0 1 0.365087
0 1 0.365545
0 1 0.368811
1 1 0.387671
0 0 0.224659
0.277562 0 0.220325
0.900816 0 0.185733
1 0 0.0324712
1 0 0.447089
0 0.220401 0.206424
0.202182 0.202182 0.202182
0.870054 0 0.168017
1 0 0.0396277
1 0 0.446769
0 0.684077 0.0354925
0 0.676356 0.0315404
0.63212 0.614054 0.00138857
1 0.246174 0.0630198
1 0 0.444175
0 1 0.0833753
0 1 0.086656
0 1 0.111345
0.996719 0.971481 0.22742
1 0.529473 0.428748
0 1 0.367956
0 1 0.368017
0 1 0.368444
0 1 0.371572
1 1 0.389654
0 0 0.776303
0.200504 0 0.770428
0.872984 0 0.725231
1 0 0.516381
1 0 0.495933
0 0.207919 0.75938
0.0962692 0.18938 0.75378
0.84268 0 0.710582
1 0 0.51133
1 0 0.495445
0 0.675059 0.641199
0 0.66746 0.637232
0.606088 0.606088 0.606088
1 0.245426 0.474205
1 0 0.491508
0 1 0.373663
0 1 0.373877
0 1 0.375799
0.991211 0.968917 0.394446
1 0.529152 0.467842
0 1 0.391562
0 1 0.391592
0 1 0.391882
0 1 0.393942
1 1 0.405905
0 0 1
0 0 1
0.665537 0 1
1 0 1
1 0 0.764843
0 0.108003 1
0 0.0831769 1
0.636835 0 1
1 0 1
1 0 0.763622
0 0.61239 1
0 0.605615 1
0.390082 0.550271 1
1 0.241352 1
1 0 0.753719
0 1 1
0 1 1
0 1 1
0.950256 0.95024 0.950256
1 0.526757 0.692531
0 1 0.537758
0 1 0.537713
0 1 0.53724
0 1 0.533791
1 1 0.512779
0 0 1
0 0 1
0 0 1
1 0 1
1 0 1
0 0.00895705 1
0 0.00366217 1
0 0 1
1 0 1
1 0 1
0 0.41117 1
0 0.40882 1
0 0.389853 1
1 0.274022 1
1 0.00149538 1
0 0.931655 1
0 0.930205 1
0 0.918395 1
0.678264 0.840864 1
1 0.509621 1
0 1 1
0 1 1
0 1 1
0 1 1
0.999985 0.999969 0.999985
