src/main/resources/cube_lut/2000nits_HDR-to-SDR.cube
#DPsofrware (Davide Perini) 3D LUT. Generated by Resolve.
TITLE "2000nits_HDR-to-SDR"
LUT_3D_SIZE 33
0 0 0
0.0291905 0 0
0.0554665 0 0
0.0841993 0 0
0.11635 0 0
0.152178 0 0
0.192081 0 0
0.236484 0 0
0.285771 0 0
0.340398 0 0
0.400778 0 0
0.467353 0 0
0.54052 0 0
0.6206 0 0
0.707866 0 0
0.802411 0 0
0.904158 0 0
1 0 0
1 0 0
1 0 0
1 0 0
1 0 0
1 0 0
1 0 0
1 0 0
1 0 0
1 0 0.0778363
1 0 0.160922
1 0 0.228611
1 0 0.290654
1 0 0.35024
1 0 0.408865
1 0 0.440864
0 0.0198825 0
0.0188144 0.0176852 0
0.0450446 0.0157015 0
0.0734875 0.01355 0
0.107637 0.0108186 0
0.144945 0.0071107 0
0.185992 0.00216678 0
0.231296 0 0
0.281315 0 0
0.336507 0 0
0.39736 0 0
0.464302 0 0
0.537758 0 0
0.618082 0 0
0.705547 0 0
0.800244 0 0
0.902113 0 0
1 0 0
1 0 0
1 0 0
1 0 0
1 0 0
1 0 0
1 0 0
1 0 0
1 0 0
1 0 0.0780499
1 0 0.161044
1 0 0.228702
1 0 0.290745
1 0 0.350301
1 0 0.408927
1 0 0.440833
0 0.0377356 0
0.00950637 0.035523 0
0.0356756 0.0335393 0
0.0640879 0.0313726 0
0.0994125 0.0286107 0
0.138216 0.0249027 0
0.180392 0.019913 0
0.226551 0.0133059 0
0.277256 0.00460822 0
0.332982 0 0
0.394263 0 0
0.461555 0 0
0.535271 0 0
0.615824 0 0
0.703441 0 0
0.798276 0 0
0.900252 0 0
1 0 0
1 0 0
1 0 0
1 0 0
1 0 0
1 0 0
1 0 0
1 0 0
1 0 0
1 0 0.078233
1 0 0.161166
1 0 0.228794
1 0 0.290806
1 0 0.350362
1 0 0.408972
1 0 0.440818
0 0.0570535 0
0 0.0548409 0
0.0255436 0.0528267 0
0.0538949 0.05066 0
0.0899977 0.0478828 0
0.130663 0.0441444 0
0.174166 0.0391394 0
0.221332 0.0324865 0
0.272801 0.023743 0
0.329137 0.012314 0
0.39089 0 0
0.458549 0 0
0.53257 0 0
0.613352 0 0
0.701167 0 0
0.796155 0 0
0.898253 0 0
1 0 0
1 0 0
1 0 0
1 0 0
1 0 0
1 0 0
1 0 0
1 0 0
1 0 0
1 0 0.0784314
1 0 0.161303
1 0 0.228901
1 0 0.290898
1 0 0.350423
1 0 0.409018
1 0 0.440803
0 0.0818341 0
0 0.0793469 0
0.0126955 0.0773327 0
0.0409705 0.0751507 0
0.0769818 0.0723583 0
0.120607 0.0685893 0
0.166003 0.0635386 0
0.214542 0.0568551 0
0.267048 0.0480354 0
0.324178 0.0365301 0
0.386557 0.0215915 0
0.454704 0.00236515 0
0.529122 0 0
0.610208 0 0
0.698268 0 0
0.793439 0 0
0.895689 0 0
1 0 0
1 0 0
1 0 0
1 0 0
1 0 0
1 0 0
1 0 0
1 0 0
1 0 0
1 0 0.0786755
1 0 0.161456
1 0 0.229023
1 0 0.29099
1 0 0.350515
1 0 0.409079
1 0 0.440772
0 0.111696 0
0 0.109819 0
0 0.10811 0
0.0235752 0.106218 0
0.0594644 0.103807 0
0.106111 0.100481 0
0.154513 0.0959029 0
0.205112 0.0896315 0
0.259129 0.0807202 0
0.317403 0.0691081 0
0.380652 0.0540322 0
0.449485 0.0346227 0
0.524437 0.00982681 0
0.605951 0 0
0.694331 0 0
0.789776 0 0
0.892226 0 0
1 0 0
1 0 0
1 0 0
1 0 0
1 0 0
1 0 0
1 0 0
1 0 0
1 0 0
1 0 0.0790265
1 0 0.161685
1 0 0.229191
1 0 0.291127
1 0 0.350622
1 0 0.409171
1 0 0.440742
0 0.144823 0
0 0.143236 0
0 0.141787 0
0.000411994 0.140215 0
0.0361486 0.138186 0
0.0846265 0.135409 0
0.138155 0.131624 0
0.191989 0.126497 0
0.248234 0.119509 0
0.308156 0.109941 0
0.372641 0.0966812 0
0.442435 0.0775769 0
0.518135 0.0524758 0
0.600214 0.0206607 0
0.689067 0 0
0.784863 0 0
0.887602 0 0
0.996994 0 0
1 0 0
1 0 0
1 0 0
1 0 0
1 0 0
1 0 0
1 0 0
1 0 0
1 0 0.0794842
1 0 0.16199
1 0 0.229419
1 0 0.29131
1 0 0.350774
1 0 0.409293
1 0 0.440696
0 0.181476 0
0 0.180117 0
0 0.178882 0
0 0.177539 0
0.00543221 0.175814 0
0.0534066 0.173465 0
0.114214 0.170291 0
0.173495 0.165988 0
0.233219 0.160204 0
0.295567 0.152377 0
0.361837 0.141772 0
0.432975 0.127214 0
0.509697 0.106752 0
0.592584 0.0763561 0
0.682048 0.0357366 0
0.778317 0 0
0.881453 0 0
0.99115 0 0
1 0 0
1 0 0
1 0 0
1 0 0
1 0 0
1 0 0
1 0 0
1 0 0
1 0 0.0801099
1 0 0.162387
1 0 0.229725
1 0 0.291554
1 0 0.350973
1 0 0.409461
1 0 0.440635
0 0.221897 0
0 0.220722 0
0 0.219654 0
0 0.218494 0
0 0.217014 0
0.0129854 0.215 0
0.0767224 0.212284 0
0.146777 0.208621 0
0.212284 0.203723 0
0.27837 0.197162 0
0.34725 0.188373 0
0.42031 0.176562 0
0.498482 0.160494 0
0.582467 0.13817 0
0.67277 0.105821 0
0.769711 0.0560159 0
0.873335 0 0
0.983459 0 0
1 0 0
1 0 0
1 0 0
1 0 0
1 0 0
1 0 0
1 0 0
1 0 0
1 0 0.0809339
1 0 0.162921
1 0 0.230137
1 0 0.29189
1 0 0.351232
1 0 0.409674
1 0 0.440558
0 0.26627 0
0 0.265248 0
0 0.264317 0
0 0.26331 0
0 0.262028 0
0 0.260273 0
0.0239109 0.257908 0
0.105882 0.254749 0
0.182422 0.250523 0
0.254643 0.244907 0
0.32752 0.237461 0
0.403388 0.227543 0
0.483604 0.214313 0
0.569116 0.19649 0
0.660578 0.172 0
0.758404 0.137087 0
0.86273 0.0826429 0
0.973404 0.00317388 0
1 0 0
1 0 0
1 0 0
1 0 0
1 0 0
1 0 0
1 0 0
1 0 0
1 0 0.0822919
1 0 0.163622
1 0 0.230671
1 0 0.292317
1 0 0.351583
1 0 0.409949
1 0 0.440452
0 0.314763 0
0 0.313848 0
0 0.313039 0
0 0.312154 0
0 0.311009 0
0 0.309468 0
0 0.307393 0
0.0392004 0.304631 0
0.137469 0.300938 0
0.221195 0.296056 0
0.300587 0.289601 0
0.380697 0.281086 0
0.46389 0.269856 0
0.551568 0.254963 0
0.644648 0.23508 0
0.743694 0.208072 0
0.848951 0.170138 0
0.960357 0.112581 0
1 0.0176089 0
1 0 0
1 0 0
1 0 0
1 0 0
1 0 0
1 0 0
1 0 0
1 0 0.0837262
1 0 0.164538
1 0 0.231373
1 0 0.292866
1 0 0.352026
1 0 0.41033
1 0 0.440314
0 0.367422 0
0 0.366613 0
0 0.365881 0
0 0.365087 0
0 0.36408 0
0 0.362707 0
0 0.360861 0
0 0.358404 0
0.0599222 0.355138 0
0.171664 0.35082 0
0.263066 0.345144 0
0.350042 0.337697 0
0.437736 0.327932 0
0.528542 0.315129 0
0.623896 0.298299 0
0.72462 0.27602 0
0.831144 0.246082 0
0.943542 0.204654 0
1 0.143267 0
1 0.0360266 0
1 0 0
1 0 0
1 0 0
1 0 0
1 0 0
1 0 0
1 0 0.0856031
1 0 0.165759
1 0 0.232303
1 0 0.293599
1 0 0.352621
1 0 0.410803
1 0 0.440146
0 0.424186 0
0 0.423453 0
0 0.422797 0
0 0.42208 0
0 0.42118 0
0 0.419944 0
0 0.41828 0
0 0.416083 0
0 0.413153 0
0.0873732 0.409293 0
0.208362 0.404227 0
0.307866 0.397604 0
0.402777 0.388968 0
0.498299 0.377722 0
0.596933 0.363088 0
0.700008 0.343984 0
0.808286 0.318914 0
0.922011 0.285603 0
1 0.240177 0
1 0.174304 0
1 0.0583047 0
1 0 0
1 0 0
1 0 0
1 0 0
1 0 0
1 0 0.0880446
1 0 0.16733
1 0 0.233494
1 0 0.29456
1 0 0.353399
1 0 0.411429
1 0 0.439918
0 0.484855 0
0 0.484184 0
0 0.483589 0
0 0.482948 0
0 0.482124 0
0 0.480995 0
0 0.4795 0
0 0.477501 0
0 0.474845 0
0 0.471351 0
0.117937 0.466773 0
0.247318 0.460822 0
0.355261 0.453071 0
0.458351 0.443015 0
0.561913 0.43003 0
0.668391 0.41323 0
0.77911 0.391485 0
0.894652 0.36321 0
1 0.326055 0
1 0.276112 0
1 0.205127 0
1 0.0840925 0
1 0 0
1 0 0
1 0 0
1 0 0.000839246
1 0 0.0912032
1 0 0.16939
1 0 0.235065
1 0 0.295796
1 0 0.354406
1 0 0.412238
1 0 0.439628
0 0.54902 0
0 0.548424 0
0 0.547875 0
0 0.54728 0
0 0.546532 0
0 0.54551 0
0 0.544137 0
0 0.542306 0
0 0.539879 0
0 0.53669 0
0 0.532525 0
0.14992 0.527108 0
0.288167 0.520073 0
0.404791 0.510979 0
0.516197 0.499275 0
0.627771 0.48423 0
0.742 0.464912 0
0.860075 0.440116 0
0.982376 0.408194 0
1 0.36672 0
1 0.311742 0
1 0.235111 0
1 0.109392 0
1 0 0
1 0 0
1 0 0.00555428
1 0 0.0952926
1 0 0.172076
1 0 0.237095
1 0 0.297414
1 0 0.355688
1 0 0.413291
1 0 0.439246
0 0.616083 0
0 0.615534 0
0 0.61503 0
0 0.614481 0
0 0.613794 0
0 0.612848 0
0 0.611582 0
0 0.609903 0
0 0.607675 0
0 0.604761 0
0 0.600931 0
0 0.595972 0
0.182956 0.589532 0
0.330404 0.581231 0
0.455802 0.570581 0
0.575479 0.556924 0
0.694957 0.539498 0
0.816632 0.517296 0
0.941558 0.489036 0
1 0.45301 0
1 0.40676 0
1 0.346319 0
1 0.2636 0
1 0.177951 0
1 0.0511025 0
1 0 0.0117494
1 0 0.100557
1 0 0.175555
1 0 0.239719
1 0 0.299489
1 0 0.357366
1 0 0.414649
1 0 0.438758
0 0.685176 0
0 0.684672 0
0 0.684199 0
0 0.683696 0
0 0.683055 0
0 0.6822 0
0 0.681025 0
0 0.679484 0
0 0.67744 0
0 0.674754 0
0 0.671229 0
0 0.666667 0
0 0.660746 0
0.216541 0.653132 0
0.373327 0.643366 0
0.507408 0.6309 0
0.635218 0.615015 0
0.762264 0.594873 0
0.890929 0.569421 0
1 0.537301 0
1 0.496757 0
1 0.445335 0
1 0.37908 0
1 0.323445 0
1 0.246265 0
1 0.143648 0.0199283
1 0 0.107301
1 0 0.180056
1 0 0.243137
1 0 0.302174
1 0 0.359533
1 0 0.416403
1 0 0.438148
0 0.75523 0
0 0.754757 0
0 0.75433 0
0 0.753857 0
0 0.753277 0
0 0.752483 0
0 0.751415 0
0 0.749981 0
0 0.748104 0
0 0.745632 0
0 0.742397 0
0 0.738201 0
0 0.732769 0
0 0.725765 0
0.250111 0.716808 0
0.416129 0.705364 0
0.558694 0.690837 0
0.69427 0.67245 0
0.828428 0.649287 0
0.963455 0.620233 0
1 0.583902 0
1 0.538521 0
1 0.491844 0
1 0.437308 0
1 0.373083 0
1 0.298497 0.0307927
1 0.211185 0.115877
1 0.102571 0.185885
1 0 0.247532
1 0 0.305653
1 0 0.36231
1 0 0.418647
1 0 0.437369
0 0.824948 0
0 0.824521 0
0 0.82414 0
0 0.823713 0
0 0.823163 0
0 0.822446 0
0 0.821454 0
0 0.820157 0
0 0.818433 0
0 0.816159 0
0 0.813199 0
0 0.809354 0
0 0.804379 0
0 0.797971 0
0 0.789776 0
0.282948 0.779309 0
0.457984 0.766003 0
0.608621 0.749203 0
0.751476 0.728069 0
0.892149 0.70164 0
1 0.668727 0
1 0.6318 0
1 0.588617 0
1 0.538384 0
1 0.480964 0
1 0.416464 0.045304
1 0.34551 0.126711
1 0.26949 0.193362
1 0.191684 0.253193
1 0.120974 0.310109
1 0.0819867 0.365881
1 0.106584 0.42153
1 0.0314641 0.436408
0 0.893019 0
0 0.892622 0
0 0.892271 0
0 0.89189 0
0 0.891402 0
0 0.89073 0
0 0.889845 0
0 0.888655 0
0 0.887083 0
0 0.885023 0
0 0.882338 0
0 0.878843 0
0 0.874311 0
0 0.868482 0
0 0.861021 0
0 0.851499 0
0.314397 0.839384 0
0.497993 0.824094 0
0.656153 0.804852 0
0.804593 0.780224 0
0.946166 0.751553 0
1 0.717693 0
1 0.677928 0
1 0.6318 0
1 0.579187 0
1 0.52047 0.0647288
1 0.456611 0.140246
1 0.389654 0.202914
1 0.323369 0.260471
1 0.264607 0.315831
1 0.224933 0.370459
1 0.218326 0.425223
1 0.14258 0.435187
0 0.958068 0
0 0.957717 0
0 0.957397 0
0 0.957046 0
0 0.956603 0
0 0.956008 0
0 0.955215 0
0 0.954147 0
0 0.952728 0
0 0.950881 0
0 0.947662 0
0 0.943496 0
0 0.938704 0
0 0.932845 0
0 0.925566 0
0 0.916533 0
0.0929122 0.905318 0
0.369909 0.891432 0
0.548867 0.874342 0
0.705364 0.853407 0
0.852811 0.828031 0
0.995758 0.797528 0
1 0.761364 0
1 0.719112 0
1 0.670634 0.0185702
1 0.616251 0.0907149
1 0.556909 0.156985
1 0.494438 0.21503
1 0.432059 0.269749
1 0.37499 0.32314
1 0.330999 0.376318
1 0.309834 0.429953
1 0.229816 0.433692
0 1 0
0 1 0
0 1 0
0 1 0
0 1 0
0 1 0
0 1 0
0 1 0
0 1 0
0 1 0
0 0.999954 0
0 0.997177 0
0 0.993591 0
0 0.988983 0
0 0.983093 0
0 0.975616 0
0 0.966171 0
0.180331 0.954299 0
0.418067 0.939498 0
0.592523 0.921187 0
0.748623 0.898741 0
0.896773 0.871519 0
1 0.838941 0
1 0.800519 0
1 0.756024 0.0553292
1 0.705623 0.120485
1 0.65005 0.177325
1 0.590829 0.230182
1 0.530617 0.281514
1 0.473548 0.332464
1 0.425635 0.38378
1 0.387213 0.429465
1 0.307942 0.431846
0 1 0
0 1 0
0 1 0
0 1 0
0 1 0
0 1 0
0 1 0
0 1 0
0 1 0
0 1 0
0 1 0
0 1 0
0 1 0
0 1 0
0 1 0
0 1 0
0 1 0
0 1 0
0.241657 0.998627 0
0.460533 0.982712 0
0.631846 0.963058 0
0.787427 0.93904 0
0.935622 0.910048 0.00254826
1 0.875517 0.0481575
1 0.835096 0.102571
1 0.788769 0.153506
1 0.736996 0.201617
1 0.680934 0.248875
1 0.622705 0.296223
1 0.565713 0.344213
1 0.514794 0.393271
1 0.460807 0.42678
1 0.382742 0.429618
0 1 0
0 1 0
0 1 0
0 1 0
0 1 0
0 1 0
0 1 0
0 1 0
0 1 0
0 1 0
0 1 0
0 1 0
0 1 0
0 1 0
0 1 0
0 1 0
0 1 0
0 1 0
0 1 0
0.294957 1 0
0.499687 1 0.00939956
0.667506 0.99942 0.037171
0.821698 0.974014 0.0717479
0.969146 0.943435 0.11165
1 0.907256 0.150683
1 0.865263 0.18996
1 0.817624 0.230121
1 0.765118 0.271534
1 0.709392 0.314427
1 0.653162 0.358923
1 0.600412 0.405203
1 0.533852 0.423621
1 0.456367 0.426947
0 1 0.00984207
0 1 0.0100862
0 1 0.0102998
0 1 0.010544
0 1 0.0108492
0 1 0.0112612
0 1 0.0118105
0 1 0.0125582
0 1 0.0135348
0 1 0.0148165
0 1 0.016495
0 1 0.0186923
0 1 0.0215305
0 1 0.0252079
0 1 0.0299382
0 1 0.0360266
0 1 0.0437934
0 1 0.053727
0 1 0.0663462
0 1 0.0825818
0.344244 1 0.101411
0.53637 1 0.122408
0.699763 1 0.145647
0.851682 1 0.171252
0.997391 0.971786 0.199298
1 0.934371 0.229847
1 0.891279 0.262898
1 0.842939 0.298482
1 0.790478 0.336568
1 0.736019 0.377111
1 0.680461 0.415717
1 0.60621 0.419989
1 0.529503 0.423819
0 1 0.127932
0 1 0.128084
0 1 0.128237
0 1 0.128389
0 1 0.128603
0 1 0.128862
0 1 0.129244
0 1 0.129732
0 1 0.130373
0 1 0.131212
0 1 0.132326
0 1 0.133745
0 1 0.135576
0 1 0.137926
0 1 0.140917
0 1 0.144686
0 1 0.149416
0 1 0.155306
0 1 0.162585
0 1 0.171481
0.125139 1 0.182269
0.391226 1 0.195209
0.571054 1 0.210544
0.729091 1 0.228504
0.877653 1 0.249287
1 0.995377 0.27306
1 0.957183 0.299901
1 0.913573 0.329885
1 0.865202 0.363012
1 0.813642 0.399237
1 0.749111 0.411261
1 0.677348 0.415915
1 0.60209 0.420203
0 1 0.218509
0 1 0.218601
0 1 0.218677
0 1 0.218769
0 1 0.218891
0 1 0.219043
0 1 0.219257
0 1 0.219547
0 1 0.219928
0 1 0.220417
0 1 0.221073
0 1 0.221912
0 1 0.222995
0 1 0.224384
0 1 0.226184
0 1 0.228473
0 1 0.231388
0 1 0.235065
0 1 0.239689
0 1 0.245472
0 1 0.252659
0.220127 1 0.261494
0.436835 1 0.272297
0.604364 1 0.285359
0.755932 1 0.300984
0.900038 1 0.319432
1 1 0.340978
1 0.976165 0.365789
1 0.932631 0.394034
1 0.877104 0.401526
1 0.814527 0.406516
1 0.74638 0.411444
1 0.673594 0.416144
0 1 0.295506
0 1 0.295567
0 1 0.295628
0 1 0.295689
0 1 0.295766
0 1 0.295872
0 1 0.29601
0 1 0.296208
0 1 0.296452
