src/main/resources/cube_lut/2000nits_HDR-to-SDR.cube
#DPsofrware (Davide Perini) 3D LUT. Generated by Resolve.
TITLE "2000nits_HDR-to-SDR"
LUT_3D_SIZE 9
0 0 0
0.11635 0 0
0.285771 0 0
0.54052 0 0
0.904158 0 0
1 0 0
1 0 0
1 0 0.228611
1 0 0.440864
0 0.0818341 0
0.0769818 0.0723583 0
0.267048 0.0480354 0
0.529122 0 0
0.895689 0 0
1 0 0
1 0 0
1 0 0.229023
1 0 0.440772
0 0.221897 0
0 0.217014 0
0.212284 0.203723 0
0.498482 0.160494 0
0.873335 0 0
1 0 0
1 0 0
1 0 0.230137
1 0 0.440558
0 0.424186 0
0 0.42118 0
0 0.413153 0
0.402777 0.388968 0
0.808286 0.318914 0
1 0.0583047 0
1 0 0
1 0 0.233494
1 0 0.439918
0 0.685176 0
0 0.683055 0
0 0.67744 0
0 0.660746 0
0.635218 0.615015 0
1 0.496757 0
1 0.246265 0
1 0 0.243137
1 0 0.438148
0 0.958068 0
0 0.956603 0
0 0.952728 0
0 0.938704 0
0.0929122 0.905318 0
0.852811 0.828031 0
1 0.670634 0.0185702
1 0.432059 0.269749
1 0.229816 0.433692
0 1 0.00984207
0 1 0.0108492
0 1 0.0135348
0 1 0.0215305
0 1 0.0437934
0.344244 1 0.101411
0.997391 0.971786 0.199298
1 0.790478 0.336568
1 0.529503 0.423819
0 1 0.365026
0 1 0.365072
0 1 0.365194
0 1 0.36553
0 1 0.366476
0 1 0.368963
0.501961 1 0.375036
1 1 0.387671
1 0.809659 0.406882
0 1 0.365026
0 1 0.365042
0 1 0.365087
0 1 0.365209
0 1 0.365545
0 1 0.366445
0 1 0.368811
0.482216 1 0.374746
1 1 0.387671
0 0 0.081529
0.111971 0 0.0796674
0.283558 0 0.0754101
0.539208 0 0.0631418
0.903243 0 0.0319371
1 0 0
1 0 0
1 0 0.23743
1 0 0.442573
0 0.0809186 0.0732738
0.0717021 0.0717021 0.0717021
0.264714 0.0474098 0.0675669
0.527794 0 0.0556191
0.894774 0 0.0252384
1 0 0
1 0 0
1 0 0.237797
1 0 0.442481
0 0.221485 0.0526284
0 0.216602 0.0511635
0.209567 0.203296 0.0473335
0.497139 0.160037 0.0362249
0.872435 0 0.00791943
1 0 0
1 0 0
1 0 0.238804
1 0 0.442267
0 0.42385 0
0 0.420844 0
0 0.412833 0
0.401297 0.388647 0
0.807416 0.318624 0
1 0.0578622 0
1 0 0
1 0 0.241871
1 0 0.441611
0 0.684886 0
0 0.682765 0
0 0.67715 0
0 0.660471 0
0.634379 0.614755 0
1 0.496544 0
1 0.246235 0
1 0 0.250751
1 0 0.439796
0 0.957824 0
0 0.956359 0
0 0.952499 0
0 0.93843 0
0.090959 0.905089 0
0.852384 0.827848 0
1 0.670542 0.0437934
1 0.432059 0.275715
1 0.229847 0.435248
0 1 0.0298466
0 1 0.0308232
0 1 0.0334325
0 1 0.0412604
0 1 0.0629892
0.343908 1 0.116457
0.997208 0.97171 0.207294
1 0.790448 0.340002
1 0.529488 0.425177
0 1 0.367346
0 1 0.367391
0 1 0.367498
0 1 0.367834
0 1 0.36875
0 1 0.371145
0.501869 1 0.37702
1 1 0.389242
1 0.809644 0.407874
0 1 0.365835
0 1 0.36585
0 1 0.365881
0 1 0.366003
0 1 0.366339
0 1 0.367224
0 1 0.369574
0.48217 1 0.375433
1 1 0.38822
0 0 0.224659
0.099733 0 0.223468
0.277562 0 0.220325
0.535698 0 0.211032
0.900816 0 0.185733
1 0 0.120241
1 0 0.0324712
1 0 0.259632
1 0 0.447089
0 0.0791485 0.219684
0.0576333 0.0699474 0.218509
0.258442 0.0457313 0.215381
0.524269 0 0.206149
0.892348 0 0.180926
1 0 0.115282
1 0 0.0348058
1 0 0.259922
1 0 0.446998
0 0.220401 0.206424
0 0.215518 0.205264
0.202182 0.202182 0.202182
0.493538 0.158831 0.193057
0.870054 0 0.168017
1 0 0.101686
1 0 0.0396277
1 0 0.2607
1 0 0.446769
0 0.42298 0.16611
0 0.419974 0.164981
0 0.411963 0.161944
0.39733 0.387808 0.152926
0.805097 0.317815 0.127703
1 0.056672 0.0577859
1 0 0.0484474
1 0 0.263066
1 0 0.446082
0 0.684077 0.0354925
0 0.681971 0.0344091
0 0.676356 0.0315404
0 0.659709 0.0231785
0.63212 0.614054 0.00138857
1 0.495964 0
1 0.246174 0.0630198
1 0 0.2701
1 0 0.444175
0 0.957168 0
0 0.955718 0
0 0.951843 0
0 0.937682 0
0.0856031 0.904479 0
0.851225 0.82739 0
1 0.670283 0.10869
1 0.432059 0.291051
1 0.229892 0.439384
0 1 0.0833753
0 1 0.0842756
0 1 0.086656
0 1 0.0935531
0 1 0.111345
0.343008 1 0.151339
0.996719 0.971481 0.22742
1 0.790341 0.348989
1 0.529473 0.428748
0 1 0.373465
0 1 0.373495
0 1 0.373602
0 1 0.373892
0 1 0.374731
0 1 0.376913
0.50161 1 0.382254
1 1 0.393408
1 0.809598 0.410468
0 1 0.367956
0 1 0.367971
0 1 0.368017
0 1 0.368124
0 1 0.368444
0 1 0.369299
0 1 0.371572
0.482094 1 0.377264
1 1 0.389654
0 0 0.444358
0.0581064 0 0.443122
0.259022 0 0.439841
0.525093 0 0.430228
0.893523 0 0.404761
1 0 0.344823
1 0 0.25034
1 0 0.317815
1 0 0.460395
0 0.0738537 0.440162
0.0157931 0.0647288 0.438941
0.238941 0.0407263 0.435706
0.513603 0 0.426215
0.885084 0 0.401022
1 0 0.34165
1 0 0.250324
1 0 0.317891
1 0 0.460288
0 0.217136 0.429175
0 0.212238 0.427985
0.178805 0.19884 0.424857
0.482643 0.1552 0.415656
0.862867 0 0.391196
1 0 0.333272
1 0 0.249851
1 0 0.31812
1 0 0.460014
0 0.420386 0.397665
0 0.417395 0.396582
0 0.4094 0.393713
0.38529 0.38529 0.38529
0.798138 0.315389 0.362783
1 0.0531319 0.308736
1 0 0.247013
1 0 0.318914
1 0 0.45922
0 0.681697 0.317693
0 0.679606 0.316823
0 0.674006 0.314504
0 0.657435 0.307637
0.625345 0.611963 0.289067
1 0.49424 0.242847
1 0.245975 0.238224
1 0 0.321782
1 0 0.457053
0 0.95523 0.120058
0 0.95378 0.119341
0 0.949462 0.122225
0 0.935485 0.144503
0.0686503 0.902663 0.161959
0.847791 0.826001 0.185107
1 0.669535 0.231678
1 0.432029 0.333104
1 0.230015 0.451545
0 1 0.196338
0 1 0.196735
0 1 0.197787
0 1 0.200916
0 1 0.209476
0.340337 1 0.231128
0.995285 0.97081 0.280186
1 0.790051 0.374716
1 0.529381 0.439323
0 1 0.391226
0 1 0.391257
0 1 0.391318
0 1 0.391531
0 1 0.392142
0 1 0.393713
0.500832 1 0.397559
1 1 0.405676
1 0.809461 0.418189
0 1 0.374273
0 1 0.374289
0 1 0.374319
0 1 0.374426
0 1 0.374716
0 1 0.375494
0 1 0.377554
0.481819 1 0.382712
1 1 0.393973
0 0 0.776303
0 0 0.774685
0.200504 0 0.770428
0.494652 0 0.757992
0.872984 0 0.725231
1 0 0.649683
1 0 0.516381
1 0 0.443565
1 0 0.495933
0 0.0592508 0.771603
0 0.0503548 0.770016
0.176211 0.0269169 0.76582
0.482918 0 0.753536
0.864668 0 0.721187
1 0 0.646433
1 0 0.515007
1 0 0.44332
1 0 0.495811
0 0.207919 0.75938
0 0.202945 0.757839
0.0962692 0.18938 0.75378
0.451209 0.144793 0.741909
0.84268 0 0.710582
1 0 0.637919
1 0 0.51133
1 0 0.442664
1 0 0.495445
0 0.413108 0.724819
0 0.410132 0.72343
0 0.402197 0.719753
0.34992 0.378256 0.70898
0.7785 0.308598 0.680415
1 0.0433051 0.613413
1 0 0.500618
1 0 0.440818
1 0 0.494392
0 0.675059 0.641199
0 0.672969 0.640116
0 0.66746 0.637232
0 0.651072 0.628779
0.606088 0.606088 0.606088
1 0.489387 0.551553
1 0.245426 0.474205
1 0 0.436545
1 0 0.491508
0 0.948348 0.478111
0 0.946532 0.478248
0 0.942031 0.478096
0 0.929549 0.476371
0.0218509 0.897612 0.469657
0.838102 0.822141 0.452613
1 0.66743 0.426841
1 0.431983 0.430625
1 0.230396 0.484199
0 1 0.373663
0 1 0.373724
0 1 0.373877
0 1 0.374365
0 1 0.375799
0.332723 1 0.380179
0.991211 0.968917 0.394446
1 0.789227 0.439292
1 0.529152 0.467842
0 1 0.437491
0 1 0.437491
0 1 0.437491
0 1 0.437507
0 1 0.437537
0 1 0.437644
0.49865 1 0.437888
1 1 0.438422
1 0.809079 0.439277
0 1 0.391562
0 1 0.391577
0 1 0.391592
0 1 0.391669
0 1 0.391882
0 1 0.392447
0 1 0.393942
0.481041 1 0.397681
1 1 0.405905
0 0 1
0 0 1
0 0 1
0.405554 0 1
0.817136 0 1
1 0 1
1 0 0.891508
1 0 0.673991
1 0 0.581857
0 0.0216831 1
0 0.0133364 1
0 0 1
0.392706 0 1
0.809033 0 1
1 0 1
1 0 0.888991
1 0 0.673289
1 0 0.581659
0 0.182406 1
0 0.177234 1
0 0.162982 1
0.357412 0.115023 1
0.787579 0 1
1 0 1
1 0 0.882414
1 0 0.671443
1 0 0.581109
0 0.393652 1
0 0.390738 1
0 0.38294 1
0.236469 0.35935 1
0.724605 0.290211 1
1 0.0174716 1
1 0 0.863767
1 0 0.666056
1 0 0.579492
0 0.657313 1
0 0.655314 1
0 0.649973 1
0 0.634089 1
0.552178 0.590402 1
1 0.476326 0.969406
1 0.244038 0.817914
1 0 0.65214
1 0 0.575036
0 0.931151 0.886854
0 0.929671 0.885893
0 0.92578 0.883345
0 0.914412 0.875959
0 0.884291 0.856672
0.81181 0.81181 0.81181
1 0.661768 0.726421
1 0.431861 0.622049
1 0.231434 0.563714
0 1 0.645701
0 1 0.645472
0 1 0.644907
0 1 0.643198
0 1 0.63859
0.31133 1 0.627268
0.980087 0.963806 0.604486
1 0.786969 0.579416
1 0.528496 0.538155
0 1 0.543999
0 1 0.543954
0 1 0.543832
0 1 0.54345
0 1 0.542397
0 1 0.53962
0.492622 1 0.532692
1 1 0.51754
1 0.808011 0.49247
0 1 0.435599
0 1 0.435599
0 1 0.435615
0 1 0.435615
0 1 0.43563
0 1 0.435691
0 1 0.435843
0.478904 1 0.436225
1 1 0.437079
0 0 1
0 0 1
0 0 1
0 0 1
0.665537 0 1
1 0 1
1 0 1
1 0 1
1 0 0.764843
0 0 1
0 0 1
0 0 1
0 0 1
0.65771 0 1
1 0 1
1 0 1
1 0 1
1 0 0.764508
0 0.108003 1
0 0.101549 1
0 0.0831769 1
0 0.025452 1
0.636835 0 1
1 0 1
1 0 1
1 0 1
1 0 0.763622
0 0.34374 1
0 0.340917 1
0 0.333379 1
0 0.310399 1
0.574334 0.241382 1
1 0 1
1 0 1
1 0 1
1 0 0.760983
0 0.61239 1
0 0.610544 1
0 0.605615 1
0 0.590921 1
0.390082 0.550271 1
1 0.442344 1
1 0.241352 1
1 0 1
1 0 0.753719
0 0.892317 1
0 0.891051 1
0 0.887709 1
0 0.877821 1
0 0.851148 1
0.741955 0.785641 1
1 0.647288 1
1 0.431739 0.950835
1 0.234211 0.735119
0 1 1
0 1 1
0 1 1
0 1 1
0 1 1
0.248417 1 1
0.950256 0.95024 0.950256
1 0.781003 0.841978
1 0.526757 0.692531
0 1 0.757137
0 1 0.757015
0 1 0.756695
0 1 0.755703
0 1 0.752972
0 1 0.745693
0.476005 1 0.727337
1 1 0.686107
1 0.805112 0.613886
0 1 0.537758
0 1 0.537743
0 1 0.537713
0 1 0.537591
0 1 0.53724
0 1 0.536294
0 1 0.533791
0.473045 1 0.527398
1 1 0.512779
0 0 1
0 0 1
0 0 1
0 0 1
0.0855726 0 1
0.922484 0 1
1 0 1
1 0 1
1 0 1
0 0 1
0 0 1
0 0 1
0 0 1
0.0608072 0 1
0.917479 0 1
1 0 1
1 0 1
1 0 1
0 0 1
0 0 1
0 0 1
0 0 1
0 0 1
0.904448 0 1
1 0 1
1 0 1
1 0 1
0 0.220295 1
0 0.217395 1
0 0.209567 1
0 0.185046 1
0 0.10193 1
0.867338 0 1
1 0 1
1 0 1
1 0 1
0 0.511925 1
0 0.510903 1
0 0.507973 1
0 0.498619 1
0 0.471641 1
0.772824 0.401999 1
1 0.241291 1
1 0 1
1 0 1
0 0.808957 1
0 0.808011 1
0 0.805478 1
0 0.797971 1
0 0.777478 1
0.557733 0.726085 1
1 0.613779 1
1 0.432853 1
1 0.241474 1
0 1 1
0 1 1
0 1 1
0 1 1
0 1 1
0 0.994766 1
0.871855 0.915969 1
1 0.76582 1
1 0.522011 0.988647
0 1 1
0 1 1
0 1 1
0 1 1
0 1 1
0 1 1
0.428962 1 1
0.999985 0.999969 0.999985
1 0.797147 0.858183
0 1 0.747967
0 1 0.747936
0 1 0.747814
0 1 0.747494
0 1 0.746563
0 1 0.744015
0 1 0.73724
0.456458 1 0.719738
1 1 0.678645
0 0 1
0 0 1
0 0 1
0 0 1
0 0 1
0.28368 0 1
1 0 1
1 0 1
1 0 1
0 0 1
0 0 1
0 0 1
0 0 1
0 0 1
0.279774 0 1
1 0 1
1 0 1
1 0 1
0 0.00895705 1
0 0.00750744 1
0 0.00366217 1
0 0 1
0 0 1
0.26923 0 1
1 0 1
1 0 1
1 0 1
0 0.1935 1
0 0.192554 1
0 0.190021 1
0 0.182406 1
0 0.160815 1
0.236606 0.0987869 1
1 0 1
1 0 1
1 0 1
0 0.41117 1
0 0.410529 1
0 0.40882 1
0 0.403769 1
0 0.389853 1
0.129274 0.354253 1
1 0.274022 1
1 0.155642 1
1 0.00149538 1
0 0.670665 1
0 0.670146 1
0 0.668742 1
0 0.664591 1
0 0.653132 1
0 0.623774 1
0.895033 0.556878 1
1 0.44419 1
1 0.258946 1
0 0.931655 1
0 0.931258 1
0 0.930205 1
0 0.927077 1
0 0.918395 1
0 0.895628 1
0.678264 0.840864 1
1 0.732052 1
1 0.509621 1
0 1 1
0 1 1
0 1 1
0 1 1
0 1 1
0 1 1
0.281071 1 1
0.912902 0.956481 1
1 0.775418 1
0 1 1
0 1 1
0 1 1
0 1 1
0 1 1
0 1 1
0 1 1
0.407065 1 1
0.999985 0.999969 0.999985
